MatasFilip/panda_machine_learning/panda_data2_30.csv
q1,q2,q3,q4,q5,q6,q7,x,y,z,alfa,beta,gamma
-90,-90,-90,-90,-90,-90,-90,0.026256149768399444,-0.0382336929242681,0.9336689231975126,-3.1157618344890046,0.010683357111375845,-0.31193005696168524
-90,-90,-90,-90,-90,-90,-60,-0.048108081457996325,-0.060826313127801006,0.9305306863964616,-3.051770919588384,0.03326249716804275,-0.633962922363214
-90,-90,-90,-90,-90,-90,-30,-0.12675385711170417,-0.06476016858920658,0.9167462707067328,-2.9706411439002527,0.08199248047924479,-0.9571674212155488
-90,-90,-90,-90,-90,-90,0,-0.20204674559368863,-0.05147494375380915,0.893591970740743,-2.8941583091533047,0.16600908070974996,-1.2759310628333957
-90,-90,-90,-90,-90,-90,30,-0.26876406206959697,-0.02488366334961254,0.863040562868982,-2.843979814217133,0.28639355730780197,-1.5899287750049724
-90,-90,-90,-90,-90,-90,60,-0.32426612994892623,0.010386201464510036,0.8272873059950973,-2.8422529038125135,0.4353550420684027,-1.9081630961636493
-90,-90,-90,-90,-90,-90,90,-0.36795839204047776,0.05009389641150039,0.7884108459924971,-2.9153469404830665,0.5950721580792812,-2.2530951299313506
-90,-90,-90,-90,-90,-60,-90,-0.4005865313472433,0.09089882203817606,0.7481796316059804,-2.790681825514014,0.6594645171179531,-2.1899920348812842
-90,-90,-90,-90,-90,-60,-60,-0.4235834799663216,0.13043033536218782,0.7080009065055136,-2.6927569105734968,0.7240645965630014,-2.171413086094437
-90,-90,-90,-90,-90,-60,-30,-0.4386545186120443,0.16722536282949502,0.6688974960794282,-2.6319521807942166,0.8005862679316341,-2.198066203262245
-90,-90,-90,-90,-90,-60,0,-0.4474675754637395,0.20050082554535076,0.6315734946529568,-2.6205702949929863,0.894733578805735,-2.2749165472445974
-90,-90,-90,-90,-90,-60,30,-0.4515137090807431,0.2299640221411529,0.5964701934383903,-2.6829654225601915,1.004693056184394,-2.421109240162446
-90,-90,-90,-90,-90,-60,60,-0.4520487873850396,0.2556446223561668,0.563826749766776,-2.8726422840851957,1.1162455408922567,-2.6869120257203525
-90,-90,-90,-90,-90,-60,90,-0.45008746036529046,0.27776602614478424,0.5337339237204873,3.012341772710351,1.1882497161907155,3.131157632893604
-90,-90,-90,-90,-90,-30,-90,-0.4464242142329943,0.2966550471174306,0.5061769155646566,-2.8524756656712515,1.2284912664087382,-2.730301926998548
-90,-90,-90,-90,-90,-30,-60,-0.4416652818154303,0.31267595625689165,0.48107538857398885,-2.5676211912510207,1.2335342215890566,-2.454672735900204
-90,-90,-90,-90,-90,-30,-30,-0.4362634952054146,0.32619982193281954,0.45830048684348274,-2.4254838876818963,1.2492488353210405,-2.328950916226374
-90,-90,-90,-90,-90,-30,0,-0.43054956138913497,0.33757651435629277,0.43769996600328204,-2.4068959248188753,1.2936522023940853,-2.3300913979503535
-90,-90,-90,-90,-90,-30,30,-0.42475965619442085,0.3471245175013204,0.4191098679981016,-2.5672759636770763,1.3651755429812291,-2.5107407155983066
-90,-90,-90,-90,-90,-30,60,-0.4190579952910441,0.35512616146473297,0.402363679066623,3.0945791701550216,1.4269037865491425,3.132169783418839
-90,-90,-90,-90,-90,-30,90,-0.41355485814847487,0.3618270802419125,0.3872984023973618,2.1943250730923665,1.3670358355544048,2.21542034130208
-90,-90,-90,-90,-90,0,-90,-0.4091777837345308,0.3673949214436798,0.3729061626888131,-3.093429316647088,1.4659494240818576,-3.068198334000727
-90,-90,-90,-90,-90,0,-60,-0.40499981518480255,0.37207225700380425,0.35995245864991565,-2.2857217967731507,1.4291443023868546,-2.260616192077033
-90,-90,-90,-90,-90,0,-30,-0.4010573542834899,0.3760029417593198,0.3483019979834063,-2.081888953001155,1.4023383958613587,-2.059603714285724
-90,-90,-90,-90,-90,0,0,-0.39736977609933083,0.3793087352742156,0.33782918582256904,-2.0793398247560972,1.4208656884377282,-2.061473793869152
-90,-90,-90,-90,-90,0,30,-0.39394428632911765,0.38209214215042014,0.32841841753070694,-2.3571565521790756,1.4794620822073377,-2.3445197794178347
-90,-90,-90,-90,-90,0,60,-0.3907795783033127,0.384439087372447,0.319964012721584,2.451198829868232,1.496342323135847,2.458342071830163
-90,-90,-90,-90,-90,0,90,-0.38786855224787375,0.3864213715178209,0.31236986165155145,1.8217350332521667,1.3639616308393323,1.8234604389104936
-90,-90,-90,-90,-90,30,-90,-0.39019604920332324,0.3880415695089494,0.3002910071937394,2.901861705715488,1.4701526603427175,2.9059352512004493
-90,-90,-90,-90,-90,30,-60,-0.39243491755098303,0.38943355099495175,0.289613446875647,-2.6112199322612466,1.4084167081617645,-2.6014032376211516
-90,-90,-90,-90,-90,30,-30,-0.39456260692053663,0.39062935162353934,0.28016865753938386,-2.530194774237586,1.3529277936143522,-2.515819746686303
-90,-90,-90,-90,-90,30,0,-0.39656563396892436,0.39165703049335737,0.2718077509899597,-2.6577840490976947,1.3305663026162193,-2.6433162391242133
-90,-90,-90,-90,-90,30,30,-0.3984372950212775,0.3925408613508306,0.264400025551488,-2.944667395064449,1.3227951427774842,-2.936793647619039
-90,-90,-90,-90,-90,30,60,-0.4001758248487879,0.393301701214692,0.2578310523586649,2.9277291931063263,1.2933492487710254,2.9209043576825886
-90,-90,-90,-90,-90,30,90,-0.4017828271208652,0.3939575522573684,0.25200035407621013,2.538656233176697,1.208715447377607,2.5080748781896465
-90,-90,-90,-90,-90,60,-90,-0.40949209434816203,0.39451136327853775,0.24310582352877524,3.055843619268281,1.1983094722994767,3.050330387307617
-90,-90,-90,-90,-90,60,-60,-0.4167515951275617,0.3949945523488575,0.23568530798505172,-2.984158609210752,1.126355374904148,-2.9670103959060263
-90,-90,-90,-90,-90,60,-30,-0.42351327819586926,0.39541609440318287,0.2294978027194895,-2.926651891392706,1.0585676810667477,-2.895820280249548
-90,-90,-90,-90,-90,60,0,-0.42975952865838446,0.3957838828022056,0.22433811881099908,-2.970093171132924,1.0075072094028275,-2.9392985273006826
-90,-90,-90,-90,-90,60,30,-0.4354932758174942,0.3961049912389164,0.22003280200990674,-3.0775243554668683,0.9660715697720802,-3.0636112876071255
-90,-90,-90,-90,-90,60,60,-0.4407310554994454,0.3963855772659536,0.2164366444815109,3.0559867678071346,0.9203642341701621,3.034265872462744
-90,-90,-90,-90,-90,60,90,-0.44549788911635685,0.3966309693353226,0.21342878639298896,2.886776810918647,0.8555093186933127,2.8093845316704047
-90,-90,-90,-90,-90,90,-90,-0.4570125343048421,0.3968437959394371,0.20994770507930283,3.103949844246222,0.7942450972516599,3.0888375071856546
-90,-90,-90,-90,-90,90,-60,-0.46747568570020137,0.39703124993845934,0.2077338206872898,-3.0796281744634038,0.7132575465601001,-3.0470986007130554
-90,-90,-90,-90,-90,90,-30,-0.4769139991220304,0.3971964317431181,0.20649004132556828,-3.054436859850113,0.6388543081231052,-2.996164178227704
-90,-90,-90,-90,-90,90,0,-0.48538238282782975,0.3973420266281776,0.20597689695922242,-3.0731053224450164,0.5759703575488688,-3.016399821230385
-90,-90,-90,-90,-90,90,30,-0.4929512529066359,0.3974703845301638,0.20600412257560563,-3.117393383708869,0.5211179646263482,-3.0931134914289404
-90,-90,-90,-90,-90,90,60,-0.4996976621051769,0.397583408731494,0.20642156316421917,3.1077383633098234,0.46834570358000155,3.06660428473484
-90,-90,-90,-90,-90,90,90,-0.5056998895957894,0.3976832117540508,0.2071129709352087,3.0449987837458465,0.41199827992887916,2.9040805975187496
-90,-90,-90,-90,-60,-90,-90,-0.48866762906427197,0.3905863172445595,0.20306174228506638,-3.1036966236444377,0.5471550109230978,3.128815629287174
-90,-90,-90,-90,-60,-90,-60,-0.47307056826544075,0.384095482400516,0.20152295657707647,-2.9636857060773028,0.6428608122693715,-2.977475216234787
-90,-90,-90,-90,-60,-90,-30,-0.4589815642258502,0.3783854149644905,0.20185787736446192,-2.8463372601358548,0.7198386467206858,-2.85690372317699
-90,-90,-90,-90,-60,-90,0,-0.44637914958392116,0.37350941277717103,0.20353053085066547,-2.768948202684826,0.7964520504181859,-2.7969859213392705
-90,-90,-90,-90,-60,-90,30,-0.4351865412841942,0.3694447148179244,0.20611369281761036,-2.745580525438724,0.883438875922594,-2.8024652810923274
-90,-90,-90,-90,-60,-90,60,-0.4252967578307456,0.36612571094718915,0.20927701043999272,-2.7981563535522818,0.9818759636429887,-2.888503278806958
-90,-90,-90,-90,-60,-90,90,-0.41658925360729304,0.3634664446143143,0.21277111954375966,-2.96912328494767,1.0793919449752345,-3.0929502873277546
-90,-90,-90,-90,-60,-60,-90,-0.40894081346878064,0.3613749414230888,0.2164122868540926,-2.578129394565206,1.062812890290887,-2.6534560325723664
-90,-90,-90,-90,-60,-60,-60,-0.4022324372012511,0.35976141066307843,0.2200689622167025,-2.338225757738312,1.0220459554527852,-2.387714517947678
-90,-90,-90,-90,-60,-60,-30,-0.3963528462629099,0.35854355555727746,0.22364929177378318,-2.2025040081260907,1.0030364171728692,-2.241587968960086
-90,-90,-90,-90,-60,-60,0,-0.3912005918304452,0.35764824447455384,0.22709190198355625,-2.130900633231713,1.0219019600937282,-2.1695383010083624
-90,-90,-90,-90,-60,-60,30,-0.3866845356317275,0.35701275817696193,0.23035799994845535,-2.109159288680666,1.0819289711071802,-2.153022175953027
-90,-90,-90,-90,-60,-60,60,-0.3827237681095082,0.35658376461899716,0.23342485626691906,-2.1494708099772053,1.1805599015977357,-2.200999528122719
-90,-90,-90,-90,-60,-60,90,-0.37924703767371104,0.3563167557768043,0.23628188643260567,-2.33020148393633,1.3083094352955442,-2.3896009238860887
-90,-90,-90,-90,-60,-30,-90,-0.37619188002895876,0.35617532792456746,0.23892602004597335,-1.9631291370501338,1.1611417718724981,-2.000815723159305
-90,-90,-90,-90,-60,-30,-60,-0.37350459231959837,0.3561291348872887,0.24136273238585834,-1.835267056266317,1.0561685333199584,-1.8605484924375484
-90,-90,-90,-90,-60,-30,-30,-0.371137818776784,0.35615438062152804,0.24359870681509418,-1.7736298576033174,1.0078367897789884,-1.7927362907877606
-90,-90,-90,-90,-60,-30,0,-0.36905067256466495,0.35623189908951813,0.24564379794904093,-1.7392855228214197,1.0143378201870634,-1.7560187156670501
-90,-90,-90,-90,-60,-30,30,-0.36720780591789043,0.35634644531293874,0.24750958034465922,-1.7209222682166967,1.07142264012935,-1.737170622430529
-90,-90,-90,-90,-60,-30,60,-0.36557852956202863,0.3564861194793467,0.24920801569024326,-1.7175582847333544,1.1744889330934052,-1.7337952068341702
-90,-90,-90,-90,-60,-30,90,-0.3641362942752687,0.35664164534385134,0.25075140227759934,-1.7436689139054977,1.318938702515598,-1.7594170488960263
-90,-90,-90,-90,-60,0,-90,-0.36366183325946655,0.3563947817762796,0.25134719644031617,-1.6623343613564023,1.1363643735349345,-1.673075221847814
-90,-90,-90,-90,-60,0,-60,-0.3632368830390639,0.35617865312329394,0.2518851547021199,-1.6371896003229132,1.0232194318437218,-1.6449596776381066
-90,-90,-90,-90,-60,0,-30,-0.3628561110010021,0.35598913625462164,0.25237078208842356,-1.6259689126912478,0.9734573975240491,-1.6322783702275432
-90,-90,-90,-90,-60,0,0,-0.3625147551446888,0.35582265956644565,0.25280888529993933,-1.6208949451772594,0.980909787866181,-1.626815775655325
-90,-90,-90,-90,-60,0,30,-0.36220862210888694,0.35567609998682836,0.2532040071866849,-1.6202395471916788,1.039904397193566,-1.626473138710227
-90,-90,-90,-90,-60,0,60,-0.36193401584728924,0.3555469022428966,0.2535603574811224,-1.6252894884772857,1.145289930333242,-1.6322394925942234
-90,-90,-90,-90,-60,0,90,-0.36168758528129313,0.3554328088174042,0.2538815695575298,-1.6443689831515191,1.292359383705931,-1.6522252689040793
-90,-90,-90,-90,-60,30,-90,-0.36633026190893847,0.35275652972456406,0.24944701814057463,-1.7143186160027246,1.1062573280076091,-1.7340469917090002
-90,-90,-90,-90,-60,30,-60,-0.37072383283600163,0.3504255186487096,0.2456464601644823,-1.75998493190325,0.9891695230252546,-1.7861996557563737
-90,-90,-90,-90,-60,30,-30,-0.37484481118321933,0.3483952514329447,0.2423871509162205,-1.8056653771968327,0.9340677849959261,-1.8377364607023812
-90,-90,-90,-90,-60,30,0,-0.37868295590119017,0.3466262545624805,0.23958865696546305,-1.860033463323992,0.9338171043407201,-1.9008791445461406
-90,-90,-90,-90,-60,30,30,-0.38223757663972247,0.34508377567213566,0.2371821330632109,-1.9339040482819843,0.9810402241503346,-1.988772356899702
-90,-90,-90,-90,-60,30,60,-0.3855147019311015,0.34373736939070837,0.23510918002497372,-2.0495663524355607,1.0669633006112595,-2.1249512859059245
-90,-90,-90,-90,-60,30,90,-0.38852488878268043,0.3425606521483568,0.23332050685063463,-2.2625032655983706,1.1772435426205208,-2.365376909147993
-90,-90,-90,-90,-60,60,-90,-0.3974710409353256,0.3396795477323172,0.2284777030643874,-2.1630834251530873,0.9874421602582151,-2.2649246536623817
-90,-90,-90,-90,-60,60,-60,-0.40586795264563874,0.3373685431266939,0.22464530403775557,-2.15840862696867,0.8580333097071006,-2.2583913605928387
-90,-90,-90,-90,-60,60,-30,-0.4136710078578628,0.33552755070674717,0.22163738167080435,-2.1898398123802814,0.7848707930993071,-2.2942105022243404
-90,-90,-90,-90,-60,60,0,-0.4208673123109864,0.3340709859274645,0.21929704588388452,-2.244703867304733,0.7599896650921991,-2.364837122862259
-90,-90,-90,-90,-60,60,30,-0.4274655071051231,0.33292650888041964,0.21749381456303038,-2.323376705172039,0.7741391804824831,-2.4736423034968156
-90,-90,-90,-90,-60,60,60,-0.4334883343135233,0.33203452488496377,0.21612062663036433,-2.433940740194331,0.8163769660387585,-2.6298175207551817
-90,-90,-90,-90,-60,60,90,-0.43896666087094605,0.3313454585765607,0.2150889511587922,-2.590959304767161,0.8723014716578913,-2.8477582908603294
-90,-90,-90,-90,-60,90,-90,-0.45112025982113646,0.3303259212427186,0.21346160331412026,-2.4815318192978815,0.697421068820314,-2.710419966431481
-90,-90,-90,-90,-60,90,-60,-0.4621651922676935,0.3298667712264979,0.21280441131273536,-2.4563128908324416,0.5668909844366128,-2.6665508293438775
-90,-90,-90,-90,-60,90,-30,-0.4721315500931148,0.3298276939017424,0.21287050991101397,-2.4679967391889046,0.48234858513239126,-2.677483379520288
-90,-90,-90,-90,-60,90,0,-0.4810783211467376,0.33009723935055024,0.2134630328168987,-2.498593310640123,0.43820327342471144,-2.7313513391868987
-90,-90,-90,-90,-60,90,30,-0.48907921053391235,0.330586138678916,0.21442521205065607,-2.5415423805110735,0.4272398993995886,-2.8245850335847282
-90,-90,-90,-90,-60,90,60,-0.49621525817587553,0.3312244086396015,0.21563557579201817,-2.5961085269300495,0.4419842029014952,-2.9565436292040412
-90,-90,-90,-90,-60,90,90,-0.5025683506119811,0.3319581601321995,0.21700082206425525,-2.66507002882453,0.47469440138988944,-3.1280292574903794
-90,-90,-90,-90,-30,-90,-90,-0.4858414363002202,0.32408954493688,0.21779149409771972,-2.5099514691775298,0.47696544079416087,-2.8573084944700917
-90,-90,-90,-90,-30,-90,-60,-0.470527344792014,0.3179597430677568,0.22038576702919005,-2.378839911598097,0.4746474097235222,-2.6606242021372117
-90,-90,-90,-90,-30,-90,-30,-0.45669714469493367,0.31340857490296026,0.22414614140678554,-2.2744337587172434,0.48758439618728683,-2.5247550040419293
-90,-90,-90,-90,-30,-90,0,-0.4443297410911061,0.31022175950632935,0.228586868043335,-2.1946817355277033,0.5281023602568373,-2.4353857078553824
-90,-90,-90,-90,-30,-90,30,-0.4333494474602866,0.308171250732788,0.23335449846273537,-2.1383380844688054,0.6021382240654198,-2.381611541563071
-90,-90,-90,-90,-30,-90,60,-0.42365064320271195,0.3070386489537395,0.23820035428412237,-2.1072893334687257,0.7112283026110995,-2.358101952405657
-90,-90,-90,-90,-30,-90,90,-0.4151145038876795,0.3066273747978983,0.24295635576305696,-2.1095763560609972,0.8538263032823262,-2.3680849650604725
-90,-90,-90,-90,-30,-60,-90,-0.4076196283234502,0.30676823430448624,0.2475140611194809,-1.963445274504488,0.7002718907701977,-2.1660497199458435
-90,-90,-90,-90,-30,-60,-60,-0.40104882276433046,0.3073188562948323,0.2518091557528343,-1.8818378383864836,0.596919850819823,-2.0477236664548886
-90,-90,-90,-90,-30,-60,-30,-0.39529222083976495,0.3081633984189794,0.25580624755956083,-1.8294487277532832,0.548173516760218,-1.9726047036013679
-90,-90,-90,-90,-30,-60,0,-0.3902498561154186,0.30920889406108515,0.2594922341735014,-1.7930510229024859,0.5523937056871984,-1.9229516224994085
-90,-90,-90,-90,-30,-60,30,-0.3858319604615041,0.3103820522284069,0.2628679504052695,-1.7675895903399428,0.6061073757082608,-1.8898500369320403
-90,-90,-90,-90,-30,-60,60,-0.3819589238765975,0.31162617762378875,0.2659435404523199,-1.751740703808483,0.7052924782873097,-1.868969048864061
-90,-90,-90,-90,-30,-60,90,-0.37856071144449693,0.31289815242870145,0.2687347255025654,-1.746991648726806,0.8458339353909091,-1.859752931234808
-90,-90,-90,-90,-30,-30,-90,-0.37557597054202685,0.3141659361415652,0.27125959064005173,-1.6952535320180286,0.6613260743580119,-1.7823099620269551
-90,-90,-90,-90,-30,-30,-60,-0.3729516334684193,0.31540588406625436,0.27354001342140344,-1.6667538373612003,0.5454182005513175,-1.7357574222535959
-90,-90,-90,-90,-30,-30,-30,-0.37064122038664804,0.31660162241103,0.27559535348291264,-1.6477956179828555,0.4924392787794714,-1.7043022994240038
-90,-90,-90,-90,-30,-30,0,-0.36860461337632294,0.31774199848888457,0.2774456698325094,-1.6337846663040327,0.49656845209552036,-1.6814669264968092
-90,-90,-90,-90,-30,-30,30,-0.36680702584621716,0.31882001065216076,0.2791097817769518,-1.622949120232799,0.5523239023271874,-1.663875368758418
-90,-90,-90,-90,-30,-30,60,-0.3652183866829271,0.3198317916816146,0.280605597488976,-1.6145536534314413,0.654663800325862,-1.649578141208679
-90,-90,-90,-90,-30,-30,90,-0.363812613878562,0.3207758461819831,0.2819494090626636,-1.6082961013278412,0.7989955256037546,-1.6374844792305172
-90,-90,-90,-90,-30,0,-90,-0.36337066603478363,0.32089453441482063,0.28266402213038083,-1.599351382109937,0.6145496705411684,-1.6232254118008227
-90,-90,-90,-90,-30,0,-60,-0.3629750076379784,0.32100728708960324,0.28330598693058184,-1.5945436163647118,0.5008281793531578,-1.6146728698437425
-90,-90,-90,-90,-30,0,-30,-0.3626205107706279,0.3211138383700475,0.2838823613373622,-1.5914737242413763,0.45079990640705614,-1.6091180667073701
-90,-90,-90,-90,-30,0,0,-0.3623028179995796,0.3212139250377247,0.28439996368505527,-1.5893506491553322,0.45811229653061253,-1.6054529765045968
-90,-90,-90,-90,-30,0,30,-0.3620179609024692,0.3213073507288441,0.2848647931399685,-1.5879233925759166,0.5170396194693907,-1.6031240985974682
-90,-90,-90,-90,-30,0,60,-0.36176247319452454,0.3213941349161347,0.28528242135689186,-1.5872005504730955,0.6224246308435171,-1.6018807406859688
-90,-90,-90,-90,-30,0,90,-0.3615332357441959,0.3214744282273012,0.2856575816919486,-1.587417856648444,0.7696231576755217,-1.601767639952911
-90,-90,-90,-90,-30,30,-90,-0.36619103912736056,0.31695672692668636,0.2831895834725969,-1.6163866129354856,0.5864464115339324,-1.6582427319313044
-90,-90,-90,-90,-30,30,-60,-0.3705984048451777,0.3130535395407529,0.2810948006678405,-1.6394806505878896,0.4728902920339817,-1.703035033189705
-90,-90,-90,-90,-30,30,-30,-0.37473181099600467,0.309679691194122,0.279315473518529,-1.660430778001791,0.4221691440272128,-1.743553100266895
-90,-90,-90,-90,-30,30,0,-0.37858117789788653,0.30676097346839837,0.2778019489258965,-1.68083377750242,0.42796744503251405,-1.7842713115924094
-90,-90,-90,-90,-30,30,30,-0.38214598189159177,0.30423297209635447,0.2765125099195289,-1.7024002913082612,0.48446625698477713,-1.8287171941021105
-90,-90,-90,-90,-30,30,60,-0.38543235455968466,0.3020405795510105,0.2754121071379002,-1.7281354486586604,0.5862831997435783,-1.8806670385724054
-90,-90,-90,-90,-30,30,90,-0.3884508212532068,0.30013643905729886,0.2744707297331933,-1.7640306227273395,0.728292464665628,-1.9461243314296222
-90,-90,-90,-90,-30,60,-90,-0.3974043120635316,0.29522832176614605,0.27173358185496393,-1.7817047570156765,0.5366104401532721,-1.9932128319179392
-90,-90,-90,-90,-30,60,-60,-0.40580785348688575,0.291318270907298,0.26958490392646506,-1.8043428810671378,0.41439569243187097,-2.0413676426366227
-90,-90,-90,-90,-30,60,-30,-0.41361689426017895,0.28822659890693164,0.26791393913921163,-1.82914307820075,0.3543755748457893,-2.093625393442587
-90,-90,-90,-90,-30,60,0,-0.42081863883546705,0.28580056193111397,0.2666280415574306,-1.855349537700168,0.3497501930981266,-2.1534689613149722
-90,-90,-90,-90,-30,60,30,-0.4274218745655373,0.28391336512709053,0.2656504356724452,-1.8842355926755552,0.3942183936065208,-2.224314550786227
-90,-90,-90,-90,-30,60,60,-0.43344900504360717,0.28245904488053564,0.26491754694886993,-1.9196207451706333,0.4818508948765255,-2.3101709471634138
-90,-90,-90,-90,-30,60,90,-0.4389311554384824,0.2813506153112679,0.2643778634994872,-1.9691596733275218,0.6066869618919571,-2.417619844730662
-90,-90,-90,-90,-30,90,-90,-0.451088352447673,0.2796579910527552,0.2634862772140534,-1.9640594184793034,0.40724995411424486,-2.4315933346045946
-90,-90,-90,-90,-30,90,-60,-0.4621364621540789,0.2789348230605176,0.26315390746210754,-1.9759752630678422,0.27568770677196236,-2.4648306161799045
-90,-90,-90,-90,-30,90,-30,-0.47210587717466146,0.2789376018827966,0.2632379159938181,-1.9937614372807912,0.20492088118202417,-2.513461483192621
-90,-90,-90,-90,-30,90,0,-0.4810550518201407,0.27947004058171615,0.2636222570155609,-2.013002433798267,0.18804612302256854,-2.577888329116835
-90,-90,-90,-90,-30,90,30,-0.48905819415641033,0.28037671743601494,0.2642165428107514,-2.033262424299349,0.2187774100280892,-2.6591810601110906
-90,-90,-90,-90,-30,90,60,-0.496196252146586,0.2815365557127521,0.26495052409418607,-2.0573376108456234,0.29141517481588364,-2.758667689688432
-90,-90,-90,-90,-30,90,90,-0.5025511911927422,0.2828563471539931,0.26577058932837405,-2.091200963826946,0.40044689058943833,-2.8790955372714304
-90,-90,-90,-90,0,-90,-90,-0.4858251889311422,0.27643697674124534,0.2703922026945749,-1.9876477397322174,0.27654256552438367,-2.6603209190799406
-90,-90,-90,-90,0,-90,-60,-0.4705129675605765,0.27242743100469424,0.275708133792305,-1.9103894132616288,0.19124483912065152,-2.5034167774577227
-90,-90,-90,-90,0,-90,-30,-0.45668437971870446,0.27036773665457764,0.2812440001065324,-1.8491915807863921,0.15080449168076915,-2.387549270462442
-90,-90,-90,-90,0,-90,0,-0.44431838438021587,0.26982945531350255,0.28668649041585975,-1.799317587361295,0.15678456930677953,-2.2987416224155255
-90,-90,-90,-90,0,-90,30,-0.43333940538150195,0.27043832254745037,0.29184434289215117,-1.7588684831237473,0.20817265609711255,-2.2275468234936566
-90,-90,-90,-90,0,-90,60,-0.42364189340284075,0.2718817464193963,0.2966109535560154,-1.7271043548135034,0.3026002888041251,-2.167888284809107
-90,-90,-90,-90,0,-90,90,-0.41510687791986056,0.27390497987983464,0.3009385430546548,-1.7036697018820544,0.43706553840510864,-2.116372299698274
-90,-90,-90,-90,0,-60,-90,-0.40761285955591753,0.2763068305631924,0.30481707909228445,-1.6703481732370273,0.2439406883529149,-2.0284505261042534
-90,-90,-90,-90,0,-60,-60,-0.40104269684529176,0.2789319379181087,0.30826314621350587,-1.6485418447811286,0.11970052292376274,-1.9631954142315682
-90,-90,-90,-90,0,-60,-30,-0.3952866818538183,0.28166252838026445,0.311304070394645,-1.632291527237009,0.05860482294013366,-1.911719052229475
-90,-90,-90,-90,0,-60,0,-0.39024481781163445,0.284411435109445,0.31397477563735987,-1.6194542943755525,0.05494948611805262,-1.869275528139638
-90,-90,-90,-90,0,-60,30,-0.38582738565898517,0.28711574378129406,0.31631291741284034,-1.6092491139485168,0.10334673301032882,-1.832967841182559
-90,-90,-90,-90,0,-60,60,-0.38195476729485417,0.28973141757679693,0.31835548282166354,-1.6013317392724327,0.19880949960737765,-1.8010045929823304
-90,-90,-90,-90,0,-60,90,-0.3785569436797602,0.29222899443741523,0.32013781141296893,-1.5954531486001182,0.33676941115811426,-1.772356853124924
-90,-90,-90,-90,0,-30,-90,-0.3755726100446464,0.29458992919675636,0.3216912833236203,-1.5889402624625841,0.14661679132343144,-1.7390661574698412
-90,-90,-90,-90,0,-30,-60,-0.37294855683167427,0.29680423837739317,0.32304691016725506,-1.5845183758632677,0.0276294552456415,-1.7117040210848684
-90,-90,-90,-90,0,-30,-30,-0.37063841532878516,0.2988677350997164,0.3242297592291879,-1.5811628364184191,-0.027232384701639627,-1.6884046865652678
-90,-90,-90,-90,0,-30,0,-0.36860203727724733,0.3007807071655231,0.32526251688015223,-1.5785139911575683,-0.024335764634917448,-1.668083617257855
-90,-90,-90,-90,0,-30,30,-0.36680467014943635,0.3025465872021689,0.32616525510736405,-1.5764349913918074,0.030572207591654698,-1.6500398361106887
-90,-90,-90,-90,0,-30,60,-0.3652162212206891,0.30417091551562164,0.3269552960954611,-1.574843236697747,0.13230926578895286,-1.6338162403686403
-90,-90,-90,-90,0,-30,90,-0.3638106264516093,0.3056605904927578,0.3276474857004689,-1.5736545963218742,0.27620523312440093,-1.6191196770777916
-90,-90,-90,-90,0,0,-90,-0.3633688978711996,0.30612067369594675,0.3282072179788684,-1.573033129357316,0.09151715332202899,-1.6138036654723913
-90,-90,-90,-90,0,0,-60,-0.3629733774282043,0.3065394804940729,0.3287071806807733,-1.5726029617667647,-0.022346086428616938,-1.6092886243710327
-90,-90,-90,-90,0,0,-30,-0.36261903769155684,0.3069201646907133,0.3291534627568532,-1.5722653315416555,-0.0724655332748073,-1.6053767991393937
-90,-90,-90,-90,0,0,0,-0.3623014503274519,0.30726577811791433,0.3295519789659858,-1.5719875917410382,-0.06521479901126429,-1.601942302879351
-90,-90,-90,-90,0,0,30,-0.3620166982219411,0.30757926114455786,0.32990821855241126,-1.5717614203628458,-0.0063304693306864565,-1.5988955685480684
-90,-90,-90,-90,0,0,60,-0.361761290877023,0.3078633294589612,0.33022673457877966,-1.5715839690085538,0.09902447438721976,-1.5961720497683534
-90,-90,-90,-90,0,0,90,-0.36153213034869597,0.30812054599191224,0.3305116862993039,-1.5714529489049731,0.24620319942851462,-1.5937266868982656
-90,-90,-90,-90,0,30,-90,-0.3661899840463225,0.3029743693858863,0.3306331328070195,-1.572614205395171,0.0644433586887713,-1.6437529053359785
-90,-90,-90,-90,0,30,-60,-0.37059745280625567,0.29854680931404826,0.33077083197175394,-1.5734326092344924,-0.04681646974201534,-1.6885785453445374
-90,-90,-90,-90,0,30,-30,-0.37473100100163914,0.2947352103183618,0.3309174682649586,-1.5739882782329222,-0.09460699730625431,-1.7289627968701196
-90,-90,-90,-90,0,30,0,-0.3785805094200435,0.2914510364478343,0.33106689434317504,-1.5743200956735233,-0.0852628557274706,-1.7654739663985788
-90,-90,-90,-90,0,30,30,-0.38214541240552324,0.2886174535079898,0.33121468223750133,-1.5744814235989382,-0.02448989545876014,-1.7985446250220711
-90,-90,-90,-90,0,30,60,-0.3854318033497276,0.2861687962896613,0.3313578853912791,-1.5745462953404734,0.08257336787142298,-1.8285200661687548
-90,-90,-90,-90,0,30,90,-0.3884502579639221,0.28404911439190694,0.33149476734083194,-1.574600492368704,0.2312999314683892,-1.8557018197015147
-90,-90,-90,-90,0,60,-90,-0.3974038545215166,0.27843020689615733,0.33157829324507715,-1.5749916440756275,0.050804647927088775,-1.93135683579506
-90,-90,-90,-90,0,60,-60,-0.4058074890161455,0.2739695598076288,0.33167300283379064,-1.5752519035263397,-0.059276964618818324,-1.9995627824771844
-90,-90,-90,-90,0,60,-30,-0.4136166524233706,0.2704568402453485,0.33177251213438036,-1.5753579481518913,-0.10597325618988396,-2.0611606841812167
-90,-90,-90,-90,0,60,0,-0.4208185001095142,0.2677134307988833,0.33187218802700474,-1.5753181805816199,-0.09561566616801155,-2.11684717458988
-90,-90,-90,-90,0,60,30,-0.42742166975539375,0.2655902786603207,0.3319690570596834,-1.575178481128745,-0.033906777172541966,-2.167202813738153
-90,-90,-90,-90,0,60,60,-0.4334487471221407,0.2639642205502032,0.33206129132380735,-1.575007184319888,0.07401843460758174,-2.212728113281414
-90,-90,-90,-90,0,60,90,-0.43893084864924037,0.26273430606900094,0.33214798807912144,-1.5748796184652871,0.22353666252554813,-2.253880726712053
-90,-90,-90,-90,0,90,-90,-0.4510881359933719,0.26082282526087064,0.3322219654396943,-1.5747592082201332,0.04377018877467589,-2.3420110547081348
-90,-90,-90,-90,0,90,-60,-0.4621364479551449,0.2600310693587893,0.33229635062057966,-1.5746492993428596,-0.06562317199589399,-2.4215607634661995
-90,-90,-90,-90,0,90,-30,-0.47210583437011966,0.26007549944790814,0.3323676592028095,-1.5744887730761026,-0.11167840121260503,-2.4933805783292424
-90,-90,-90,-90,0,90,0,-0.4810549503804523,0.26072859611281873,0.33243430277957076,-1.5742712482222962,-0.10073093351535699,-2.558223620892516
-90,-90,-90,-90,0,90,30,-0.48905802378695623,0.26181073046062286,0.3324955224886429,-1.5740244272721118,-0.03848422469974119,-2.6167517509088376
-90,-90,-90,-90,0,90,60,-0.4961960336374959,0.2631820192241374,0.3325512375662756,-1.5737907889343643,0.0699276286172486,-2.669557839412842
-90,-90,-90,-90,0,90,90,-0.502550930464868,0.26473474659459195,0.332601352394731,-1.5736127452479005,0.21988422550385225,-2.717189180301168
-90,-90,-90,-90,30,-90,-90,-0.4858245187043951,0.2614848567407499,0.3398111805617459,-1.5284308719368276,0.013793475655324102,-2.5921353326052303
-90,-90,-90,-90,30,-90,-60,-0.4705123970919234,0.26067055792712507,0.34642004182326647,-1.4935050380689214,-0.12817075422927474,-2.489903993619201
-90,-90,-90,-90,30,-90,-30,-0.4566839451026172,0.26165516233393615,0.3522450163877509,-1.4673425696684783,-0.20984341719127422,-2.399144595813796
-90,-90,-90,-90,30,-90,0,-0.44431811906180646,0.26391099233685167,0.3572282835032633,-1.4501437796748036,-0.23564738588055692,-2.312919306993816
-90,-90,-90,-90,30,-90,30,-0.4333392061226026,0.26701775402727507,0.36139060378335175,-1.4414359179154812,-0.21000040562424183,-2.227846839843548
-90,-90,-90,-90,30,-90,60,-0.4236416334720748,0.2706509913550563,0.364796767151059,-1.439371579259536,-0.13705299037557342,-2.1433445297091223
-90,-90,-90,-90,30,-90,90,-0.41510656077415603,0.2745667957256446,0.3675328255863235,-1.4411563408079375,-0.020666501662048423,-2.0603511273417365
-90,-90,-90,-90,30,-60,-90,-0.4076126278993689,0.2785862333748066,0.369690548523247,-1.4415638966229456,-0.22806996074185706,-2.026575693121248
-90,-90,-90,-90,30,-60,-60,-0.4010424158925004,0.2825825367291689,0.3713623551056425,-1.4425424481689844,-0.3632099009026975,-1.9890525712485003
-90,-90,-90,-90,30,-60,-30,-0.3952863495332648,0.28646760602850485,0.3726305467621949,-1.4470513772843885,-0.4331053592411449,-1.9473699903264052
-90,-90,-90,-90,30,-60,0,-0.3902444462045556,0.2901835057032621,0.3735690846139426,-1.4559037174548826,-0.44405946541037417,-1.9019744941499461
-90,-90,-90,-90,30,-60,30,-0.3858269809147026,0.29369443669562184,0.3742417338531441,-1.4679843290734123,-0.4017152514278217,-1.8546862224880278
-90,-90,-90,-90,30,-60,60,-0.3819543392157002,0.296980896541911,0.3747028455046639,-1.481199746221427,-0.31117713732125524,-1.8079829984534252
-90,-90,-90,-90,30,-60,90,-0.3785564888828492,0.3000349488682161,0.3749976244576195,-1.4935897064614796,-0.17711623878343272,-1.763949558453742
-90,-90,-90,-90,30,-30,-90,-0.375572258750261,0.3028565011426193,0.3751623112878086,-1.4990230635062733,-0.369480060395037,-1.7494132865958072
-90,-90,-90,-90,30,-30,-60,-0.3729481786849003,0.3054519321608325,0.3752292735902315,-1.504836779034001,-0.49034642124544675,-1.7306135869724548
-90,-90,-90,-90,30,-30,-30,-0.37063801898696996,0.30783030541564954,0.37522185021872295,-1.5124291020704967,-0.5467849236332297,-1.7085434060368905
-90,-90,-90,-90,30,-30,0,-0.3686016272312828,0.3100033521859161,0.37515981018515643,-1.5216858234777426,-0.5451685467668586,-1.6846072861108887
-90,-90,-90,-90,30,-30,30,-0.3668042421007273,0.3119839992296929,0.37505871088639753,-1.5315346426522727,-0.4912476839598493,-1.6606499535331198
-90,-90,-90,-90,30,-30,60,-0.36521578295199686,0.31378563972576673,0.3749306391719449,-1.5407908099066443,-0.3902259174280406,-1.638347781245003
-90,-90,-90,-90,30,-30,90,-0.3638101806218942,0.3154218280495707,0.3747852563840807,-1.548747814986454,-0.24681482740867833,-1.6187388546723536
-90,-90,-90,-90,30,0,-90,-0.36336854642037986,0.31610034152159794,0.37503982059449864,-1.5493664231656532,-0.43157508096019537,-1.6179481653945733
-90,-90,-90,-90,30,0,-60,-0.3629730055719107,0.31671298690176664,0.3752634334409922,-1.5500958170296646,-0.5455120499951196,-1.6158143729942909
-90,-90,-90,-90,30,0,-30,-0.362618649580014,0.3172657071481731,0.37545949338710527,-1.5513826130120165,-0.5957044086760277,-1.6124640848194192
-90,-90,-90,-90,30,0,0,-0.3623010440392003,0.31776425935676755,0.3756318432093226,-1.5532695452108165,-0.5885229261625515,-1.6081624507003593
-90,-90,-90,-90,30,0,30,-0.3620162777230171,0.31821377124630107,0.3757835217217009,-1.5554846261862092,-0.5297007569431682,-1.6033560061201981
-90,-90,-90,-90,30,0,60,-0.3617608518469981,0.31861903793383106,0.37591736680066834,-1.5576645551239023,-0.4243987543662374,-1.5985041204467423
-90,-90,-90,-90,30,0,90,-0.3615316809168511,0.3189842760814672,0.37603555877044015,-1.5595357959075837,-0.2772632604036398,-1.5939163167519477
-90,-90,-90,-90,30,30,-90,-0.36618960534167055,0.31458799791708925,0.37871325732995803,-1.53197679110579,-0.45767535719894803,-1.651968404741546
-90,-90,-90,-90,30,30,-60,-0.37059707485451077,0.31082286017464417,0.3810468542149722,-1.503754602064707,-0.5663098548480227,-1.7103423054801803
-90,-90,-90,-90,30,30,-30,-0.3747306245662945,0.3075956420939305,0.38307953943897843,-1.4777187657403126,-0.6106024695618004,-1.7633698329121044
-90,-90,-90,-90,30,30,0,-0.3785801187094007,0.3048261608195234,0.3848508619109555,-1.4570631216063548,-0.5974351385625652,-1.8060908904525497
-90,-90,-90,-90,30,30,30,-0.38214500154191317,0.3024459597241264,0.3863955177762805,-1.4430275608952285,-0.5330349710484433,-1.8359671285963641
-90,-90,-90,-90,30,30,60,-0.385431356541555,0.30039684650341775,0.3877439742963597,-1.4343366317494861,-0.4229035661096059,-1.8530811789096384
-90,-90,-90,-90,30,30,90,-0.3884497730707209,0.2986294434253678,0.3889224010455197,-1.4281873098964364,-0.2718724627246734,-1.8587725895107052
-90,-90,-90,-90,30,60,-90,-0.3974034765902273,0.29380528513965914,0.3918040455154409,-1.3790408245194061,-0.43704838120790435,-1.9702306043666342
-90,-90,-90,-90,30,60,-60,-0.4058071409016618,0.2899900440280737,0.39411650273312654,-1.3319791344856795,-0.5296680089833976,-2.072496443246777
-90,-90,-90,-90,30,60,-30,-0.41361628984598703,0.28699766323850867,0.3959589426742297,-1.293933548831166,-0.558848933635664,-2.155958223353775
-90,-90,-90,-90,30,60,0,-0.4208181058610709,0.2846714570726141,0.3974168567784911,-1.269098999128244,-0.5328834723982149,-2.2144959624411418
-90,-90,-90,-90,30,60,30,-0.42742122278226696,0.2828810264393038,0.3985624235671474,-1.2566008365245525,-0.4587201124935103,-2.2473033478596496
-90,-90,-90,-90,30,60,60,-0.43344825616737703,0.28151882727249344,0.39945547353039634,-1.2516308423633296,-0.34195675239058904,-2.2572531285760107
-90,-90,-90,-90,30,60,90,-0.4389303178872567,0.2804969125356911,0.40014558343047907,-1.247873099960102,-0.1872792590062002,-2.2477698978424643
-90,-90,-90,-90,30,90,-90,-0.45108775955623454,0.27887863476128266,0.40116519766391967,-1.198029022943685,-0.3260414980980372,-2.396555844489325
-90,-90,-90,-90,30,90,-60,-0.4621360518484041,0.2782301150679557,0.4016254466760401,-1.1550109449707608,-0.3960596147061553,-2.5202707142829768
-90,-90,-90,-90,30,90,-30,-0.47210539263398194,0.2783040295637349,0.40166490430519297,-1.1253714453025159,-0.40771927300887933,-2.611844255552484
-90,-90,-90,-90,30,90,0,-0.4810544431678672,0.2789027510638267,0.40139618595196425,-1.110302985785301,-0.3694605103097859,-2.6691649446438612
-90,-90,-90,-90,30,90,30,-0.4890574753483057,0.27987041678494096,0.4009082573846072,-1.1058739502554962,-0.2876228175029772,-2.694729266887393
-90,-90,-90,-90,30,90,60,-0.4961954382858177,0.28108574996953783,0.40027091128453796,-1.1052217530581276,-0.167061676390623,-2.692892157989242
-90,-90,-90,-90,30,90,90,-0.5025503066785638,0.282455606765346,0.39953797745039304,-1.100481788450576,-0.012038536841280109,-2.666842820611854
-90,-90,-90,-90,60,-90,-90,-0.4858243630934626,0.28324606417203424,0.40740470273658425,-1.0725100133955479,-0.2517915736024373,-2.647693528361847
-90,-90,-90,-90,60,-90,-60,-0.4705122595076927,0.28584584230002724,0.41353594716885184,-1.0421709598415807,-0.4240677525261734,-2.616295144090649
-90,-90,-90,-90,60,-90,-30,-0.45668377711010893,0.2896110776989727,0.4180883764505267,-1.0243992414310015,-0.5363815465338985,-2.565127832602501
-90,-90,-90,-90,60,-90,0,-0.44431789463317184,0.2940561697717957,0.42127622414502014,-1.029817279666858,-0.5950200433599729,-2.4874335885570202
-90,-90,-90,-90,60,-90,30,-0.43333891285037973,0.29882770769532985,0.4233276820155333,-1.061375013978574,-0.6037485901654064,-2.382777094085539
-90,-90,-90,-90,60,-90,60,-0.4236412670879053,0.30367717040108244,0.42446111670848685,-1.113063708085232,-0.5640825152170929,-2.258911227389073
-90,-90,-90,-90,60,-90,90,-0.41510615407767676,0.3084363082150638,0.42487283909826007,-1.17331279615261,-0.476951849270086,-2.128442107946296
-90,-90,-90,-90,60,-60,-90,-0.40761232340252423,0.3129962290013858,0.4247317838565112,-1.153257250269429,-0.6856026542709898,-2.157874743762742
-90,-90,-90,-90,60,-60,-60,-0.40104206366401085,0.3172929783495991,0.42418159108632697,-1.1384849003483135,-0.8253280565445968,-2.164847502861532
-90,-90,-90,-90,60,-60,-30,-0.39528595195694033,0.32129157539512515,0.42333744909640375,-1.145392420713407,-0.9034987594533492,-2.1404532805675456
-90,-90,-90,-90,60,-60,0,-0.3902440061692793,0.3249788284608334,0.422292378031199,-1.1821175474165455,-0.9256718227164236,-2.080949739095536
-90,-90,-90,-90,60,-60,30,-0.3858264914252248,0.3283557463047802,0.42111962124202534,-1.2421017808039208,-0.8952890778899222,-1.9957452253004946
-90,-90,-90,-90,60,-60,60,-0.3819538392662967,0.3314323978219447,0.4198757220946161,-1.3090342111555107,-0.8151377963522386,-1.9030533266294472
-90,-90,-90,-90,60,-60,90,-0.37855597991701384,0.33422460676928467,0.41860395782804427,-1.3689474652446278,-0.6888009720465811,-1.8180579767476666
-90,-90,-90,-90,60,-30,-90,-0.3755719046497613,0.336750593873788,0.4173355516952899,-1.3589162550930358,-0.8813336958834651,-1.8342828451800288
-90,-90,-90,-90,60,-30,-60,-0.3729477847292141,0.33903180349010426,0.4160958754507025,-1.3562399902189424,-1.0033989709168505,-1.8350726502108303
-90,-90,-90,-90,60,-30,-30,-0.37063752019648144,0.3410878749053837,0.4149003401874283,-1.3710130455991942,-1.0620158097499905,-1.813974177779236
-90,-90,-90,-90,60,-30,0,-0.36860112206841544,0.34293880673118354,0.413760055122557,-1.4046320165617192,-1.0630495217433997,-1.7718605869403896
-90,-90,-90,-90,60,-30,30,-0.36680366258710567,0.3446034958490787,0.4126821050433872,-1.4468740116000391,-1.0114856555861338,-1.720469877601498
-90,-90,-90,-90,60,-30,60,-0.3652152206405176,0.3460997913514849,0.4116702851537684,-1.485621829973419,-0.9120999239552697,-1.6729611813876348
-90,-90,-90,-90,60,-30,90,-0.36380955271802373,0.34744405897649494,0.41072619050045683,-1.5153733877813618,-0.7696377921382948,-1.6355498769335801
-90,-90,-90,-90,60,0,-90,-0.3633680440503031,0.34815919872675105,0.41060721990235927,-1.5085906334975006,-0.9543004676314762,-1.6449121097029946
-90,-90,-90,-90,60,0,-60,-0.36297250865941794,0.3488015855254899,0.4104944847774518,-1.503361606623576,-1.0682112148905063,-1.6507498723721596
-90,-90,-90,-90,60,0,-30,-0.36261816482379516,0.34937830296534045,0.41038786195536764,-1.5037048109198,-1.11848065109506,-1.6497746658861718
-90,-90,-90,-90,60,0,0,-0.36230048570107615,0.3498961673967668,0.41028778814866385,-1.5111203503007846,-1.1114665827035706,-1.640942772346922
-90,-90,-90,-90,60,0,30,-0.3620157375017254,0.3503613362206867,0.41019432343020085,-1.5225982895352739,-1.05283755930001,-1.6275696577451155
-90,-90,-90,-90,60,0,60,-0.36176034502725,0.35077915192257914,0.41010748143666775,-1.5339205927220854,-0.94769785362201,-1.6140745865679147
-90,-90,-90,-90,60,0,90,-0.3615310988449682,0.35115451102323936,0.4100271858769809,-1.5429282582810144,-0.8006775298389838,-1.6027391460406495
-90,-90,-90,-90,60,30,-90,-0.366189141846616,0.3486863803409743,0.41454423681788966,-1.4592739730627922,-0.978622805802946,-1.701487110560615
-90,-90,-90,-90,60,30,-60,-0.3705966309404688,0.3465923320671461,0.41844776236662695,-1.3553407691533104,-1.0811150030985839,-1.8230256767994657
-90,-90,-90,-90,60,30,-30,-0.3747301670824444,0.3448137031624653,0.42182193312003924,-1.2578276505353718,-1.1166229182537282,-1.936291894147392
-90,-90,-90,-90,60,30,0,-0.3785796563758116,0.34330079789758566,0.4247408111083119,-1.1994884699932853,-1.095504916171127,-2.0055824152398594
-90,-90,-90,-90,60,30,30,-0.38214450963265156,0.34201170831702676,0.4272688341832384,-1.1870517448638953,-1.0268111930532082,-2.0220833080505094
-90,-90,-90,-90,60,30,60,-0.38543086211654687,0.3409111609672202,0.4294612053795753,-1.2035174437150122,-0.9162592930953188,-2.0011979154706827
-90,-90,-90,-90,60,30,90,-0.388449284117292,0.33996957759890284,0.4313654300832611,-1.2295494839488368,-0.7675297802133215,-1.9607731232894994
-90,-90,-90,-90,60,60,-90,-0.39740309875366503,0.33723292768794993,0.4362729487760921,-1.060498945486016,-0.9009261230876149,-2.1742444250536597
-90,-90,-90,-90,60,60,-60,-0.4058067492219546,0.33508492180390753,0.44018326462734886,-0.9031017245319781,-0.9542317173221164,-2.371337454909382
-90,-90,-90,-90,60,60,-30,-0.4136158636228681,0.33341452649962094,0.44327517268966926,-0.8003117915549387,-0.9485575356077205,-2.5038912180275874
-90,-90,-90,-90,60,60,0,-0.42081762386735777,0.3321288174124756,0.44570106107675755,-0.7640575160815986,-0.9017996112856433,-2.5562296323486238
-90,-90,-90,-90,60,60,30,-0.4274207307499893,0.3311508373217282,0.4475883426980853,-0.7783446300877818,-0.8227993558849159,-2.541536292764282
-90,-90,-90,-90,60,60,60,-0.43344773460435554,0.3304175165923388,0.44904290297624744,-0.8189887074990564,-0.7138661711898932,-2.4815863664591453
-90,-90,-90,-90,60,60,90,-0.4389297479420011,0.32987750719405107,0.45015164147033754,-0.8652746937488395,-0.5753917883656288,-2.3944103549384885
-90,-90,-90,-90,60,90,-90,-0.4510870219388619,0.32898630483257496,0.45184464254912843,-0.7214057691203729,-0.6416592166144292,-2.6244204462531466
-90,-90,-90,-90,60,90,-60,-0.4621353043301696,0.3286545911346278,0.4525674863352561,-0.6204631846151353,-0.6467874197622021,-2.7935045866411374
-90,-90,-90,-90,60,90,-30,-0.4721046260568831,0.32873814229470527,0.45256474777531913,-0.5696906125834417,-0.6130220069940941,-2.8901616743178606
-90,-90,-90,-90,60,90,0,-0.48105368775548046,0.3291220580254986,0.45203258048939,-0.5598312847443232,-0.552604181363972,-2.9201582346306845
-90,-90,-90,-90,60,90,30,-0.48905668329806407,0.3297162375505747,0.4511262834857717,-0.5756400985133184,-0.4699745963540162,-2.895692996749572
-90,-90,-90,-90,60,90,60,-0.4961947714910492,0.3304501963277165,0.44996626484586344,-0.6017609553818276,-0.3660038599917093,-2.828830709033581
-90,-90,-90,-90,60,90,90,-0.5025498117034262,0.33127031441675836,0.4486460001810148,-0.6247724003201975,-0.24130256319284604,-2.728481084547218
-90,-90,-90,-90,90,-90,-90,-0.485824904035489,0.3358897059559672,0.45506109566314046,-0.5584816926707105,-0.46152568080464806,-2.8317167573033624
-90,-90,-90,-90,90,-90,-60,-0.47051265920554874,0.3412064902414676,0.4590714156562131,-0.4796562460774786,-0.6247170285606714,-2.9050476247386485
-90,-90,-90,-90,90,-90,-30,-0.4566840847782771,0.34674320069524495,0.4611315657912483,-0.41856664958332823,-0.7434348487819952,-2.9360663243714105
-90,-90,-90,-90,90,-90,0,-0.444318106118763,0.3521864826774977,0.4616700572739214,-0.40196191745918136,-0.8291910527673532,-2.908321740906803
-90,-90,-90,-90,90,-90,30,-0.43333898746470517,0.35734432453443316,0.4610610620208341,-0.4500001478442639,-0.8865260027231234,-2.8085107058441916
-90,-90,-90,-90,90,-90,60,-0.4236412414593298,0.36211065530028014,0.45961819939917214,-0.5694061201809123,-0.909831112694344,-2.634722301300333
-90,-90,-90,-90,90,-90,90,-0.4151060147006648,0.36643805354604514,0.4575955205350773,-0.7417832331634211,-0.8858816680834354,-2.408583060632282
-90,-90,-90,-90,90,-60,-90,-0.4076121551958242,0.37031675096745154,0.45519382797256075,-0.5554792764160077,-1.0562835939729516,-2.6285821437571704
-90,-90,-90,-90,90,-60,-60,-0.40104183842182534,0.37376273676684735,0.4525690702345448,-0.358657435853658,-1.161456231810486,-2.836862175558319
-90,-90,-90,-90,90,-60,-30,-0.395285601828038,0.376803707393329,0.4498389228148809,-0.22511720347329867,-1.225071272403756,-2.9678803196209014
-90,-90,-90,-90,90,-60,0,-0.39024362159531195,0.37947442112480445,0.44709024001024006,-0.2253107365865478,-1.2674547745221882,-2.956676137220007
-90,-90,-90,-90,90,-60,30,-0.3858260777630798,0.38181255692055227,0.44438610162477193,-0.4054802817325949,-1.2894325460960716,-2.7609284242401295
-90,-90,-90,-90,90,-60,60,-0.3819534251374967,0.38385510119001975,0.4417704524496367,-0.7308020205276506,-1.2677847064909384,-2.4182665746978
-90,-90,-90,-90,90,-60,90,-0.37855556668505513,0.38563740455832385,0.4392728524396643,-1.0416472368624885,-1.1803010649734855,-2.0902263479511856
-90,-90,-90,-90,90,-30,-90,-0.37557149832072534,0.38719104820864647,0.43691163762264623,-0.728426169311975,-1.3480720964078006,-2.4189244804310315
-90,-90,-90,-90,90,-30,-60,-0.37294738027460766,0.3885465993104312,0.4346972139219403,-0.20607862792084483,-1.4272272106622044,-2.9472859562356106
-90,-90,-90,-90,90,-30,-30,-0.37063727360152193,0.38972934138179655,0.4326335198914884,0.21613988894205297,-1.4500943791322976,2.9134833956835093
-90,-90,-90,-90,90,-30,0,-0.36860084973058144,0.3907620616589537,0.43072038352582087,0.23663787011822404,-1.4705241026722315,2.896053356488831
-90,-90,-90,-90,90,-30,30,-0.36680346919396406,0.39166466446639847,0.42895434464208404,-0.373100532822662,-1.4858742080243315,-2.772917104743905
-90,-90,-90,-90,90,-30,60,-0.36521498350532505,0.3924545743345676,0.4273298289776282,-1.1286934638252086,-1.4243255438133873,-2.012767347893837
-90,-90,-90,-90,90,-30,90,-0.36380938843146793,0.3931466773329739,0.4258399662728178,-1.398149648248408,-1.2905027716415416,-1.7395810851259341
-90,-90,-90,-90,90,0,-90,-0.36336790843048816,0.3937068769613381,0.4253793670634218,-1.1329533036434436,-1.4697036456205215,-2.008905037154572
-90,-90,-90,-90,90,0,-60,-0.36297233072388596,0.3942067556451614,0.42496043078295187,0.5239385048614629,-1.5262908667370265,2.615419422910466
-90,-90,-90,-90,90,0,-30,-0.3626179579743396,0.3946528444043298,0.42457965715815343,1.1235970276277334,-1.490515620373473,2.015275837795279
-90,-90,-90,-90,90,0,0,-0.3623003100383475,0.3950513165169123,0.42423390593695953,1.1236475832945272,-1.4985349540084378,2.0157410114645224
-90,-90,-90,-90,90,0,30,-0.36201552052712627,0.39540739561902183,0.42392033131691026,0.2205798445307169,-1.5419929654687539,2.9199626695046024
-90,-90,-90,-90,90,0,60,-0.3617600982148852,0.3957257903534944,0.42363619037370925,-1.3202788038105504,-1.4685828210649055,-1.8208395943674711
-90,-90,-90,-90,90,0,90,-0.36153088605648115,0.39601075377935513,0.4233788543963524,-1.4776281752064622,-1.3235495428038164,-1.6617792629238328
-90,-90,-90,-90,90,30,-90,-0.3661889587579703,0.39613219475900086,0.4285248528162591,-0.7241046985346704,-1.4734913351084835,-2.4169483724954834
-90,-90,-90,-90,90,30,-60,-0.37059643199327486,0.39627025512071684,0.4329527400838726,0.37398651465556343,-1.4440905897137823,2.7622128884275328
-90,-90,-90,-90,90,30,-30,-0.37472999121511585,0.396416759058105,0.43676428683183643,0.5315217060977133,-1.386696866458042,2.5993800051604032
-90,-90,-90,-90,90,30,0,-0.37857947510617584,0.3965657933410929,0.44004876498725354,0.4041756757582164,-1.3584825752383622,2.725567528592086
-90,-90,-90,-90,90,30,30,-0.3821443258034865,0.39671319897086565,0.4428828060881066,0.10157875144395263,-1.3417586713872935,3.033533692824683
-90,-90,-90,-90,90,30,60,-0.3854306872853639,0.3968561150362956,0.44533182868370397,-0.3070145569228905,-1.3004496426017842,-2.8276158253695574
-90,-90,-90,-90,90,30,90,-0.3884490854075276,0.39699270131475006,0.44745189308114314,-0.6679367411181982,-1.2058183305549819,-2.4441337395742933
-90,-90,-90,-90,90,60,-90,-0.3974028602242163,0.39707700906424026,0.4530702892470732,-0.1380772342291293,-1.2068305204516665,-2.9984442691080737
-90,-90,-90,-90,90,60,-60,-0.4058064954325668,0.3971717393595524,0.45753090708921285,0.12442292977487467,-1.1382046709921179,2.9998090588777884
-90,-90,-90,-90,90,60,-30,-0.4136156007714244,0.3972708587260624,0.4610439221329895,0.19103939565298736,-1.0700264848746375,2.9194578123271957
-90,-90,-90,-90,90,60,0,-0.4208173635371852,0.3973700953307043,0.46378775442818204,0.15130919730243522,-1.017277328682825,2.9589752655707864
-90,-90,-90,-90,90,60,30,-0.4274204450631027,0.3974666244264279,0.46591133507792915,0.04551182582738819,-0.9735472751722775,3.0812829760559404
-90,-90,-90,-90,90,60,60,-0.4334474489343209,0.39755867760892427,0.4675377405962133,-0.10281627494524057,-0.9252149470795931,-3.018361935531112
-90,-90,-90,-90,90,60,90,-0.4389294385969228,0.39764532194029895,0.46876798501467054,-0.27004277282099426,-0.8576918162515171,-2.795875320935525
-90,-90,-90,-90,90,90,-90,-0.45108671018845214,0.3977199758243981,0.47067972848112843,-0.04894913705895774,-0.7986023276460272,-3.0788312448329873
-90,-90,-90,-90,90,90,-60,-0.4621349920661287,0.39779390488302385,0.4714716837849315,0.05360184677515165,-0.718151356085428,3.0544054906575737
-90,-90,-90,-90,90,90,-30,-0.47210434942552937,0.39786469681440245,0.47142751661152954,0.08051598288694489,-0.6435086259941479,3.001837337045815
-90,-90,-90,-90,90,90,0,-0.4810533792740415,0.39793098312137504,0.4707748399814045,0.06279711699960128,-0.5800343949033964,3.021085725921232
-90,-90,-90,-90,90,90,30,-0.48905671132986844,0.3979923003879222,0.4696919128171712,0.019044644990383146,-0.5244178245102784,3.0971382138064056
-90,-90,-90,-90,90,90,60,-0.4961949823278847,0.3980478916810826,0.468319945336083,-0.03865158424955534,-0.47079161445940104,-3.0631042751223934
-90,-90,-90,-90,90,90,90,-0.5025500708932272,0.39809797376147915,0.46676662248864564,-0.10106169119763977,-0.41355363665043443,-2.901075528470644
-90,-90,-90,-60,-90,-90,-90,-0.483194460844993,0.3768096010377376,0.4633436901546106,-0.3875471976575623,-0.5035384050194885,-2.963566035551656
-90,-90,-90,-60,-90,-90,-60,-0.4681591355290781,0.3589008998452431,0.44734194024801044,-0.6801074082931431,-0.5745714827803701,-2.8911140545861276
-90,-90,-90,-60,-90,-90,-30,-0.45598328841656294,0.3474931175482936,0.42383647062074803,-0.9708612333473139,-0.5651548362405406,-2.7350543097531177
-90,-90,-90,-60,-90,-90,0,-0.4453192555400869,0.3431605865512541,0.39717690730798744,-1.2180883890302652,-0.45692041137274164,-2.5725516086875433
-90,-90,-90,-60,-90,-90,30,-0.43523653945149676,0.34504468773345104,0.3705063361795595,-1.3972493008026932,-0.2651201559596415,-2.4526788097534973
-90,-90,-90,-60,-90,-90,60,-0.42523524609403773,0.3516954375481483,0.3457910000459592,-1.5185893753283721,-0.013576481925863389,-2.3827169221271514
-90,-90,-90,-60,-90,-90,90,-0.4151415052837813,0.36159046505978226,0.3240567106764236,-1.6056715095921987,0.2795166857314504,-2.355046880980199
-90,-90,-90,-60,-90,-60,-90,-0.40498222178971943,0.37339683649281485,0.3056663997545488,-1.6671881596757596,0.23770588048798122,-2.3259103602953837
-90,-90,-90,-60,-90,-60,-60,-0.3948830836933901,0.3860681385492387,0.2905746446566112,-1.7080071251064222,0.2587852144032736,-2.2951629886674394
-90,-90,-90,-60,-90,-60,-30,-0.38499822498328823,0.3988451986719305,0.2784946655787065,-1.7346084315040113,0.33383263764053744,-2.272908131090994
-90,-90,-90,-60,-90,-60,0,-0.3754708115182284,0.41121779332934993,0.2690374743191012,-1.7535338551223363,0.4554158317852309,-2.263146433630166
-90,-90,-90,-60,-90,-60,30,-0.36641432197097973,0.42287101636141117,0.26178768738530966,-1.7721847385753224,0.6175688518153523,-2.268219169102584
-90,-90,-90,-60,-90,-60,60,-0.357907244101039,0.43363380851364675,0.2563488462078412,-1.8011059059164243,0.8152215985870798,-2.293558287672792
-90,-90,-90,-60,-90,-60,90,-0.34999509613845164,0.44343549530265997,0.2523660927965328,-1.8644553235725823,1.0431742416265362,-2.3592487763794936
-90,-90,-90,-60,-90,-30,-90,-0.3426948175426042,0.45227226717365265,0.249531709658424,-1.7987539384839466,0.9452307546516255,-2.273381564658178
-90,-90,-90,-60,-90,-30,-60,-0.33600505951354526,0.4601805249177394,0.24759823978271042,-1.762666544952303,0.9066953141091858,-2.2270958238991416
-90,-90,-90,-60,-90,-30,-30,-0.32990583703372256,0.4672217674547718,0.24635421991389664,-1.7409746682141836,0.9229291552943111,-2.2026116201866714
-90,-90,-90,-60,-90,-30,0,-0.32436801942462035,0.4734687021206993,0.2456328377997775,-1.7296655459933354,0.9890051033615148,-2.1933692398279336
-90,-90,-90,-60,-90,-30,30,-0.3193562314823817,0.4789978396008951,0.24530180267481416,-1.7305311087989412,1.1001767100398419,-2.198956653785448
-90,-90,-90,-60,-90,-30,60,-0.3148318974200619,0.48388457063721363,0.24525731254862415,-1.7568908043332654,1.251838228410088,-2.23099558113587
-90,-90,-90,-60,-90,-30,90,-0.3107554494699141,0.48820027699642604,0.24541869433874391,-1.915644401244854,1.4379654546672131,-2.395199923089129
-90,-90,-90,-60,-90,0,-90,-0.30792739772555705,0.4921319149992111,0.2448601815512573,-1.722768987821678,1.2982056062529734,-2.2023305338712333
-90,-90,-90,-60,-90,0,-60,-0.3053525014224755,0.495649114378482,0.24445988772489075,-1.6792268232495609,1.2215921916731265,-2.1605296455828786
-90,-90,-90,-60,-90,0,-30,-0.303011387993566,0.49879532798326803,0.24417984274783597,-1.6646584906802178,1.2044137912619215,-2.14890974196557
-90,-90,-90,-60,-90,0,0,-0.3008861944255196,0.501609488505438,0.24399246249502318,-1.6648245265437382,1.2410491318631771,-2.152789140759132
-90,-90,-90,-60,-90,0,30,-0.2989595473336707,0.5041268001721565,0.2438759395573649,-1.6845369655660571,1.326101864798112,-2.17662045523708
-90,-90,-90,-60,-90,0,60,-0.2972148150628623,0.506378937251953,0.2438130755454464,-1.785655501733811,1.4540107940654199,-2.281992176007142
-90,-90,-90,-60,-90,0,90,-0.29563620741556995,0.5083943347002288,0.24379026599374806,1.9622652264538483,1.5119766821342444,1.4617236228065493
-90,-90,-90,-60,-90,30,-90,-0.2988585585452089,0.5118298873823635,0.23847520495803554,-2.158604453761482,1.4406531534539995,-2.664388566165166
-90,-90,-90,-60,-90,30,-60,-0.3018495409711069,0.5151933965249139,0.23389386464180706,-2.0982159456037137,1.337032137009177,-2.603432958961044
-90,-90,-90,-60,-90,30,-30,-0.30460992187473684,0.5184319951423467,0.2299466309342452,-2.1675537448828917,1.2882541160989813,-2.671612808257024
-90,-90,-90,-60,-90,30,0,-0.307145905269183,0.521511246681233,0.22654437473301045,-2.319615631303753,1.2839343851771465,-2.825716361063801
-90,-90,-90,-60,-90,30,30,-0.3094674019126584,0.5244105713461504,0.22360951976327972,-2.598048390215595,1.3050124105127479,-3.111972972044564
-90,-90,-90,-60,-90,30,60,-0.31158642687458693,0.5271196304120425,0.22107488690472904,-3.058575908431094,1.3134798133492014,2.695432374607433
-90,-90,-90,-60,-90,30,90,-0.3135162031456434,0.5296354362985941,0.21888285672323657,2.703155011120004,1.257133357578626,2.150217897505347
-90,-90,-90,-60,-90,60,-90,-0.32079384993526083,0.5347609559626348,0.21320787141646072,-3.0465996665657262,1.2097046163034642,2.704666190272324
-90,-90,-90,-60,-90,60,-60,-0.32758075327106817,0.5396573144326987,0.20870047369026876,-2.8469786938705646,1.1220647622319502,2.924379153275443
-90,-90,-90,-60,-90,60,-30,-0.33385313756809964,0.5442708198334198,0.20514702490120493,-2.818834396290064,1.0515730753695058,2.964666659562911
-90,-90,-90,-60,-90,60,0,-0.33961203358071185,0.548572072950678,0.20236893782474552,-2.8799875220423967,1.0036128565022464,2.9026510218132433
-90,-90,-90,-60,-90,60,30,-0.34487300634661594,0.5525497935024414,0.20021633668126929,-3.000616785076175,0.9681819422345754,2.7648419477606234
-90,-90,-90,-60,-90,60,60,-0.34966073640860207,0.5562057234562595,0.19856633599031237,3.119692179378325,0.9296663785656029,2.5664702812264553
-90,-90,-90,-60,-90,60,90,-0.35400451829304297,0.5595500394411,0.1973170289544303,2.935678737960488,0.8715709797742044,2.3273375252006114
-90,-90,-90,-60,-90,90,-90,-0.3641804084315742,0.5661331145578369,0.1953698193191549,-3.134014686616531,0.8003484954680207,2.6013778110343972
-90,-90,-90,-60,-90,90,-60,-0.3734175385337619,0.572150279242159,0.19456449051674074,-3.0411664248911463,0.7145826690639123,2.7409810301358877
-90,-90,-90,-60,-90,90,-30,-0.381736351839554,0.5776087224857331,0.19459868002495626,-3.0216631607402684,0.6387449856253673,2.785871331689004
-90,-90,-90,-60,-90,90,0,-0.38919137643588775,0.5825300088546985,0.19524471660739046,-3.044745479423069,0.5763631365768669,2.761204937260939
-90,-90,-90,-60,-90,90,30,-0.3958492469487914,0.5869463142985438,0.19632214558107317,-3.0927021849308742,0.5231187590961683,2.6810623687982145
-90,-90,-90,-60,-90,90,60,-0.4017806907889816,0.5908963192403118,0.19769052576174462,3.129016550721008,0.4725165869436122,2.5546730314405273
-90,-90,-90,-60,-90,90,90,-0.4070562829012254,0.5944210143078567,0.19924177635068235,3.062810047694186,0.4184839593329098,2.389470107183565
-90,-90,-90,-60,-60,-90,-90,-0.39598468764303957,0.580119051883454,0.19620813322870612,-3.0854033263620657,0.5494295840735685,2.6161696070832385
-90,-90,-90,-60,-60,-90,-60,-0.38579114442836476,0.5670646272781902,0.19546492051930603,-2.946076019685392,0.6424972517896638,2.7937560389753573
-90,-90,-90,-60,-60,-90,-30,-0.3765078154914111,0.5554184770862923,0.1964947257077438,-2.829732200288386,0.7180753913531246,2.9144599660485198
-90,-90,-90,-60,-60,-90,0,-0.3680921651700324,0.5452104351502187,0.19877557877149282,-2.753102834686554,0.7942617117069755,2.9745669483257386
-90,-90,-90,-60,-60,-90,30,-0.3604894191266333,0.5363804850738665,0.2018912775718671,-2.729890385299921,0.8815685469476219,2.9697445129949065
-90,-90,-90,-60,-60,-90,60,-0.35363958056896605,0.5288184167122901,0.2055213102751912,-2.7818559982896724,0.9809980995902206,2.885026643865478
-90,-90,-90,-60,-60,-90,90,-0.34748107263303146,0.5223908522380298,0.2094252703599594,-2.9518857411525694,1.0802891665507732,2.682143649636802
-90,-90,-90,-60,-60,-60,-90,-0.341948523405738,0.516960732669057,0.21341949095609725,-2.5638541783773268,1.0604866138443636,3.118825884758287
-90,-90,-90,-60,-60,-60,-60,-0.33699371179410315,0.5123883399389323,0.21739638762092653,-2.3277129883039853,1.0184019343286608,-2.9021748175200375
-90,-90,-90,-60,-60,-60,-30,-0.33255559661925443,0.5085519399630439,0.2212600149994729,-2.1942990604192123,0.9990821600123645,-2.7581392316010978
-90,-90,-90,-60,-60,-60,0,-0.3285827517657036,0.5053398970832763,0.2249536018122557,-2.123791699244768,1.0180713262380277,-2.686973583477592
-90,-90,-90,-60,-60,-60,30,-0.3250278649506732,0.5026542288627076,0.22844231462223122,-2.102168922229435,1.0784291578341876,-2.670374749206355
-90,-90,-90,-60,-60,-60,60,-0.3218477007767603,0.5004102787205152,0.23170721636438976,-2.141321076287193,1.1775553362019833,-2.717004774390483
-90,-90,-90,-60,-60,-60,90,-0.31900300545448884,0.4985357345897988,0.23474075919563536,-2.3177073081460797,1.3061722902766806,-2.9010912528376154
-90,-90,-90,-60,-60,-30,-90,-0.3164556671007837,0.4969705501717677,0.23753769058311325,-1.9581177914684393,1.1582748489750703,-2.5197907127520187
-90,-90,-90,-60,-60,-30,-60,-0.31417969660962586,0.49566054953644023,0.24011650901673587,-1.8323750216100607,1.0533608259598557,-2.3816103176514063
-90,-90,-90,-60,-60,-30,-30,-0.31214311525550226,0.4945640940031017,0.2424795737245667,-1.7715520483544358,1.005226740031194,-2.3145644162833943
-90,-90,-90,-60,-60,-30,0,-0.31032029722891685,0.493645202928646,0.24463849490991912,-1.7375596019348656,1.0119515929219582,-2.2781431314141543
-90,-90,-90,-60,-60,-30,30,-0.30868837643252506,0.4928739346287075,0.24660617174489305,-1.7192935803610134,1.0692580097009958,-2.25933444300153
-90,-90,-90,-60,-60,-30,60,-0.30722694461957184,0.49222543309012107,0.24839601135265035,-1.7157582035064316,1.1725365483673014,-2.2557310360630654
-90,-90,-90,-60,-60,-30,90,-0.30591780149891395,0.4916790924562229,0.25002143987967584,-1.7409865151889725,1.317196249851328,-2.2804177486596986
-90,-90,-90,-60,-60,0,-90,-0.3056452558484246,0.4912629774616966,0.2506873395189781,-1.6611989498811042,1.1347580635035737,-2.1956487295230627
-90,-90,-90,-60,-60,0,-60,-0.30540048721933316,0.49089389660965516,0.25129258074311506,-1.636442408866672,1.0217601110036525,-2.167926423627431
-90,-90,-90,-60,-60,0,-30,-0.30517913263644514,0.490566798115261,0.2518385076808769,-1.6253769967381935,0.9721376975456595,-2.15539448221174
-90,-90,-90,-60,-60,0,0,-0.3049790327433684,0.4902765367715792,0.25233073758670876,-1.6203691854404925,0.9797186535477262,-2.1499848494591487
-90,-90,-90,-60,-60,0,30,-0.3047982257123268,0.4900186524834252,0.25277443491035567,-1.6197233853514332,1.0388306954169637,-2.1496338933420702
-90,-90,-90,-60,-60,0,60,-0.30463491648633995,0.48978927619829415,0.25317429758724996,-1.6247073266760705,1.1443235653476642,-2.155315214426075
-90,-90,-90,-60,-60,0,90,-0.3044874648189363,0.48958504414906184,0.2535345903952,-1.643521220100802,1.2914928580412774,-2.1750160645942067
-90,-90,-90,-60,-60,30,-90,-0.3098551376205643,0.4896013606266575,0.24913599275140055,-1.713702919999968,1.1054979130956037,-2.257107185643784
-90,-90,-90,-60,-60,30,-60,-0.31483394048682906,0.48979086390213455,0.24536754058635155,-1.7594652692815629,0.9885011627967638,-2.3093757424378785
-90,-90,-90,-60,-60,30,-30,-0.3194255746481181,0.49010387378237047,0.2421377077419416,-1.8051824001535859,0.9334791545150629,-2.360957128203927
-90,-90,-90,-60,-60,30,0,-0.32364052555411743,0.4905014394649757,0.2393657387529207,-1.8595452311833893,0.9333029636404149,-2.424095357674372
-90,-90,-90,-60,-60,30,30,-0.3274959049191668,0.49095280462477253,0.23698313052870065,-1.9333654306013528,0.9805999259389474,-2.5119330675610585
-90,-90,-90,-60,-60,30,60,-0.33101214781673255,0.4914346852944813,0.23493162755461916,-2.0489043467895263,1.066604755188003,-2.6479799203871894
-90,-90,-90,-60,-60,30,90,-0.33421157674136287,0.4919295088731873,0.2331618625431711,-2.261575151074587,1.1769965500293837,-2.8881286964855666
-90,-90,-90,-60,-60,60,-90,-0.3434007652566158,0.49391575141215965,0.22832938858289104,-2.162534472148067,0.9872090512489992,-2.7880815490218933
-90,-90,-90,-60,-60,60,-60,-0.35183178402775805,0.49611919457063935,0.22451163176592256,-2.157993005301674,0.8578236168633414,-2.7816914344766177
-90,-90,-90,-60,-60,60,-30,-0.3595134583725701,0.49843201898806083,0.2215171428252994,-2.18948390733063,0.7846913054207425,-2.817571074165645
-90,-90,-90,-60,-60,60,0,-0.3664771853749208,0.5007742677919027,0.21918972222480998,-2.24437642794359,0.7598422315029522,-2.8882219522889314
-90,-90,-90,-60,-60,60,30,-0.37276632054375236,0.503087772862996,0.2173983448752931,-2.323059642745199,0.7740275010957572,-2.997030730869841
-90,-90,-90,-60,-60,60,60,-0.3784305472185447,0.5053316573653951,0.21603549922601734,-2.433623664228339,0.8163066417782535,3.1299897832870354
-90,-90,-90,-60,-60,60,90,-0.38352155871783944,0.5074785300898556,0.21501316123460443,-2.5906401829683974,0.8722793707421435,2.9120639907971553
-90,-90,-90,-60,-60,90,-90,-0.39454807663232627,0.512680810843503,0.21337001258193009,-2.4813129317570035,0.6974415043892959,3.0492877552474473
-90,-90,-90,-60,-60,90,-60,-0.40434537403755344,0.5178087848012886,0.2127209712623593,-2.4561329827903613,0.5669035764428112,3.093115912392368
-90,-90,-90,-60,-60,90,-30,-0.4129985468341612,0.5227615194056976,0.21279620003681857,-2.4678420651956183,0.48235776800424646,3.082159686569108
-90,-90,-90,-60,-60,90,0,-0.4206143134936435,0.5274709260367698,0.21339708052674247,-2.4984572426343616,0.4382144700777832,3.0282803971803776
-90,-90,-90,-60,-60,90,30,-0.42730140269130323,0.5318969425372285,0.2143674307558637,-2.541419005872162,0.4272549121474999,2.9350425193057386
-90,-90,-90,-60,-60,90,60,-0.43316470154003595,0.5360196749149977,0.21558570461652304,-2.595995311103265,0.4420049100667858,2.8030834179867505
-90,-90,-90,-60,-60,90,90,-0.4383020210247017,0.5398334639236976,0.21695852185951944,-2.6649656600052265,0.47472250982045816,2.631598930247957
-90,-90,-90,-60,-30,-90,-90,-0.42775892400123366,0.5246680425728047,0.21780126733495309,-2.5098099552963267,0.4768532686298282,2.902302372825645
-90,-90,-90,-60,-30,-90,-60,-0.4175585146776,0.5117019438027502,0.22038175346837893,-2.378742581345474,0.47456077547908626,3.09897446390249
-90,-90,-90,-60,-30,-90,-30,-0.407855400613005,0.5008453740258428,0.22413491508217953,-2.2743584546153586,0.4875182534885077,-3.048344355862914
-90,-90,-90,-60,-30,-90,0,-0.39873825093989385,0.49190202033670377,0.22857361249954888,-2.194618245781374,0.5280474383004868,-2.9589732253803533
-90,-90,-90,-60,-30,-90,30,-0.39025488698852034,0.48463645045800885,0.23334203259229191,-2.1382816475147943,0.6020885620978276,-2.905195038483056
-90,-90,-90,-60,-30,-90,60,-0.38242263428429374,0.4788066943287413,0.23819013819527052,-2.1072367502087963,0.7111805176992825,-2.881679985654997
-90,-90,-90,-60,-30,-90,90,-0.3752365603250041,0.47418312451906386,0.2429488384903249,-2.1095230688273094,0.8537793282674458,-2.891655100525325
-90,-90,-90,-60,-30,-60,-90,-0.3686727795793856,0.470559477261501,0.2474983124622814,-1.963404368537671,0.7002501302871085,-2.6896349599886005
-90,-90,-90,-60,-30,-60,-60,-0.36270822485902254,0.46775117732502036,0.2517973975793006,-1.881811391276142,0.5968905451872772,-2.57131754682385
-90,-90,-90,-60,-30,-60,-30,-0.3573016023337857,0.46560456939352257,0.2557979472936426,-1.8294330071263611,0.5481395267175548,-2.4962028883479297
-90,-90,-90,-60,-30,-60,0,-0.3524128167676444,0.4639890956371054,0.259486613211562,-1.7930421486283838,0.5523570852976998,-2.4465520059688113
-90,-90,-90,-60,-30,-60,30,-0.3480008187090948,0.46279643753290056,0.26286447003399543,-1.767586018116647,0.6060694605493359,-2.413451973838089
-90,-90,-90,-60,-30,-60,60,-0.344025052161379,0.4619376766995175,0.26594174891016037,-1.751741436561284,0.7052541907196576,-2.392572640633548
-90,-90,-90,-60,-30,-60,90,-0.3404464573169834,0.4613404447138116,0.2687342499658608,-1.746996174708248,0.8457959126308121,-2.3833587496508817
-90,-90,-90,-60,-30,-30,-90,-0.33722650882082944,0.4609467729449083,0.2712540283909565,-1.6952451411974074,0.6613048000345284,-2.305908435828737
-90,-90,-90,-60,-30,-30,-60,-0.33433429324277797,0.4607086095060777,0.2735364458295306,-1.6667516709947012,0.5453947530114607,-2.2593591768981134
-90,-90,-90,-60,-30,-30,-30,-0.33173594940953294,0.460589126211055,0.27559344851235035,-1.647797995865312,0.49241456552028234,-2.2279056776812283
-90,-90,-90,-60,-30,-30,0,-0.32940229428528,0.4605585980599648,0.27744494631412536,-1.63379013606581,0.49654331051432066,-2.205071288337538
-90,-90,-90,-60,-30,-30,30,-0.32730675098683903,0.4605935689135078,0.27910998141941484,-1.6229571975206631,0.5522988396885067,-2.187480949211715
-90,-90,-90,-60,-30,-30,60,-0.32542520644049383,0.4606756441618249,0.28060638156828627,-1.6145638089570338,0.6546392424569596,-2.173185331315773
-90,-90,-90,-60,-30,-30,90,-0.3237358574524936,0.4607904932574843,0.2819506397187058,-1.6083088587297802,0.7989717099431421,-2.161094345077276
-90,-90,-90,-60,-30,0,-90,-0.32329323048925834,0.460672428970837,0.2826613843438196,-1.5993493694270184,0.6145360469483871,-2.1468242862177034
-90,-90,-90,-60,-30,0,-60,-0.3228944234785591,0.46057236080935654,0.2833044119587412,-1.5945444131266335,0.5008136504409685,-2.138273071236257
-90,-90,-90,-60,-30,0,-30,-0.32253432570046525,0.460487554204668,0.28388167228209016,-1.5914777019373745,0.450784770632368,-2.1327191828231746
-90,-90,-90,-60,-30,0,0,-0.32220928811894844,0.4604154797639075,0.28439992811247794,-1.5893559967343776,0.4580968462573329,-2.129054602169564
-90,-90,-90,-60,-30,0,30,-0.3219159904168414,0.4603540514299759,0.28486528551378437,-1.5879299772730235,0.517024086257318,-2.1267265125400616
-90,-90,-90,-60,-30,0,60,-0.3216514079728674,0.460301547373062,0.285283212538094,-1.587208004936566,0.6224092347823484,-2.125484173000855
-90,-90,-90,-60,-30,0,90,-0.3214127892049463,0.46025654386622755,0.2856586041357614,-1.5874265528765734,0.7696080272317796,-2.1253727183339706
-90,-90,-90,-60,-30,30,-90,-0.32770480480492487,0.45867360104021054,0.283188597340511,-1.6163862103041011,0.5864361635825156,-2.1818435910002894
-90,-90,-90,-60,-30,30,-60,-0.33347378784738263,0.4574965418855431,0.28109500995294395,-1.639481717905066,0.4728793542593568,-2.226634791454744
-90,-90,-90,-60,-30,30,-30,-0.3387405613228539,0.45664142458940327,0.2793166810414812,-1.6604338778292105,0.4221576819474757,-2.2671532873161806
-90,-90,-90,-60,-30,30,0,-0.3435337182464156,0.45603853330222527,0.27780409307684195,-1.6808386878947053,0.4279552625291962,-2.307872305738115
-90,-90,-90,-60,-30,30,30,-0.3478849423454868,0.4556318897593735,0.2765153660989926,-1.70240636305926,0.4844532841065252,-2.352319708598916
-90,-90,-90,-60,-30,30,60,-0.3518271887820525,0.45537660099493293,0.2754152077806148,-1.7281413619215662,0.5862697002417752,-2.404270565920856
-90,-90,-90,-60,-30,30,90,-0.3553933520204151,0.45523682989934755,0.2744740161760958,-1.7640376483421625,0.7282783798551329,-2.469728758870495
-90,-90,-90,-60,-30,60,-90,-0.36559970989738694,0.4554638115441671,0.2717294745215933,-1.7816973186830505,0.536616722398461,-2.5168107644614346
-90,-90,-90,-60,-30,60,-60,-0.3748328712533548,0.45627886408939977,0.269581674206159,-1.8043381181290086,0.4144007569910747,-2.564965382035978
-90,-90,-90,-60,-30,60,-30,-0.38314187584147585,0.45750581008437285,0.2679121054617652,-1.8291409770925335,0.3543778840726304,-2.617223779555617
-90,-90,-90,-60,-30,60,0,-0.39059193050685576,0.45900594024332825,0.2666275545451483,-1.855349173417865,0.34974941711481106,-2.6770687696989857
-90,-90,-90,-60,-30,60,30,-0.39725429175885457,0.46067309580355403,0.26565093554206176,-1.8842370025436992,0.3942149677508112,-2.7479145389499813
-90,-90,-90,-60,-30,60,60,-0.40320136866952416,0.4624270126057292,0.2649190379234736,-1.9196218162549483,0.4818445471395355,-2.833770507887047
-90,-90,-90,-60,-30,60,90,-0.40850354030347835,0.4642079878541658,0.26438040003221014,-1.969159641687811,0.6066776733343748,-2.9412185140011884
-90,-90,-90,-60,-30,90,-90,-0.4198741444494649,0.4688209967458507,0.2634665301376386,-1.9640549504324167,0.40730003801253734,-2.9551893569088774
-90,-90,-90,-60,-30,90,-60,-0.42980430055528707,0.4737187761266326,0.26313703855172293,-1.975973797715558,0.27572981547268266,-2.9884280373595526
-90,-90,-90,-60,-30,90,-30,-0.43843740648012186,0.47870558869672225,0.26322403276480627,-1.9937615662065113,0.20495451099007964,-3.0370587746451188
-90,-90,-90,-60,-30,90,0,-0.4459222198516246,0.4836408710442739,0.2636117515727217,-2.0130036445688377,0.18807061952302892,-3.1014850178622932
-90,-90,-90,-60,-30,90,30,-0.45240055379525723,0.4884273871685482,0.2642095298618891,-2.0332637979509807,0.21879282316823384,3.100407849777871
-90,-90,-90,-60,-30,90,60,-0.45800302118968356,0.49300078394331065,0.2649470155695937,-2.0573379220928287,0.29142193125462523,3.0009213295534614
-90,-90,-90,-60,-30,90,90,-0.4628471796576004,0.4973212741555416,0.2657703159354351,-2.0911985659021086,0.4004462650366201,2.880494079347631
-90,-90,-90,-60,0,-90,-90,-0.4515598075530135,0.4834216393139599,0.2703787132436208,-1.9876523529572268,0.27657395633241005,3.0992053931194823
-90,-90,-90,-60,0,-90,-60,-0.4403066528657784,0.4722861615396749,0.2756907895627697,-1.9103890681752584,0.19128738993516697,-3.027056314637325
-90,-90,-90,-60,0,-90,-30,-0.42936302479550925,0.4635837026771368,0.2812286224030294,-1.8491872132627722,0.1508431855749643,-2.911176694706542
-90,-90,-90,-60,0,-90,0,-0.4189247731115015,0.4569319625798668,0.2866757275595569,-1.7993126483160666,0.1568122491802703,-2.822362257629994
-90,-90,-90,-60,0,-90,30,-0.40911346958111294,0.4519683957435606,0.29183813425688654,-1.7588645360058703,0.20818861202894062,-2.75116412160686
-90,-90,-90,-60,0,-90,60,-0.3999944366661874,0.44836842159544854,0.29660879634146564,-1.7271025774697168,0.3026053941381271,-2.6915026928211656
-90,-90,-90,-60,0,-90,90,-0.39159196194082024,0.4458521781497413,0.3009398464055411,-1.7036711209141773,0.43706126258653255,-2.639985508385274
-90,-90,-90,-60,0,-60,-90,-0.38390068940504696,0.4441842678104205,0.304809690608735,-1.670338389888515,0.24395912057239902,-2.552057506990524
-90,-90,-90,-60,0,-60,-60,-0.3768987406780253,0.4431722098544409,0.3082604115276408,-1.648537688851583,0.11970664617688286,-2.4868033788199893
-90,-90,-90,-60,0,-60,-30,-0.37054893298209685,0.44265867841603823,0.31130489529594874,-1.6322926912086653,0.05860165950673263,-2.4353269217540703
-90,-90,-90,-60,0,-60,0,-0.3648083091604512,0.4425181560001835,0.3139782323937358,-1.619460192370514,0.05493964708880159,-2.392883133421306
-90,-90,-90,-60,0,-60,30,-0.35963066881345096,0.4426512547927357,0.31631812093888917,-1.6092586590714693,0.10333239731150641,-2.356575621656838
-90,-90,-90,-60,0,-60,60,-0.35496911623296645,0.44298003345198267,0.3183618816228368,-1.6013443639225824,0.19879218577673854,-2.32461345267092
-90,-90,-90,-60,0,-60,90,-0.3507777637914584,0.4434439394622945,0.3201448419560514,-1.5954682163175005,0.3367504059253343,-2.295967750355509
-90,-90,-90,-60,0,-30,-90,-0.3470127841354541,0.44399588831863174,0.32169242728013303,-1.5889424891225978,0.14661207600850795,-2.2626703744932937
-90,-90,-90,-60,0,-30,-60,-0.34363316738143307,0.444601492592732,0.3230495728710345,-1.5845241374062573,0.02762111393852593,-2.235308071762682
-90,-90,-90,-60,0,-30,-30,-0.3406007968605675,0.44523342993704196,0.3242334770305923,-1.5811712667826994,-0.027243296614885063,-2.2120082756054282
-90,-90,-90,-60,0,-30,0,-0.3378807661799416,0.4458718887750176,0.3252669799108656,-1.578524490574154,-0.02434838031518365,-2.1916870795673167
-90,-90,-90,-60,0,-30,30,-0.33544127064512713,0.44650244735810374,0.3261701043164081,-1.5764467137297766,0.03055860714964213,-2.1736437238956343
-90,-90,-90,-60,0,-30,60,-0.3332534834457424,0.4471148582790712,0.3269602409129414,-1.5748555460654499,0.13229521736025507,-2.1574211214730084
-90,-90,-90,-60,0,-30,90,-0.33129137924979873,0.4477020897888837,0.32765243856747056,-1.5736675632580255,0.27619107172856777,-2.142726211138204
-90,-90,-90,-60,0,0,-90,-0.33067889292916275,0.44787934697994336,0.32820804196978337,-1.573035056258901,0.09151232082766635,-2.137405463878425
-90,-90,-90,-60,0,0,-60,-0.330126963616271,0.4480442788675691,0.3287086700255796,-1.5726066026412984,-0.022352530176348376,-2.132890143479388
-90,-90,-90,-60,0,0,-30,-0.3296297630506998,0.44819676697109717,0.3291553945600512,-1.572270120710429,-0.07247323758500117,-2.1289779562409126
-90,-90,-90,-60,0,0,0,-0.32918192633906884,0.4483372598264913,0.329554255323537,-1.5719932854474783,-0.06522342704404054,-2.125543336996181
-90,-90,-90,-60,0,0,30,-0.328778598423909,0.44846632203092707,0.32991061586233056,-1.571767401782997,-0.006339693077850309,-2.122496748184269
-90,-90,-90,-60,0,0,60,-0.3284153906332684,0.4485845869360091,0.33022920316025833,-1.5715901645051054,0.09901487633390442,-2.1197737053066468
-90,-90,-90,-60,0,0,90,-0.32808833860106784,0.4486927248069287,0.33051418670815547,-1.5714593985204872,0.24619340359511138,-2.1173291405329997
-90,-90,-90,-60,0,30,-90,-0.33469516579916003,0.4465650345866011,0.3306320961871299,-1.5726109106473782,0.06444079792374108,-2.1673538742129534
-90,-90,-90,-60,0,30,-60,-0.34072591128625784,0.44493448136416547,0.33077095713163895,-1.573432187253402,-0.04682046826017334,-2.2121800341129907
-90,-90,-90,-60,0,30,-30,-0.3462112908986954,0.4437006728453288,0.33091824068972536,-1.5739891945203202,-0.09461230244629432,-2.2525655034270478
-90,-90,-90,-60,0,30,0,-0.3511871183123265,0.4427813223575393,0.3310680621364099,-1.5743215066728031,-0.08526936158390452,-2.289076852932691
-90,-90,-90,-60,0,30,30,-0.35569123128071284,0.4421097789711613,0.3312162101380541,-1.5744831494896376,-0.024497548387481357,-2.32214738219513
-90,-90,-90,-60,0,30,60,-0.3597616996493361,0.4416323017646883,0.33135981031223893,-1.5745483998562293,0.08256458523112857,-2.352122719223933
-90,-90,-90,-60,0,30,90,-0.36343563768724313,0.44130575230223373,0.3314969810532039,-1.574602736253598,0.2312901871939685,-2.379304491115533
-90,-90,-90,-60,0,60,-90,-0.37399923096112436,0.44091616003155754,0.33157343629597275,-1.57498202877395,0.05081299861544293,-2.4549573888656266
-90,-90,-90,-60,0,60,-60,-0.38350726973173194,0.44125510500685533,0.3316695754205081,-1.575245199725348,-0.05927161590902375,-2.523164691324206
-90,-90,-90,-60,0,60,-30,-0.39202659429891284,0.4421175376800617,0.33177041176561484,-1.5753530986950852,-0.10597121860146455,-2.584762501423637
-90,-90,-90,-60,0,60,0,-0.3996353348328155,0.44334248822010697,0.33187140031399254,-1.5753146546817132,-0.09561700278271558,-2.6404484162635224
-90,-90,-90,-60,0,60,30,-0.40641547149582585,0.44480526636405393,0.3319696076946325,-1.5751759600202206,-0.03391150084860896,-2.6908034504007823
-90,-90,-90,-60,0,60,60,-0.41244813493414395,0.4464105347733313,0.3320631872604888,-1.5750054029859812,0.07401038800381812,-2.7363283159587466
-90,-90,-90,-60,0,60,90,-0.41781074798816015,0.44808641575079583,0.3321510618161451,-1.5748781080220082,0.22352568635844228,-2.7774806107775376
-90,-90,-90,-60,0,90,-90,-0.4292960264651783,0.4525068436941364,0.3322091084338555,-1.5747511129750964,0.04380067450683288,-2.8656026267618744
-90,-90,-90,-60,0,90,-60,-0.4392601325590979,0.45734509529659584,0.33228626132491446,-1.5746441117524033,-0.06559991272327413,-2.9451525979671245
-90,-90,-90,-60,0,90,-30,-0.44787172280516196,0.4623681569402837,0.33236065126133757,-1.5744850920925266,-0.11166303448202186,-3.016972368364652
-90,-90,-90,-60,0,90,0,-0.45529533719587867,0.46740836495600946,0.332430265917703,-1.5742679726490703,-0.10072292923633752,-3.0818156327284676
-90,-90,-90,-60,0,90,30,-0.4616850566605315,0.47234731207752545,0.3324942697999638,-1.5740207614183384,-0.03848285474961911,-3.1403443844319066
-90,-90,-90,-60,0,90,60,-0.46718096508253554,0.4771042925216099,0.33255236972256896,-1.5737860687645535,0.06992351522474415,3.0900341384492687
-90,-90,-90,-60,0,90,90,-0.471907838262255,0.4816270513698555,0.3326046094826102,-1.5736080198126738,0.21987568709929148,3.0424028950062025
-90,-90,-90,-60,30,-90,-90,-0.4590410057301303,0.4704684722430405,0.339733504460796,-1.5284446205280917,0.013977681839813511,-3.115781084920006
-90,-90,-90,-60,30,-90,-60,-0.4461911620353194,0.46210003853976167,0.3463564427146205,-1.4935013793283176,-0.12801479161346874,-3.013532126092288
-90,-90,-90,-60,30,-90,-30,-0.4337247388135799,0.45603482474728907,0.35219689610966914,-1.4673284136249132,-0.20972279227174062,-2.922765843659329
-90,-90,-90,-60,30,-90,0,-0.4218882261468121,0.4518036828686248,0.3571939691110453,-1.450125368488657,-0.2355603196470273,-2.836537170836785
-90,-90,-90,-60,30,-90,30,-0.4108267026594811,0.4490039706510684,0.3613676958363249,-1.4414179045274862,-0.2099423279758668,-2.751462160193796
-90,-90,-90,-60,30,-90,60,-0.40061130935405637,0.44730139041144595,0.3647828656075459,-1.4393570604713155,-0.1370184516815474,-2.6669575007687425
-90,-90,-90,-60,30,-90,90,-0.39126129071282584,0.44642499457474605,0.3675257846791258,-1.4411469267451609,-0.020650077324298667,-2.583962373804375
-90,-90,-90,-60,30,-60,-90,-0.38276310090171134,0.4461569398244538,0.3696778831730927,-1.441546226514902,-0.22803835680367174,-2.550184721308447
-90,-90,-90,-60,30,-60,-60,-0.37507417832819023,0.4463332314056161,0.3713556321683078,-1.4425314357208223,-0.36319379725715656,-2.512663175315262
-90,-90,-90,-60,30,-60,-30,-0.36814607832689866,0.4468201358865985,0.3726282259836557,-1.4470466233828685,-0.4331009303518629,-2.4709799769118272
-90,-90,-90,-60,30,-60,0,-0.36192121674656363,0.44751746633643535,0.3735698084229534,-1.455904303710526,-0.4440632327157195,-2.425583064069048
-90,-90,-90,-60,30,-60,30,-0.3563397428464151,0.44834941633579684,0.3742446206350421,-1.4679894557493673,-0.4017246609445574,-2.3782935964886316
-90,-90,-90,-60,30,-60,60,-0.35134247265021046,0.44925927323321285,0.3747070869177812,-1.4812080235793728,-0.3111900737698777,-2.3315900224666484
-90,-90,-90,-60,30,-60,90,-0.34687270468679726,0.45020516777497843,0.37500260548727116,-1.4935999158492559,-0.17713114771724306,-2.2875571722109664
-90,-90,-90,-60,30,-30,-90,-0.34287877367305475,0.4511553147417489,0.3751623715658556,-1.499022721137681,-0.3694827976851808,-2.2730184934894737
-90,-90,-90,-60,30,-30,-60,-0.3393082751331879,0.4520911137956809,0.37523059681569265,-1.5048396373797917,-0.49035256362621077,-2.2542178070653023
-90,-90,-90,-60,30,-30,-30,-0.3361182282232786,0.4529958520097285,0.37522415924574326,-1.5124349306224838,-0.5467935581825887,-2.2321462976752278
-90,-90,-90,-60,30,-30,0,-0.3332680308241987,0.4538595728393163,0.37516270679972186,-1.521693568395382,-0.5451787390097763,-2.208209229627744
-90,-90,-90,-60,30,-30,30,-0.33072110077606737,0.4546761034949014,0.3750618825238478,-1.5315432179615458,-0.4912587357961025,-2.184251623967586
-90,-90,-90,-60,30,-30,60,-0.3284446347959954,0.4554420634406572,0.3749339841153548,-1.5407997781866116,-0.39023739866072377,-2.16194982042184
-90,-90,-90,-60,30,-30,90,-0.3264093095923202,0.45615611704263964,0.3747885871298712,-1.548756591274796,-0.246826373434945,-2.1423416887489433
-90,-90,-90,-60,30,0,-90,-0.32568852223912015,0.45652214711911626,0.3750394931964522,-1.549365292255142,-0.4315781428788543,-2.141550831415809
-90,-90,-90,-60,30,0,-60,-0.325039564996507,0.45685495468610793,0.3752636398254811,-1.5500962205221995,-0.5455165250037621,-2.1394163493521776
-90,-90,-90,-60,30,0,-30,-0.3244562479370192,0.4571564566838509,0.3754601741230013,-1.5513845387091898,-0.5957100417209553,-2.1360651960221126
-90,-90,-90,-60,30,0,0,-0.3239318999496178,0.457429368933117,0.37563279242502057,-1.553272303630472,-0.5885293729288013,-2.1317628900733627
-90,-90,-90,-60,30,0,30,-0.3234605217948938,0.45767623066174984,0.3757846817901309,-1.5554879472377867,-0.5297077765355545,-2.1269560949198643
-90,-90,-90,-60,30,0,60,-0.32303669143030816,0.45789942701750436,0.3759186925127978,-1.5576681844427676,-0.42440635748584066,-2.1221040982414405
-90,-90,-90,-60,30,0,90,-0.3226556190085081,0.45810108895704277,0.37603700151945274,-1.5595395733398518,-0.27727124809657255,-2.117516491218701
-90,-90,-90,-60,30,30,-90,-0.32888814439585684,0.45662284997141833,0.3787108271908788,-1.5319695613138788,-0.4576744112304488,-2.175573382099638
-90,-90,-90,-60,30,30,-60,-0.3345875942770998,0.4555658987083011,0.3810451517690381,-1.5037490387491717,-0.5663105070584324,-2.233946983399064
-90,-90,-90,-60,30,30,-30,-0.33978084337640485,0.4548378361854193,0.383078681861593,-1.4777152588507643,-0.6106049582803235,-2.286973455665169
-90,-90,-90,-60,30,30,0,-0.3444992247453238,0.45436416638633503,0.3848507613770109,-1.4570613615794155,-0.5974394094001857,-2.3296934538756746
-90,-90,-90,-60,30,30,30,-0.34877649327868526,0.45408532010456854,0.3863960787217786,-1.4430271633189817,-0.5330408682298216,-2.359568885860139
-90,-90,-90,-60,30,30,60,-0.3526470426417447,0.4539539274866276,0.3877449483852139,-1.434336830948156,-0.42291073272761986,-2.3766825677414554
-90,-90,-90,-60,30,30,90,-0.35614470996446274,0.45393252642487836,0.38892371324086017,-1.4281879494892076,-0.27188067859742665,-2.3823737910624723
-90,-90,-90,-60,30,60,-90,-0.36631222724125634,0.4542307890610756,0.39179989331625137,-1.3790315254863414,-0.43704176396068406,-2.4938336455415504
-90,-90,-90,-60,30,60,-60,-0.37549734006389784,0.455128495200182,0.3941142560015646,-1.331973052373489,-0.5296658167194824,-2.5960983607104966
-90,-90,-90,-60,30,60,-30,-0.38375611483766375,0.4564416447560149,0.3959585401313353,-1.293929778976741,-0.5588513591440852,-2.6795590964330835
-90,-90,-90,-60,30,60,0,-0.3911558502839775,0.4580280925325317,0.39741807918301447,-1.269096660551587,-0.5328900702308808,-2.738096199708628
-90,-90,-90,-60,30,60,30,-0.3977692692926064,0.4597791979482195,0.39856486682784853,-1.2565991193833217,-0.4587299766715216,-2.7709033519263975
-90,-90,-90,-60,30,60,60,-0.4036697041905174,0.4616131337540258,0.39945891578423004,-1.251629652912932,-0.341969246393808,-2.7808530221306467
-90,-90,-90,-60,30,60,90,-0.4089280726016632,0.46346928589745634,0.40014981757750007,-1.2478724968645076,-0.18729379102014349,-2.77136979177319
-90,-90,-90,-60,30,90,-90,-0.4202685757356006,0.4681431056354988,0.40116271650165763,-1.1980235068669118,-0.32603659438542637,-2.9201480527056987
-90,-90,-90,-60,30,90,-60,-0.43016041605172833,0.47310557698720784,0.4016260573739311,-1.1550060845292227,-0.39606225901496556,-3.0438629363197682
-90,-90,-90,-60,30,90,-30,-0.43875663504841333,0.47815443614190517,0.40166818178058733,-1.1253657242688666,-0.40772825843257526,-3.1354373926170482
-90,-90,-90,-60,30,90,0,-0.44620694909258013,0.4831477778421239,0.40140130753724607,-1.1102959631399278,-0.36947374128250104,3.09042610083492
-90,-90,-90,-60,30,90,30,-0.4526535757318444,0.48798772985033895,0.40091463751000334,-1.1058661556579825,-0.28763888524797193,3.064860961205809
-90,-90,-90,-60,30,90,60,-0.4582272626008589,0.4926097313712638,0.40027800376654843,-1.105215724464909,-0.16707949080320345,3.0666983704962756
-90,-90,-90,-60,30,90,90,-0.4630455352402851,0.49697405681172246,0.39954536483358916,-1.1004778440958614,-0.012057238404441211,3.0927479380226175
-90,-90,-90,-60,60,-90,-90,-0.4481896917395913,0.48929614557737483,0.40727950849128297,-1.072549524393322,-0.2514868783457902,3.1118977008488566
-90,-90,-90,-60,60,-90,-60,-0.433627325805266,0.48388807634250347,0.41343994450541804,-1.042197169778286,-0.4238244931238186,-3.13987772612851
-90,-90,-90,-60,60,-90,-30,-0.419764704974719,0.48023466188404806,0.4180187809650163,-1.0244100887019651,-0.536198079108873,-3.0887144112386427
-90,-90,-90,-60,60,-90,0,-0.4068284702402333,0.47790265588902225,0.4212273042892612,-1.029813589834826,-0.5948864144428994,-3.0110306195202425
-90,-90,-90,-60,60,-90,30,-0.39493049111740036,0.47654715283301824,0.4232943099196165,-1.0613607529746822,-0.6036552107781212,-2.9063844473846863
-90,-90,-90,-60,60,-90,60,-0.38410388948544205,0.4758996713713671,0.4244391368884534,-1.1130450569900079,-0.5640208009070395,-2.7825247845047882
-90,-90,-90,-60,60,-90,90,-0.3743299085611073,0.4757549503729897,0.42485917766917247,-1.1732956910932282,-0.47691431863325984,-2.652057399977175
-90,-90,-90,-60,60,-60,-90,-0.36556179833122804,0.47595502208398155,0.4247161854629446,-1.1532363451382652,-0.6855575035783684,-2.6814891318519316
-90,-90,-90,-60,60,-60,-60,-0.35772106332194803,0.476392354034261,0.42417176358346964,-1.1384695448441793,-0.8252991958636124,-2.6884642513118573
-90,-90,-90,-60,60,-60,-30,-0.35073505650240233,0.4769781519800392,0.42333180234757983,-1.1453814292520608,-0.9034824935943324,-2.664070567706148
-90,-90,-90,-60,60,-60,0,-0.34452373157819016,0.47765104481377096,0.42228962050816476,-1.1821104673857767,-0.9256647628858833,-2.6045661383028826
-90,-90,-90,-60,60,-60,30,-0.3390087677345743,0.47836711506797125,0.4211187913326723,-1.2420985461690088,-0.8952884121669888,-2.519359654950423
-90,-90,-90,-60,60,-60,60,-0.3341160557877576,0.4790954209604417,0.41987626257837063,-1.309034823549347,-0.8151414543657918,-2.4266654763807245
-90,-90,-90,-60,60,-60,90,-0.32977700774800256,0.4798146197658949,0.41860534203358163,-1.368950696138051,-0.6888072104052093,-2.341668583962273
-90,-90,-90,-60,60,-30,-90,-0.32593146299849,0.4805087233106575,0.417333924776805,-1.3589102635675785,-0.8813311890575204,-2.357895139361354
-90,-90,-90,-60,60,-30,-60,-0.3225179131423761,0.4811723599544319,0.41609522120187026,-1.3562365147286206,-1.0033995177439556,-2.358683587010719
-90,-90,-90,-60,60,-30,-30,-0.31948892097140413,0.4817979233247146,0.41490040099536574,-1.371014958618239,-1.0620187245024195,-2.3375811872815877
-90,-90,-90,-60,60,-30,0,-0.3167997457795819,0.48238260659403864,0.4137606527225366,-1.4046364056739689,-1.063053968452063,-2.2954650662780054
-90,-90,-90,-60,60,-30,30,-0.3144107646366831,0.4829254824192033,0.41268305376228687,-1.4468817184696947,-1.011491012704321,-2.244071659166058
-90,-90,-90,-60,60,-30,60,-0.31228692545339853,0.4834269751512551,0.411671641843534,-1.4856303046218433,-0.9121060204370739,-2.1965622548805515
-90,-90,-90,-60,60,-30,90,-0.31039743718855756,0.483888296166408,0.4107279278262856,-1.515383122553711,-0.7696444975888003,-2.1591509705148906
-90,-90,-90,-60,60,0,-90,-0.30965880437246557,0.4842859914682774,0.4106063330733076,-1.5085899634103932,-0.9543005435204577,-2.1685171359592017
-90,-90,-90,-60,60,0,-60,-0.3089949925184564,0.4846444374117892,0.4104940943773238,-1.5033630002064509,-1.0682124751238469,-2.1743525174214113
-90,-90,-90,-60,60,0,-30,-0.3083996203883551,0.4849666803978067,0.41038803294077647,-1.5037092976453985,-1.1184831788110485,-2.173374222042114
-90,-90,-90,-60,60,0,0,-0.3078655539251193,0.48525632310634725,0.4102883602609625,-1.511128495662369,-1.1114700427197688,-2.16453915612546
-90,-90,-90,-60,60,0,30,-0.3073862786512702,0.4855167224730534,0.41019535847541283,-1.5226077003577863,-1.052841931352936,-2.151164737220477
-90,-90,-90,-60,60,0,60,-0.3069561281461713,0.4857507950113695,0.4101088801009562,-1.5339300011339936,-0.9477028767719693,-2.137669819521651
-90,-90,-90,-60,60,0,90,-0.3065699071512223,0.48596126206373136,0.41002891801480856,-1.5429382518392134,-0.8006832009854884,-2.126335030245352
-90,-90,-90,-60,60,30,-90,-0.3118389915280852,0.4861528192192707,0.4145417454580096,-1.4592662895565063,-0.9786191932632984,-2.2250970218619024
-90,-90,-90,-60,60,30,-60,-0.3167027282845878,0.4865430934932289,0.41844620381597,-1.3553367095981168,-1.0811136566576633,-2.34663269349136
-90,-90,-90,-60,60,30,-30,-0.3211715120781331,0.4870695962492914,0.4218211066617233,-1.2578262345404954,-1.1166238515923537,-2.4598966222384657
-90,-90,-90,-60,60,30,0,-0.3252614591649059,0.4876842036366777,0.4247406323067145,-1.1994887902939675,-1.0955079383269912,-2.529185645228987
-90,-90,-90,-60,60,30,30,-0.3289930617653949,0.4883503175716392,0.42726907287657584,-1.1870526140198219,-1.0268158006771406,-2.5456860764034244
-90,-90,-90,-60,60,30,60,-0.33238923190309577,0.489040450845063,0.4294618066661378,-1.203518897460385,-0.9162651551807257,-2.5248002576792477
-90,-90,-90,-60,60,30,90,-0.3354739121574029,0.48973427338303105,0.43136634065439583,-1.229551497513563,-0.7675365909255489,-2.4843751887622396
-90,-90,-90,-60,60,60,-90,-0.3445978728750718,0.49184064093811325,0.4362704932899468,-1.0604934403687016,-0.9009223946355291,-2.697850610510764
-90,-90,-90,-60,60,60,-60,-0.3529488787266041,0.49418241712761646,0.4401829017353567,-0.9030989127263878,-0.954233805903347,-2.894941934638785
-90,-90,-90,-60,60,60,-30,-0.36054628434304914,0.49664058784830883,0.4432764860184326,-0.8003084991993247,-0.9485644811328868,-3.027496497116281
-90,-90,-90,-60,60,60,0,-0.3674255183929766,0.4991282198914564,0.44570357446652414,-0.7640532269388494,-0.9018100289317137,-3.079835960388714
-90,-90,-90,-60,60,60,30,-0.3736325477670765,0.5015829996649933,0.4475917824547702,-0.778340658906618,-0.8228124176832607,-3.0651425000730423
-90,-90,-90,-60,60,60,60,-0.37921848148381554,0.5039615690015106,0.44904688689492467,-0.8189859479237742,-0.7138808792884613,-3.0051916682264483
-90,-90,-90,-60,60,60,90,-0.38423593295302544,0.5062349927201958,0.45015584610621706,-0.8652734832848715,-0.575407239781224,-2.918014512009927
-90,-90,-90,-60,60,90,-90,-0.3952110479055333,0.5115401328668844,0.4518491833230566,-0.7214006584360282,-0.6416739611299905,3.1351637730727506
-90,-90,-90,-60,60,90,-60,-0.4049440140360132,0.51677722092593,0.452574737938302,-0.6204528357112975,-0.6468080295272127,2.9660760215706645
-90,-90,-90,-60,60,90,-30,-0.41353526768159365,0.5218345078279749,0.4525736864441558,-0.5696762799112275,-0.6130455654505464,2.8694163141078546
-90,-90,-90,-60,60,90,0,-0.4210930900395189,0.5266417685938672,0.45204228360832294,-0.5598158580815585,-0.5526288531106281,2.8394192895167913
-90,-90,-90,-60,60,90,30,-0.42772690463395885,0.5311578511160956,0.4511358225796427,-0.5756261396733946,-0.4699988083605254,2.8638863460830306
-90,-90,-90,-60,60,90,60,-0.4335418377454654,0.5353624979320334,0.4499755120326611,-0.6017502075573156,-0.36602765370209905,2.93075100335585
-90,-90,-90,-60,60,90,90,-0.438635584398837,0.539250266526821,0.44865472239444587,-0.6247656288762087,-0.2413253599683718,3.031102543395396
-90,-90,-90,-60,90,-90,-90,-0.4219057816854334,0.534860115895784,0.454928408660668,-0.5585928680179636,-0.46118843699545375,2.927987546946827
-90,-90,-90,-60,90,-90,-60,-0.405975440018827,0.5318126872660492,0.45897345575031817,-0.4797760328515036,-0.6244626967237666,2.85466965895035
-90,-90,-90,-60,90,-90,-30,-0.3912192269014901,0.5296991469354533,0.461061932889141,-0.41867409211531814,-0.743248171416247,2.8236399625776607
-90,-90,-90,-60,90,-90,0,-0.3777781292310347,0.5282355825507401,0.46162096288663623,-0.4020432813933076,-0.8290520915026673,2.85135772821301
-90,-90,-90,-60,90,-90,30,-0.3656828758105771,0.5272173281177032,0.46102667271927267,-0.4500487794614042,-0.8864207922283738,2.9511333236241333
-90,-90,-90,-60,90,-90,60,-0.3548949283121552,0.5264996767315951,0.4595940352741434,-0.569420164423646,-0.9097515691359612,3.124884914273162
-90,-90,-90,-60,90,-90,90,-0.3453348052957603,0.5259822368472991,0.45757851601163246,-0.7417716345280393,-0.8858239141864633,-2.932189107167529
-90,-90,-90,-60,90,-60,-90,-0.3369061008279693,0.5255933832317543,0.4551775003150891,-0.5554881625223328,-1.0562259243862062,3.13101819225663
-90,-90,-90,-60,90,-60,-60,-0.329489713709346,0.5252944223962231,0.4525571259345309,-0.35868624135493116,-1.1614143743951093,2.92275043263309
-90,-90,-90,-60,90,-60,-30,-0.3229818902222122,0.5250510516251249,0.44983002773536035,-0.22515228639781806,-1.2250406260977413,2.791734813040001
-90,-90,-90,-60,90,-60,0,-0.31727834133313654,0.52484378093826,0.44708364938607903,-0.22533734866364175,-1.2674313113144673,2.8029284453837313
-90,-90,-90,-60,90,-60,30,-0.3122824363346782,0.5246603306678673,0.44438117519321063,-0.40548635008076594,-1.2894138143281615,2.9986550056299084
-90,-90,-90,-60,90,-60,60,-0.3079065259977823,0.52449315665922,0.441766816139499,-0.7307880243039967,-1.267771160306833,-2.941888649840109
-90,-90,-90,-60,90,-60,90,-0.30407226425427136,0.5243377792537254,0.4392701878190059,-1.0416295333224366,-1.1802927259617835,-2.613851557987842
-90,-90,-90,-60,90,-30,-90,-0.3007125132551637,0.5241902934765664,0.4369074382458402,-0.7284071192543319,-1.348056583030825,-2.9425479339499967
-90,-90,-90,-60,90,-30,-60,-0.29776164343054456,0.5240523911882596,0.43469404225172376,-0.20610101796762065,-1.42721556708899,2.812315294120614
-90,-90,-90,-60,90,-30,-30,-0.29516909494522514,0.5239217654676005,0.4326313693525114,0.21609574557006905,-1.4500876479396192,2.3899203426407545
-90,-90,-90,-60,90,-30,0,-0.2928886969531679,0.5237981058496888,0.43071911515254835,0.23660479363979564,-1.4705200344078522,2.3724781605687166
-90,-90,-90,-60,90,-30,30,-0.29088036846828996,0.5236812990501244,0.4289538815482976,-0.37310122838802556,-1.4858719375217975,2.986659574475219
-90,-90,-90,-60,90,-30,60,-0.28910952086238684,0.5235711962182167,0.4273300418440971,-1.1286934912454565,-1.4243256429261264,-2.5363772174087096
-90,-90,-90,-60,90,-30,90,-0.2875459345875154,0.5234678645184802,0.42584079945040587,-1.3981559092001432,-1.2905040977823985,-2.2631855815352875
-90,-90,-90,-60,90,0,-90,-0.2868846359352662,0.5237315985484453,0.4253785461505812,-1.1329370383095656,-1.4696997775436138,-2.53252870903125
-90,-90,-90,-60,90,0,-60,-0.28629189626270685,0.523966741080881,0.4249604534891139,0.523902333611619,-1.5262910771985418,2.0918477451170037
-90,-90,-90,-60,90,0,-30,-0.285761769553033,0.5241758879462687,0.4245803886365927,1.1236114272903304,-1.4905165877125137,1.491653480975947
-90,-90,-90,-60,90,0,0,-0.2852872973727255,0.5243621408279054,0.4242353795227613,1.1236967704613987,-1.4985358662365553,1.492083775420367
-90,-90,-90,-60,90,0,30,-0.28486251887081543,0.524528093102134,0.42392239258461,0.22067336740635957,-1.541997767509022,2.3962609819340273
-90,-90,-90,-60,90,0,60,-0.28448195462014436,0.5246761385988973,0.4236388186992315,-1.3203384685106678,-1.4685869368443072,-2.3443886288866156
-90,-90,-90,-60,90,0,90,-0.2841409475490816,0.5248082563922807,0.4233819832660892,-1.4776608309922987,-1.3235534289449524,-2.1853558684068206
-90,-90,-90,-60,90,30,-90,-0.28811533857658234,0.5272424590291908,0.4285240626530727,-0.7241148883896753,-1.4734864420383875,-2.940546850092067
-90,-90,-90,-60,90,30,-60,-0.29186299747593186,0.5295658021547155,0.4329524702700378,0.3739689106720112,-1.444090211059629,2.2386219013053674
-90,-90,-90,-60,90,30,-30,-0.2953692240482303,0.5317595120216533,0.43676448598319206,0.5315216721529655,-1.3866973497867878,2.0757717086416823
-90,-90,-90,-60,90,30,0,-0.29862823683157713,0.5338133802519635,0.4400492320938226,0.40418295086534944,-1.3584834231521665,2.2019522518224393
-90,-90,-90,-60,90,30,30,-0.3016416415699702,0.535723512206284,0.44288336956226027,0.10158872670826269,-1.3417603073854525,2.5099160653833503
-90,-90,-90,-60,90,30,60,-0.30441606370515395,0.5374905184465374,0.445332619619811,-0.3070067932655374,-1.300453099892261,2.9319542411418853
-90,-90,-90,-60,90,30,90,-0.30696167828363735,0.5391180305436627,0.44745276819061386,-0.6679340782356468,-1.2058230385234474,-2.9677436824427192
-90,-90,-90,-60,90,60,-90,-0.314674368440518,0.5436679517275266,0.4530693035694069,-0.13807609486774425,-1.2068283716420736,2.761132349524966
-90,-90,-90,-60,90,60,-60,-0.3219038674533954,0.5479521140096494,0.457531408895804,0.12443098291964512,-1.1382062539091384,2.476193394542018
-90,-90,-90,-60,90,60,-30,-0.3286164961526837,0.5519427824062918,0.4610454614806708,0.1910525455507956,-1.0700301143929727,2.395837390290398
-90,-90,-90,-60,90,60,0,-0.33480332110944455,0.5556298194966329,0.4637899224127332,0.15132436019628104,-1.0172826086376323,2.435353214483331
-90,-90,-90,-60,90,60,30,-0.3404732360002476,0.5590150958117476,0.4659138116133657,0.045526460826857816,-0.9735542348144327,2.5576617233095336
-90,-90,-90,-60,90,60,60,-0.3456466700054481,0.5621083670710539,0.4675403086035122,-0.10280429158494109,-0.9252235263932649,2.741204915231185
-90,-90,-90,-60,90,60,90,-0.35035085500803576,0.5649244026866246,0.4687706555662342,-0.2700344749443375,-0.8577020743106157,2.9636952184764644
-90,-90,-90,-60,90,90,-90,-0.36083958745717554,0.5710686276058868,0.4706863693656473,-0.04892968393239291,-0.7986208021847552,2.6807289808068924
-90,-90,-90,-60,90,90,-60,-0.37036984898607767,0.5766571302692004,0.471479927377321,0.05362686467499182,-0.7181709027777786,2.5307773686544652
-90,-90,-90,-60,90,90,-30,-0.378967857496847,0.5817032742633096,0.4714364471469248,0.08054202961710127,-0.6435282343926687,2.478210037514219
-90,-90,-90,-60,90,90,0,-0.3866850351150273,0.586235190214543,0.47078348680553195,0.06282097444613736,-0.5800533763991017,2.4974614915796387
-90,-90,-90,-60,90,90,30,-0.3935853808632083,0.5902898087778774,0.4697012330087356,0.01906508656243487,-0.5244393068794962,2.573517060068505
-90,-90,-90,-60,90,90,60,-0.3997400456401528,0.5939069487783011,0.4683282813185248,-0.03863756021285892,-0.47081222001151574,2.6964640016075494
-90,-90,-90,-60,90,90,90,-0.40521943856772985,0.5971274639145302,0.46677394807934025,-0.10105384374700292,-0.4135727833687529,2.8584970385078288
-90,-90,-90,-30,-90,-90,-90,-0.39919973164608935,0.5689492260262189,0.46322391583393285,-0.387712253622327,-0.5032213102954666,2.7962758158300294
-90,-90,-90,-30,-90,-90,-60,-0.3950534757182147,0.5459620792338634,0.4473490660565132,-0.6801040598098417,-0.5745866800102171,2.868537169186251
-90,-90,-90,-30,-90,-90,-30,-0.39017629711514384,0.5300117584254358,0.4239344853603974,-0.9707971652955739,-0.5654286612810667,3.0245199504889353
-90,-90,-90,-30,-90,-90,0,-0.3831050067306778,0.5209282277300221,0.3973184590961462,-1.218070170154969,-0.45733198269178593,-3.096135923287958
-90,-90,-90,-30,-90,-90,30,-0.37344492090928677,0.5175122424456666,0.3706515692074783,-1.3972842468677487,-0.2655524703975983,-2.976226616481824
-90,-90,-90,-30,-90,-90,60,-0.36147420342437087,0.5182648470861905,0.3459132290460603,-1.5186452802200974,-0.013949225455486734,-2.9062525222936655
-90,-90,-90,-30,-90,-90,90,-0.34779614981563195,0.521783744036612,0.32414273742870153,-1.605723853973885,0.27924676538265125,-2.878584134805896
-90,-90,-90,-30,-90,-60,-90,-0.3330962247774682,0.5269280995597018,0.30567921859137004,-1.6672040513328856,0.23767342670056252,-2.8494297272009708
-90,-90,-90,-30,-90,-60,-60,-0.31801032394565054,0.5328552574017834,0.29055833763354966,-1.7080010903498917,0.25885513917972863,-2.8186830090992925
