MatasFilip/panda_machine_learning/predicted_joint_angles_30.csv
q1,q2,q3,q4,q5,q6,q7
-89.9716,-89.965034,-61.724667,-73.35495,-54.534138,-114.14623,-82.70724
-89.96945,-89.99869,-59.967205,-75.00738,-52.83427,-106.16912,-66.189926
-89.97046,-90.016335,-55.82427,-78.45863,-51.33344,-82.94056,-28.982388
-89.9752,-90.02876,-57.238113,-78.90111,-50.351906,-87.495674,8.673112
-89.98058,-90.02474,-62.641926,-79.204666,-51.995487,-91.66959,34.45651
-89.987595,-90.00422,-69.90792,-79.703964,-54.718224,-89.70315,39.52279
-89.98944,-90.00275,-73.08268,-86.047554,-55.376526,-85.4608,11.516458
-89.98891,-90.00342,-73.50733,-90.07967,-61.96368,-81.40381,-1.0329117
-89.98829,-90.005135,-73.76293,-91.8608,-68.95761,-79.065765,-4.6323767
-89.988846,-90.0071,-73.97623,-93.547165,-73.89151,-74.16526,-4.6596875
-89.98825,-90.00626,-76.036896,-94.05931,-79.08786,-71.18866,-5.063146
-89.98731,-90.00473,-79.843025,-96.26626,-85.77659,-67.704254,-5.5590158
-89.98753,-90.00383,-82.44053,-99.093285,-89.50688,-59.311947,-5.552573
-90.01161,-89.98791,-53.28653,-89.30247,-68.45684,-55.327816,45.63389
-89.98975,-90.00564,-86.35478,-99.39312,-94.28677,-45.355762,-8.300613
-89.99076,-90.00222,-88.29171,-97.23878,-96.506386,-37.246662,-7.7987156
-89.99276,-90.00089,-89.19482,-95.95979,-96.411095,-27.322096,-7.96842
-89.99337,-90.00151,-90.52186,-95.910255,-97.20512,-23.083656,-8.929075
-89.99395,-90.00589,-89.64665,-96.41137,-95.72981,-22.247593,-9.960087
-90.007515,-89.99549,-66.27502,-86.086075,-75.65623,-33.18408,32.086113
-90.00691,-90.00309,-90.38157,-95.76271,-86.85141,-33.682343,67.0178
-89.99964,-90.00728,-85.90641,-96.443,-104.40544,-14.566388,-9.066387
-89.997086,-90.00387,-89.6968,-93.36545,-92.00906,-9.280952,-7.9932995
-89.9974,-90.004715,-89.55049,-92.95368,-89.834625,-8.241954,-1.8905201
-89.99776,-90.00563,-89.81771,-93.247345,-88.00915,-8.278799,-0.42571536
-89.99917,-90.00658,-91.20574,-92.74873,-86.63433,-9.279133,-3.764231
-90.00334,-90.004906,-87.38034,-92.59828,-86.34526,-8.043514,35.58561
-90.00354,-90.00727,-92.05732,-92.04593,-86.62977,-2.7586052,52.327538
-89.99906,-90.00225,-77.38232,-91.72453,-81.3345,15.055256,6.8239007
-90.00221,-90.00275,-86.84649,-92.436905,-90.15613,-8.679891,6.1738396
-90.00252,-90.00219,-86.7912,-91.692764,-90.005844,-5.672819,8.728985
-90.001656,-90.00144,-86.15481,-91.13293,-92.93154,5.0725975,8.828834
-90.00088,-90.002815,-87.87251,-91.51552,-92.169655,23.157597,10.428173
-89.997284,-90.003174,-79.694756,-93.34767,-81.80737,28.086237,5.8970165
-89.99875,-90.00372,-83.97463,-90.74663,-84.9788,27.950415,11.084658
-89.996025,-90.0043,-79.53669,-91.01272,-82.121735,35.339058,3.3714197
-89.99925,-90.00031,-89.23032,-90.000885,-91.54423,56.67338,7.673908
-90.00007,-89.99872,-89.416306,-88.743095,-90.92463,47.00869,8.306672
-90.00003,-89.99901,-86.950455,-87.86816,-89.11583,46.931934,7.2857256
-89.999016,-90.001656,-85.833145,-86.23548,-87.07425,57.486248,3.728663
-89.99469,-90.00508,-87.96673,-91.73254,-86.187454,58.784286,4.243726
-89.99558,-90.003815,-87.73047,-89.59555,-84.30678,56.718906,6.03807
-89.99385,-90.006424,-88.97475,-93.14912,-86.018906,65.438156,6.7059665
-90.000336,-90.007454,-83.43392,-84.238,-74.19937,47.295246,-8.754081
-90.00183,-90.00133,-82.597946,-82.23886,-74.72022,43.576374,-7.9931626
-90.00182,-90.00012,-80.25312,-79.54881,-73.425224,53.813213,-7.1623807
-90.00105,-90.00074,-79.62668,-77.23949,-72.45196,68.73757,-6.7521224
-89.99052,-90.00879,-92.184586,-94.79364,-88.550354,88.32619,31.634604
-89.99067,-90.00851,-91.36021,-93.98004,-86.521065,92.515785,47.49374
-90.008766,-90.01204,-80.220406,-85.43212,-71.89245,-37.519524,-82.23947
-90.00288,-90.00356,-82.96457,-80.533356,-69.8772,24.158127,-7.6836495
-90.00396,-90.00565,-83.33464,-81.92609,-68.39689,-24.566162,-5.4460053
-90.00442,-90.00635,-85.74335,-79.02281,-72.86335,-46.646954,0.5056635
-90.00348,-90.00409,-90.19246,-79.37525,-79.89255,-52.592403,9.2593
-90.00323,-89.99808,-88.573166,-83.828445,-82.88858,-41.21264,17.26188
-90.00167,-89.995705,-83.30693,-89.674385,-85.165924,-1.2872599,17.214563
-90.002785,-89.99879,-89.56808,-83.23893,-78.9613,-29.22554,17.018627
-90.001816,-90.00577,-88.09617,-82.02791,-74.28792,-22.728987,2.5274217
-90.000885,-90.00755,-88.88783,-82.93744,-71.773735,-15.8674345,-1.7886429
-90.00052,-90.00811,-88.93001,-84.99966,-68.50449,-11.138618,-2.5702221
-90.001205,-90.00701,-89.462074,-87.553,-66.73667,-9.782761,-0.828752
-90.00223,-90.0029,-90.31187,-91.03556,-67.65374,-15.446781,19.629416
-90.002716,-89.98908,-89.89612,-92.40066,-68.46215,-17.127413,44.37032
-90.001625,-90.00548,-89.65473,-92.210976,-63.231243,-10.865154,15.568572
-90.0005,-90.00697,-88.90375,-91.32393,-61.97569,-7.6631327,-0.8913262
-89.999916,-90.00705,-88.50186,-90.5672,-60.772297,-6.700263,-2.824815
-90.00004,-90.00698,-88.3493,-90.760544,-60.20606,-6.8986607,-1.9918339
-90.00075,-90.006836,-88.39152,-91.99387,-58.481163,-9.119476,4.294621
-90.00188,-90.00442,-87.80182,-92.69077,-56.77571,-13.779604,27.922543
-90.00211,-89.98645,-90.57523,-93.43242,-59.566574,-15.064134,61.692043
-90.00157,-90.005165,-88.0999,-92.61211,-55.683784,-13.230541,21.635254
-90.00036,-90.00684,-87.68855,-91.336464,-57.391365,-8.016762,1.7503161
-89.99989,-90.00705,-87.48473,-90.31569,-57.51088,-6.408425,-1.7996745
-89.99998,-90.00702,-87.49346,-90.56925,-57.423462,-6.608342,-1.3230568
-90.00057,-90.00666,-87.59663,-91.7424,-55.951366,-9.967976,5.8655763
-90.00178,-90.00435,-87.61523,-92.879616,-54.3582,-14.768563,27.366436
-90.002075,-89.98608,-90.67686,-93.56103,-56.771523,-15.48867,64.05016
-90.00137,-90.00543,-88.0975,-93.46582,-55.507084,-12.679781,16.88539
-89.999985,-90.00707,-88.29631,-91.769196,-58.9579,-6.8115845,-1.5988669
-89.99951,-90.00735,-87.535446,-90.22792,-57.9536,-5.7582273,-5.6399207
-89.99958,-90.00746,-87.35022,-89.958374,-58.06763,-6.124135,-5.84329
-90.00008,-90.00664,-88.42406,-91.19611,-60.114372,-7.321567,-3.6481109
-90.00122,-90.00562,-89.09153,-92.99874,-61.0825,-10.735309,3.8267632
-90.00224,-90.000656,-89.38058,-92.35752,-64.74478,-19.312752,32.39666
-90.00069,-90.007164,-87.97291,-88.765236,-60.744614,-7.967646,-2.6510777
-89.99985,-90.011475,-87.40298,-85.74572,-55.70438,-5.2669024,-8.888736
-89.99939,-90.01235,-88.20517,-86.094986,-51.515316,-4.058818,-13.134785
-89.999596,-90.012436,-88.23404,-86.3677,-50.193214,-3.8514767,-13.877628
-90.00038,-90.011826,-88.07735,-86.136086,-52.098576,-4.51037,-11.593331
-90.001945,-90.00761,-89.37045,-84.76002,-58.600384,-13.023346,-4.187768
-90.00322,-90.00317,-89.79706,-84.09224,-64.74968,-29.619875,7.9739327
-90.00211,-90.008446,-85.23275,-85.07354,-52.71677,-10.012007,-10.278731
-90.001816,-90.007355,-84.515144,-85.34405,-46.822166,7.814873,-18.536575
-90.00156,-89.99935,-84.75563,-78.27732,-47.49098,33.73898,-17.325026
-90.00117,-89.99967,-83.32383,-75.36997,-48.132633,47.884266,-13.533797
-90.0012,-89.999596,-82.874794,-75.282295,-49.45518,56.380375,-9.307321
-90.00157,-90.000374,-83.793655,-76.2753,-50.30896,59.177715,-6.6866136
-90.00184,-90.00186,-79.0224,-81.35062,-54.20108,59.256775,0.4041411
-90.001884,-89.998856,-83.31412,-79.17279,-47.412918,44.34391,-8.874922
-90.00141,-89.999565,-83.940506,-81.078926,-40.268875,27.745657,-18.200823
-90.000565,-90.00603,-84.19339,-84.6223,-32.649837,13.857219,-20.569672
-90.00009,-90.00703,-86.298775,-89.00314,-29.373316,2.5912178,-20.779114
-89.99947,-90.01029,-85.48769,-89.791374,-31.85814,-1.6582416,-17.180946
-89.99994,-90.00947,-84.73326,-88.846466,-39.9434,-4.098753,-9.640714
-90.00079,-90.00538,-88.49648,-93.62458,-47.347427,-12.150844,19.099882
-89.99997,-90.007935,-84.221306,-90.641495,-39.096615,-4.24173,-8.011098
-89.99855,-90.01177,-84.713844,-91.15051,-32.450394,-2.133598,-17.324986
-89.998215,-90.012215,-85.290695,-92.01905,-29.630503,-1.932398,-20.135128
-89.99828,-90.01213,-84.99767,-91.71485,-29.634102,-1.9619539,-17.98221
-89.99942,-90.00793,-81.6235,-91.22606,-33.393635,-3.3366532,-10.773568
-90.000694,-90.0045,-82.10987,-92.64912,-36.96177,-13.690074,9.6371765
-90.001884,-89.99315,-84.547806,-95.161766,-33.57032,-20.92522,55.195496
-90.00073,-90.00423,-80.97854,-92.02314,-35.09724,-12.433445,5.5129824
-89.99948,-90.00815,-81.68743,-90.69127,-29.917913,-4.530364,-11.31469
-89.99858,-90.01148,-83.673454,-90.47928,-27.303505,-3.0452685,-15.367106
-89.998886,-90.01052,-82.79937,-90.12402,-27.559368,-3.5930657,-14.1531105
-90.00027,-90.005684,-79.827415,-89.90933,-30.304422,-7.140964,-7.4685564
-90.001,-90.00425,-80.341194,-90.7802,-33.164482,-17.102858,16.239496
-90.002045,-89.99041,-83.26234,-92.75596,-30.089184,-21.500748,58.437695
-90.00094,-90.00389,-80.212204,-90.18755,-32.313427,-14.849615,8.666801
-89.99971,-90.00767,-81.325615,-89.07571,-27.53915,-6.3838925,-10.182815
-89.99858,-90.011116,-83.586555,-89.184555,-24.661884,-3.8869379,-14.767126
-89.9989,-90.010254,-83.047035,-89.00456,-25.026665,-4.618945,-13.755491
-90.00027,-90.00571,-80.21595,-88.87625,-28.021357,-7.8799734,-7.440148
-90.001114,-90.00392,-80.357704,-89.99357,-30.770664,-17.747715,15.96957
-90.00207,-89.98981,-82.90344,-91.8524,-28.741995,-21.581724,59.45378
-90.00098,-90.00373,-80.70972,-90.33119,-30.071142,-14.248373,7.1760087
-89.99918,-90.008545,-82.90466,-89.817085,-24.011215,-5.0608125,-12.197966
-89.99809,-90.011024,-84.93082,-90.50863,-20.956148,-2.5278006,-16.718733
-89.99823,-90.01054,-84.895676,-90.79186,-20.846731,-2.3246026,-16.22095
-89.9993,-90.00763,-83.32199,-90.73065,-22.922352,-4.7397285,-11.433777
-90.00108,-90.00304,-82.13776,-91.96466,-26.702888,-14.977297,10.945468
-90.00211,-89.9907,-83.59813,-93.72461,-27.069038,-19.177668,57.686142
-90.00052,-90.00399,-82.95216,-90.87197,-23.131569,-7.7396107,-2.556737
-89.99933,-90.00747,-84.68478,-91.639305,-15.440521,-1.5862159,-15.487594
-89.99905,-90.00734,-85.21793,-92.91731,-12.609586,-1.0983524,-17.233208
-89.99922,-90.00687,-84.10372,-91.78105,-12.49129,-0.4972351,-17.020641
-89.99978,-90.006035,-83.13499,-90.62111,-13.555717,0.8480702,-16.911385
-90.00098,-90.001366,-83.38668,-90.29108,-17.482632,2.877661,-11.600296
-90.00074,-90.00284,-88.68945,-87.16875,-28.360027,1.1100049,43.469517
-90.00061,-90.00181,-81.27937,-87.977066,-16.087925,11.090658,-16.340347
-90.00038,-90.002594,-82.7627,-83.18249,-18.137577,19.413773,-18.713673
-90.00017,-89.99671,-83.33311,-79.97333,-18.79926,35.049706,-16.632917
-90.00059,-89.99407,-82.94955,-79.17285,-20.314432,40.627296,-15.438639
-90.0014,-89.99195,-82.5399,-79.65267,-20.48636,41.16656,-14.566813
-90.00231,-89.99022,-83.36446,-82.10331,-21.276773,38.141792,-12.247572
-90.00304,-89.98661,-83.80246,-84.201256,-16.214018,37.104008,-1.9696577
-90.00163,-89.99343,-83.0864,-83.04166,-17.937208,34.013157,-18.426891
-90.00033,-89.999695,-83.88328,-83.05037,-13.564566,26.061054,-19.23159
-89.99941,-90.00286,-83.45609,-84.37014,-8.020469,15.247908,-15.413279
-89.998955,-90.0029,-80.77394,-87.02196,-2.5712943,6.4480143,-13.378564
-89.998825,-90.00397,-81.033325,-88.64313,2.2870407,1.9097936,-14.965654
-90.0005,-89.996956,-84.51424,-88.21057,0.022897149,3.772122,-5.406171
-90.00093,-89.98681,-83.55798,-90.11797,-9.420008,1.0676299,63.77222
-89.99911,-90.00247,-79.93604,-88.593094,4.9582214,-3.5283346,-7.4937515
-89.99776,-90.00436,-80.14494,-89.57973,5.6172667,-2.6761956,-12.850018
-89.997604,-90.00252,-80.173004,-88.66229,4.7632766,-2.6602817,-11.971026
-89.99765,-90.00269,-80.012985,-88.35018,5.0238547,-2.9900317,-11.449862
-89.99778,-90.004974,-79.36498,-88.26631,5.718354,-3.6181803,-11.467888
-89.99875,-90.00453,-79.06744,-86.540245,4.4002743,-6.2238483,-7.1298428
-89.999794,-89.99246,-81.62563,-86.72531,-4.453139,-21.214373,53.7557
-89.99824,-90.00666,-78.67462,-86.1543,5.0643663,-4.0705166,-11.268877
-89.997734,-90.00315,-80.06211,-86.524254,4.411468,-4.009891,-10.234957
-89.99743,-90.00401,-81.10939,-85.35969,3.8387964,-4.104977,-11.0419235
-89.99748,-90.00416,-80.98006,-84.989815,3.6888168,-4.2104554,-10.891698
-89.997894,-90.00366,-79.90692,-85.4197,3.7679975,-4.314331,-9.919944
-89.998375,-90.007,-78.41431,-84.321945,3.941034,-4.993274,-10.589155
-89.999374,-90.001114,-81.40077,-83.07429,-1.6176224,-19.752638,34.355434
-89.99828,-90.00569,-78.792465,-84.52636,3.7045105,-4.545175,-9.99853
-89.99765,-90.0047,-80.66025,-83.72916,3.3206723,-4.504065,-10.575874
-89.99734,-90.00511,-82.77646,-84.29227,3.9056523,-4.50041,-11.44205
-89.997406,-90.00505,-82.417,-84.10079,3.822396,-4.528851,-11.223348
-89.9978,-90.0044,-79.94765,-83.646835,3.520928,-4.572726,-10.08838
-89.998375,-90.00644,-78.26876,-83.68263,3.9275897,-4.74326,-10.052682
-89.99925,-90.004395,-81.829315,-82.22885,0.50143,-17.615927,28.236284
-89.99814,-90.00538,-78.50559,-84.936966,5.25982,-4.682604,-9.872582
-89.9976,-90.00339,-80.16698,-85.53825,5.5556855,-4.0732017,-10.337726
-89.99729,-90.0032,-81.88514,-86.83394,6.7118783,-3.793019,-11.128744
-89.99739,-90.00268,-81.03476,-87.22057,7.354698,-3.612063,-10.859016
-89.99759,-90.00343,-78.97649,-87.54025,8.730275,-3.7533884,-10.755792
-89.99791,-90.00693,-77.38657,-86.94828,10.490955,-4.076663,-11.986291
-89.999146,-89.99567,-82.54809,-87.69739,4.643721,-13.912486,48.668488
-89.997635,-90.00726,-78.33591,-88.51325,12.810827,-3.6294787,-13.526592
-89.997246,-90.004425,-79.783676,-88.92568,11.572495,-2.263046,-12.896349
-89.99727,-90.003845,-80.85426,-88.09443,12.538633,-0.7950743,-12.956864
-89.99739,-90.00419,-80.67317,-88.249725,13.257485,-0.21731149,-13.396459
-89.99748,-90.0061,-81.63581,-90.040146,15.287869,1.488879,-17.15741
-89.99933,-90.00179,-85.33102,-88.852646,13.2176485,13.044958,-19.16915
-89.99919,-89.98571,-90.01069,-92.89538,4.045828,41.906513,22.862688
-90.00005,-89.99708,-85.95702,-88.38479,14.581236,21.377304,-27.19624
-89.999084,-89.99762,-85.67774,-86.0654,13.972038,25.262617,-24.21674
-89.99856,-89.99573,-85.56967,-84.59058,8.997954,33.812946,-19.640009
-89.99854,-89.9923,-85.5171,-83.67626,7.2534933,44.99317,-20.191998
-90.00037,-89.98776,-87.868164,-82.3417,8.575875,46.887455,-21.025166
-90.00255,-89.98291,-92.53363,-88.33209,10.250764,44.3221,-6.282036
-90.00307,-89.98117,-92.67965,-93.00377,4.48932,74.496635,53.4672
-90.00202,-89.985535,-91.21188,-87.27665,13.784922,42.34084,-19.593622
-89.99935,-89.993,-85.65553,-84.01959,16.078575,36.649696,-26.595795
-89.99848,-89.99969,-86.307396,-88.40341,19.38091,17.389124,-20.90361
-89.997734,-90.003395,-85.311264,-90.42145,21.543577,8.199367,-18.58296
-89.9978,-90.00483,-83.863434,-90.44663,22.484415,5.088417,-20.236536
-89.9983,-90.00448,-82.415344,-89.21415,21.816723,8.170551,-22.089676
-89.99795,-89.99788,-84.69378,-91.301186,18.9009,22.556208,5.060045
-89.99703,-90.008766,-82.301636,-89.02976,20.086592,-3.5358493,-12.623996
-89.99744,-90.00536,-83.0552,-90.49251,24.17935,-2.8149366,-14.879416
-89.99738,-90.00454,-82.766136,-89.8833,27.005064,-3.2394166,-14.3578205
-89.99747,-90.00445,-82.51106,-88.81005,27.555809,-3.5447001,-13.653069
-89.99757,-90.00462,-82.2882,-88.71231,25.998634,-3.8698046,-12.826885
-89.99787,-90.00574,-81.4182,-87.15352,23.117504,-4.3364687,-11.123621
-89.99812,-90.009285,-81.415054,-84.637665,20.997522,-5.2669396,-2.2047393
-89.99786,-90.00433,-81.84654,-87.05687,25.273502,-4.4154873,-10.73977
-89.99796,-90.00338,-83.07564,-84.150314,30.24711,-4.16507,-11.005455
-89.99812,-90.00289,-83.870316,-83.41242,32.89691,-3.762837,-11.18477
-89.9982,-90.00267,-83.86868,-83.06232,32.95631,-3.793792,-10.805253
-89.998215,-90.00274,-82.96058,-82.74746,30.678606,-4.2144666,-9.946079
-89.99824,-90.00284,-81.695946,-83.93636,26.66213,-4.5989447,-8.3619375
-89.99875,-90.004555,-81.54283,-83.33604,22.910099,-4.4941955,-4.8383555
-89.99828,-90.002686,-82.02325,-82.42823,28.17943,-4.635286,-8.876182
-89.99837,-90.00247,-83.55495,-81.7817,33.328728,-4.0592217,-9.93591
-89.99842,-90.00234,-84.15121,-82.373215,35.574688,-3.7927,-10.354669
-89.99843,-90.00235,-84.03012,-82.15656,35.17686,-3.8066518,-10.345441
-89.99837,-90.00272,-83.383705,-81.21223,32.996616,-4.3654566,-9.627187
-89.998344,-90.00283,-82.08689,-81.77785,28.458277,-4.7543416,-8.266745
-89.99882,-90.00369,-82.12581,-83.123985,24.851957,-4.43858,-3.9717405
-89.99826,-90.00329,-82.93108,-82.22873,30.07529,-4.8831573,-9.180942
-89.99824,-90.003555,-84.02657,-81.971344,34.631706,-4.3168097,-10.779642
-89.998116,-90.00434,-84.40216,-82.31691,36.77981,-4.373859,-11.696182
-89.998,-90.00497,-84.169876,-82.08441,36.307858,-4.5174847,-12.194945
-89.99792,-90.005684,-83.45112,-83.55796,34.264442,-5.015435,-11.932408
-89.99806,-90.00535,-82.34713,-86.619675,30.67874,-4.4980426,-10.161048
-89.99814,-90.00888,-84.466095,-86.49097,26.65251,-5.518247,0.38388208
-89.99791,-90.00557,-83.064865,-88.39164,31.978846,-4.0800195,-11.626455
-89.99757,-90.00692,-83.57904,-87.50839,35.737606,-4.670699,-14.541605
-89.99737,-90.00747,-84.53226,-88.161964,38.74347,-4.69493,-15.748792
-89.997246,-90.00711,-84.729706,-89.53408,40.005417,-5.142469,-14.495146
-89.99732,-90.00595,-86.266884,-91.73639,41.36449,-7.314738,-5.979578
-89.998344,-90.00086,-87.11741,-89.75146,38.976017,6.048138,-18.758648
-89.999825,-89.989525,-81.31118,-90.60324,27.714449,34.707024,-36.334538
-89.99944,-89.99068,-86.163826,-89.43844,41.83913,27.488737,-41.1881
-89.99888,-89.99282,-89.35028,-90.29199,48.76613,19.471956,-37.067585
-89.99858,-89.991745,-89.617935,-90.267296,48.812546,24.688406,-38.453827
-89.99881,-89.98929,-89.8054,-88.69794,45.31296,40.109554,-42.943504
-90.000534,-89.98297,-92.53745,-93.37953,43.773876,46.79695,-35.981285
-90.00269,-89.9694,-82.803535,-96.40829,41.523003,46.218487,-4.5989766
-90.00338,-89.967514,-86.373,-96.93147,31.288088,72.84546,41.230545
-90.00169,-89.97709,-84.46856,-93.65731,44.52055,45.063255,-27.782082
-89.99899,-89.98923,-88.08022,-90.74046,50.338394,32.511497,-51.147663
-89.99817,-89.99682,-90.024055,-94.91631,59.957043,5.4690957,-22.896673
-89.99695,-90.00597,-90.84252,-92.13083,60.343864,-11.564174,1.1214972
-89.99649,-90.00976,-89.19334,-89.64949,59.155643,-13.091015,5.330168
-89.99663,-90.00926,-89.43766,-88.98874,56.887253,-12.076703,8.491076
-89.99705,-90.00578,-89.41937,-90.40181,52.56613,-9.894521,10.643147
-89.99764,-90.011986,-86.52919,-83.75481,57.58632,-8.779748,-6.9781537
-89.997314,-90.01381,-85.091934,-85.31628,59.840168,-8.15345,-15.538089
-89.99712,-90.01432,-85.215065,-86.62593,62.498356,-8.624392,-15.857102
-89.997284,-90.01366,-85.39711,-86.37591,62.14625,-8.629316,-14.923899
-89.99771,-90.01194,-84.42448,-83.91033,59.989708,-8.207649,-13.044338
-89.99829,-90.00997,-83.81976,-81.317795,55.771748,-7.7372656,-10.793977
-89.999115,-90.00791,-84.18903,-78.98068,51.54348,-6.440812,-6.8698554
-89.99872,-90.00678,-83.68626,-81.2001,57.19987,-7.080543,-7.611577
-89.99875,-90.005424,-84.94565,-84.057594,63.287975,-6.829491,-5.3971114
-89.99883,-90.00443,-85.94934,-85.63906,67.031265,-6.5668736,-3.9438365
-89.99907,-90.00307,-85.621124,-85.487885,67.65263,-6.2318687,-2.4739735
-89.99938,-90.00175,-84.25606,-83.88213,65.29855,-5.930563,-1.326282
-89.999664,-90.0009,-82.06783,-80.61272,60.179073,-5.783658,-0.92341083
-90.00008,-90.00092,-83.72146,-77.66344,54.072548,-5.2220373,0.11406213
-89.999794,-89.999794,-82.390076,-81.83126,62.94362,-5.5029144,0.5234526
-89.999695,-89.99928,-84.434555,-85.0199,69.79421,-5.393175,1.7206405
-89.999626,-89.999054,-85.25696,-86.16435,73.095055,-5.38872,2.3301933
-89.99963,-89.99906,-85.05631,-85.97729,72.8644,-5.438416,2.399951
-89.99972,-89.999306,-83.92882,-84.57455,69.39325,-5.5245905,1.9501656
-89.99981,-89.99975,-81.89487,-81.529305,63.232132,-5.6694083,1.0090059
-90.000046,-90.00034,-81.788025,-77.304245,56.37279,-5.474725,0.80707103
-89.99958,-90.00137,-83.445595,-82.55152,64.047424,-6.0152955,-0.56670296
-89.9989,-90.004555,-85.93969,-85.67588,68.48622,-6.7898674,-3.284216
-89.99821,-90.008064,-87.23885,-86.90831,69.66653,-7.705772,-6.6682367
-89.99773,-90.01075,-87.45179,-87.64721,68.94262,-8.47699,-9.59746
-89.99767,-90.01182,-86.92222,-87.524124,67.04022,-8.723482,-11.049434
-89.99794,-90.01155,-85.242004,-85.059875,63.883682,-8.5508795,-10.992249
-89.99841,-90.01069,-85.25365,-81.00047,59.910892,-8.128715,-7.1601396
-89.99727,-90.014694,-87.017075,-86.765015,67.26128,-9.35666,-13.932779
-89.9965,-90.01737,-88.60854,-89.393906,72.827866,-9.937283,-16.886917
-89.99622,-90.01792,-88.212234,-90.35861,75.97958,-10.240071,-17.789928
-89.99561,-90.01916,-86.35902,-90.34447,75.596825,-15.027675,-6.5948477
-89.99553,-90.01652,-86.018,-90.38149,74.865845,-16.166346,8.423121
-89.99498,-90.013054,-85.4797,-92.71162,75.72242,-7.1491995,12.729702
-89.99813,-89.996216,-85.46176,-90.67165,65.77255,23.579935,-29.971104
-89.997505,-89.996735,-88.16922,-92.988075,74.797806,24.87086,-31.984371
-89.997986,-89.992516,-88.32107,-91.62278,74.30317,32.094658,-44.28607
-89.99888,-89.98621,-83.10521,-87.97301,64.79282,35.61066,-55.25541
-89.999825,-89.98463,-76.198715,-88.27494,55.231064,35.81989,-53.766193
-90.00005,-89.981155,-76.14597,-89.1104,48.108994,39.17434,-33.936436
-90.00121,-89.96894,-74.98451,-89.05848,46.021896,43.64152,-3.2471633
-90.002045,-89.95998,-76.37202,-93.366325,47.332493,67.258934,41.64727
-90.00023,-89.979706,-75.727974,-88.47115,46.720654,37.421513,-31.406813
-89.99907,-89.98599,-77.41589,-87.12682,60.91025,34.386303,-53.2496
-89.996254,-89.9992,-89.29832,-91.50472,79.34513,29.05674,-32.238026
-89.993416,-90.013885,-90.24754,-95.42395,84.4414,10.215467,-3.6847637
-89.992836,-90.021805,-92.29818,-96.76011,83.078064,-3.7091088,9.572372
-89.993546,-90.021935,-89.466896,-95.62127,81.09674,-7.222555,8.391561
-89.994385,-90.020485,-87.48266,-91.49378,77.45857,-8.61267,10.099087
-89.99462,-90.02326,-91.88214,-95.1831,86.761505,-11.206629,-17.17355
-89.99388,-90.02584,-94.9087,-96.55245,93.79585,-14.55516,-23.338026
-89.993324,-90.02719,-95.04905,-96.16649,97.03371,-14.973177,-26.15118
-89.992805,-90.02938,-95.20651,-95.395325,98.22378,-16.215134,-26.264383
-89.99276,-90.03027,-97.60991,-94.8344,97.34205,-17.394007,-23.38533
-89.994705,-90.02178,-94.0852,-91.26214,91.46208,-13.883391,-15.8691635
-89.997086,-90.011894,-89.84945,-87.23329,85.15277,-10.208881,-6.222653
-89.99454,-90.02119,-93.22984,-89.40483,94.681015,-13.519885,-15.097862
-89.99155,-90.03481,-92.64017,-90.69765,100.6796,-18.773706,-27.399502
-89.99687,-90.00294,-94.501205,-97.20734,92.47593,-3.0297394,-11.668007
-89.99689,-90.00408,-95.42342,-97.35438,93.075584,-4.831668,-12.011778
-89.99208,-90.031136,-91.65355,-88.645,99.647415,-17.44956,-24.305656
-89.99704,-90.00908,-88.54788,-86.87387,99.38116,-9.929287,-0.16004172
-89.99953,-89.99897,-84.08167,-85.61146,89.7593,-7.0849876,8.818689
-89.99691,-90.00945,-89.88242,-88.24502,102.4358,-10.102824,-0.049065348
-89.99589,-90.005585,-99.163956,-95.28906,94.173775,-4.504393,-16.767668
-89.994354,-89.99851,-98.005806,-91.24695,91.65836,10.887492,-21.010324
-89.99432,-89.99903,-98.1376,-91.43308,91.86915,10.174685,-21.20795
-89.99677,-90.00738,-95.880516,-96.766426,91.7937,-7.9135966,-11.528197
-89.998436,-90.0032,-89.45899,-90.90635,101.930565,-8.23266,6.4394054
-89.99984,-89.99711,-85.71601,-87.73213,92.32127,-6.677142,10.837968
-89.99417,-90.02083,-90.53007,-85.89851,103.50606,-13.490014,-12.829628
-89.996056,-90.00231,-98.19859,-94.58808,94.30785,-0.24196796,-14.52388
-89.99476,-89.99703,-97.08355,-89.74795,91.76561,11.559171,-15.208534
-89.99496,-89.995705,-95.89221,-90.88576,91.412766,12.723893,-13.814974
-89.99648,-89.99567,-89.30239,-94.96951,88.081726,8.753596,-9.426468
-89.99336,-90.02592,-96.223724,-93.95596,101.41302,-13.208122,-24.760431
-89.99499,-90.02128,-94.208435,-91.0386,94.139206,-13.855691,-14.248467
-89.9938,-90.018906,-91.760765,-95.47238,97.21571,10.882743,-30.457169
-89.99777,-89.97222,-88.87841,-89.74336,81.92792,44.10531,-10.472376
-89.99796,-89.96615,-91.075615,-89.56546,83.17924,55.472477,-15.084629
-89.99841,-89.96281,-90.36908,-90.36819,82.34952,60.684467,-16.323324
-89.99891,-89.9614,-88.04919,-90.47513,79.36834,63.691856,-18.066275
-89.992714,-90.00866,-89.85795,-96.813065,91.741455,45.658356,-9.767058
-89.99368,-90.00446,-88.66503,-95.194756,89.75454,47.325794,-14.239592
-89.99843,-89.989746,-80.320724,-91.26164,78.995804,65.33944,-60.130493
-89.9986,-89.95703,-85.17514,-88.29469,86.56392,98.569244,-47.976177
-89.99908,-89.953545,-83.64833,-87.91289,87.0055,99.135925,-38.82357
-89.99991,-89.95013,-82.59053,-89.379005,84.95708,96.09529,-28.267319
-90.00078,-89.94718,-82.109634,-90.99832,83.40963,94.464485,-20.624647
-90.00108,-89.963165,-83.4654,-89.100655,54.30548,53.135635,2.7038407
-90.00177,-89.94604,-84.33454,-92.62762,61.935802,68.06805,41.329376
-90.00043,-89.98432,-76.50153,-86.11024,39.59639,30.20973,-40.260265
-89.99716,-89.99764,-80.16138,-84.54747,46.587936,31.230288,-48.849888
-89.993416,-90.03904,-87.50939,-77.37307,-16.98252,-43.97765,-15.908768
-89.993256,-90.04593,-88.8794,-76.00755,-51.538406,-74.37521,4.8055587
-89.99496,-90.04782,-94.049774,-68.63177,-91.20089,-87.53583,0.8779973
-89.99808,-90.03576,-89.008415,-61.108078,-74.63039,-63.164486,4.0534053
-90.00053,-90.024376,-84.90401,-64.04934,-70.24924,-39.04764,80.535614
-89.996635,-90.04709,-92.411964,-59.93025,-95.21316,-86.136024,-0.21618822
-89.99592,-90.04881,-92.60399,-61.763817,-94.0399,-75.42004,-21.51396
-89.99547,-90.04784,-91.1147,-61.507355,-96.1921,-72.09082,-22.107754
-89.99564,-90.040985,-89.952225,-60.019245,-92.12517,-58.446953,-15.168849
-89.99635,-90.02983,-87.98948,-59.072006,-86.30688,-49.83287,-5.329211
-89.998726,-90.01111,-90.20703,-66.54984,-74.95869,-40.29125,11.999132
-90.00315,-89.98485,-87.485146,-72.246925,-73.65084,-32.0438,52.075516
-90.000854,-90.00552,-92.23475,-70.076805,-66.14036,-16.200289,5.897577
-90.0006,-90.00634,-92.48779,-68.612495,-61.10476,-7.9538164,-4.7330055
-90.00064,-90.00615,-93.359055,-68.208336,-59.986027,-6.797783,-7.708205
-90.00119,-90.00567,-95.2354,-68.23309,-62.516884,-7.12646,-5.6776576
-90.00294,-90.00207,-92.152466,-69.64777,-66.91045,-9.650496,5.397154
-90.003845,-89.99053,-88.74466,-70.78071,-73.605606,-3.1379123,30.09257
-90.00375,-89.99475,-88.47627,-74.17311,-83.77739,-0.5461502,30.741026
-90.003784,-89.9953,-88.55264,-70.452705,-76.67086,-3.412502,25.329805
-90.003586,-89.99829,-88.03022,-68.88761,-70.332634,-7.7916884,15.80967
-90.003624,-89.99945,-88.239296,-67.716606,-68.6432,-8.679002,11.271568
-90.00371,-89.99875,-87.69414,-68.23079,-70.26694,-7.528727,14.928185
-90.00398,-89.99744,-88.53379,-69.78087,-76.19086,-3.8248982,20.115435
-90.00369,-89.99695,-92.22209,-69.704636,-85.38867,1.4911935,30.202877
-90.004845,-90.01216,-107.685616,-68.76029,-92.48695,-8.200935,97.59475
-90.00359,-89.99798,-90.64469,-63.841133,-83.45799,-5.461072,23.944546
-90.00383,-89.99835,-90.88869,-63.462658,-76.80112,-15.780987,17.01888
-90.00476,-89.99405,-92.71932,-62.84364,-76.57535,-24.99289,24.918966
-90.0053,-89.99121,-94.1199,-61.290524,-80.940994,-29.479088,30.256744
-90.00606,-89.98548,-85.983284,-61.9535,-93.16147,-22.45025,21.407385
-90.000854,-90.01469,-87.46342,-62.237732,-85.13667,23.29335,23.542614
-90.005684,-90.00607,-105.3395,-66.27179,-94.48216,20.348696,70.87329
-90.00033,-90.02024,-91.249214,-62.413353,-86.96709,19.069725,11.753777
-90.000824,-90.01603,-89.77555,-57.31373,-79.33492,-3.6632724,12.631467
-90.000694,-90.01331,-87.01956,-55.498116,-74.66209,-2.9228642,13.006565
-90.000534,-90.01412,-86.12904,-54.831444,-75.4143,3.8426256,11.323825
-90.00043,-90.01609,-87.26213,-57.416203,-82.60604,16.833923,10.786866
-89.99914,-90.003044,-105.28555,-61.3515,-97.79809,66.68851,66.90686
-90.0017,-90.00402,-108.66466,-58.531723,-96.01904,51.150543,76.27565
-89.99849,-90.027504,-88.72609,-63.104862,-88.238556,27.174309,-39.52667
-89.99919,-90.02291,-84.864044,-58.95996,-81.630714,19.86479,-38.34127
-90.00012,-90.01912,-82.75146,-52.701405,-80.37861,26.919954,-19.633736
-90.00249,-90.003105,-82.12413,-50.205463,-80.03085,43.744377,-11.068033
-90.004776,-89.99011,-80.090195,-49.753094,-78.87319,51.30759,7.3873463
-89.99667,-90.002075,-102.86839,-62.488575,-95.62484,85.127075,66.75084
-89.99752,-90.00177,-103.24451,-62.081287,-94.478775,81.52277,69.50866
-90.004684,-89.99269,-79.685585,-51.0051,-79.40597,48.85405,7.1840425
-90.00003,-90.01874,-82.528915,-52.62905,-77.52157,31.994228,-18.147066
-90.000015,-90.01786,-84.19766,-55.4499,-72.21066,20.085493,-27.362757
-89.99989,-90.01643,-82.70167,-55.750454,-68.33492,4.2176476,-17.767643
-89.99971,-90.012245,-81.65053,-55.47269,-61.964317,1.2960757,4.061804
-90.00052,-90.01245,-81.352554,-56.284004,-65.22774,5.354055,9.88027
-90.00061,-90.01565,-86.420204,-62.585346,-75.48988,7.194845,13.220552
-90.00192,-90.00755,-87.99622,-56.056698,-62.496803,-13.360168,4.2255015
-90.00235,-89.998436,-94.57599,-59.033108,-66.28382,-29.769953,11.035163
-90.00183,-90.002464,-94.27302,-58.422497,-62.619606,-27.868334,3.4487052
-90.00191,-90.00333,-94.29841,-59.56861,-63.43806,-25.275505,3.6746602
-90.00274,-90.001785,-93.94615,-61.45411,-65.10867,-24.387383,11.401127
-90.0036,-89.99821,-93.26893,-65.31089,-67.243164,-25.568995,27.873055
-90.0043,-89.99549,-92.19169,-68.18506,-76.95829,-21.107313,21.070337
-90.003395,-90.00008,-90.85434,-66.31765,-63.88103,-16.703638,17.349665
-90.0023,-90.00531,-93.93549,-64.67421,-60.618362,-11.203776,0.28884715
-90.001625,-90.00531,-96.09663,-63.89279,-58.536625,-11.094685,-5.6733475
-90.00164,-90.00556,-95.714066,-64.4997,-59.34948,-10.051905,-4.518229
-90.002785,-90.0039,-92.8904,-66.02823,-62.677227,-10.561611,2.0605683
-90.003944,-89.998024,-88.626976,-68.207184,-65.11153,-8.655869,15.171037
-90.00391,-89.994156,-87.60096,-70.95019,-76.85301,-1.9921403,26.28673
-90.00378,-90.00033,-89.10834,-67.56588,-65.20301,-9.712534,11.3836975
-90.00206,-90.004776,-94.53461,-65.30013,-60.90994,-9.311696,-0.8503663
-90.00136,-90.00544,-96.16251,-63.824123,-58.38826,-7.8910913,-6.2877455
-90.001465,-90.00548,-95.858315,-64.056465,-58.98396,-8.063302,-5.2068186
-90.00256,-90.003975,-93.77819,-66.06369,-61.230057,-9.5283,1.9059792
-90.003654,-89.99754,-88.886604,-68.004654,-67.06687,-7.9307346,15.840431
-90.00371,-89.992966,-87.39982,-70.99267,-77.49718,-0.41352403,30.9264
-90.00364,-90.00089,-90.44867,-67.731926,-62.029564,-10.18834,9.285619
-90.00157,-90.00604,-95.88278,-64.55649,-58.11068,-9.624716,-4.735591
-90.00096,-90.006,-97.34284,-62.691242,-54.211304,-10.778032,-11.007606
-90.00098,-90.00607,-97.27676,-62.449966,-54.70412,-12.534738,-10.512049
-90.00158,-90.006165,-96.12363,-62.734013,-57.925575,-15.211336,-3.8261957
-90.002625,-90.005,-92.56686,-63.608444,-62.20211,-19.343811,13.098833
-90.00374,-89.99736,-93.3349,-67.66374,-69.2996,-26.135557,29.705389
-90.002014,-90.00364,-93.773705,-60.131443,-60.47839,-25.662218,9.375377
-90.00063,-90.00736,-94.10117,-58.655743,-51.9335,-19.151611,-9.780105
-90.00027,-90.00898,-93.33783,-56.06827,-48.245956,-16.578732,-10.849925
-89.9996,-90.01197,-91.96299,-54.751938,-46.850483,-13.63919,-9.403363
-89.9994,-90.01236,-92.161545,-54.887005,-48.27436,-10.911917,-8.245195
-89.999466,-90.00852,-85.75246,-55.857857,-42.170197,-3.9379096,-4.7525406
-89.99973,-90.01026,-79.372475,-56.982372,-48.46303,6.394392,9.093295
-90.0011,-90.003006,-86.56894,-56.656395,-41.918633,10.23595,-29.643576
-90.00159,-90.00415,-87.36355,-54.17174,-44.821686,33.84192,-36.336887
-90.00053,-90.00969,-87.36441,-52.11416,-47.541306,53.924442,-27.814922
-90.00065,-90.00577,-85.958206,-50.781242,-51.345802,66.22751,-21.099087
-90.00147,-90.00106,-83.52901,-48.757713,-53.480648,65.88038,-3.9089742
-90.003395,-89.99419,-84.66065,-51.474266,-55.237026,58.77448,22.970484
-90.005554,-89.9769,-79.26083,-59.222664,-61.257442,68.220345,43.202755
-90.00225,-90.001564,-81.25342,-52.32002,-51.597332,50.34506,1.8702087
-90.00123,-90.00554,-88.27691,-53.64511,-42.00563,41.771236,-32.200478
-89.99634,-90.01066,-93.52943,-56.06153,-40.14413,-13.644764,-25.346159
-89.99821,-90.01409,-92.204445,-54.459206,-37.857063,-10.521039,-17.434324
-89.99958,-90.01281,-91.5671,-55.890507,-35.304855,-8.463546,-9.809045
-90.00061,-90.00785,-92.52282,-58.974854,-40.145836,-15.85918,-5.968433
-90.00131,-90.00825,-90.594826,-61.01336,-50.578926,-21.28642,17.567257
-90.000854,-90.00761,-94.308136,-58.988792,-38.45424,-12.559208,-9.266294
-90.000046,-90.00975,-94.17381,-59.146782,-33.791683,-6.9202065,-16.636118
-89.99957,-90.01167,-94.29547,-59.59741,-33.39251,-5.7052164,-19.06394
-89.999435,-90.01162,-94.40186,-59.907364,-35.212437,-5.4680004,-19.076706
-89.9997,-90.010605,-93.73203,-59.794666,-38.753384,-5.332092,-12.906686
-90.00156,-90.00937,-94.98259,-60.806637,-39.151978,-8.016359,9.487886
-90.00219,-89.991745,-93.617645,-67.38737,-37.05598,-13.576969,67.42613
-90.001236,-90.00992,-93.93551,-60.12371,-39.253437,-7.781597,4.0919642
-89.99951,-90.01146,-92.875565,-59.0481,-37.06801,-4.8815928,-13.121246
-89.99895,-90.0125,-94.05066,-59.719196,-36.559853,-5.0064297,-17.82401
-89.99917,-90.01209,-93.54168,-59.313423,-35.99929,-4.850625,-16.191713
-90.00021,-90.01071,-92.08398,-58.16639,-36.387573,-4.7977266,-8.836569
-90.00192,-90.00709,-93.561615,-60.60582,-34.62094,-10.652646,18.903269
-90.00256,-89.99031,-93.50451,-66.45276,-32.964176,-14.527381,76.122025
-90.00164,-90.00838,-93.321266,-59.242283,-34.91912,-9.106055,9.820597
-89.999794,-90.01179,-92.82906,-57.91796,-34.32843,-4.6932697,-11.62926
-89.99908,-90.013565,-94.52365,-58.675327,-35.25091,-5.899149,-16.576792
-89.999275,-90.01312,-94.1719,-58.49987,-34.52405,-5.653916,-15.393567
-90.00037,-90.01163,-92.68424,-57.563316,-33.438076,-4.416102,-7.6844416
-90.00197,-90.00708,-93.22768,-60.041233,-31.983772,-11.440209,21.711664
-90.00263,-89.98993,-93.08977,-65.84685,-30.765043,-16.640442,81.10075
-90.00148,-90.00974,-93.415,-59.035244,-32.404945,-9.3835335,10.152016
-89.999664,-90.01343,-93.629745,-59.06693,-31.564625,-4.6797295,-12.759228
-89.998856,-90.0157,-94.53658,-60.265903,-33.569183,-5.8267255,-19.198061
-89.99904,-90.01547,-94.108345,-60.21531,-32.606575,-5.576647,-18.495684
-90.00001,-90.01405,-92.8327,-58.875244,-30.103851,-4.8887844,-10.955975
-90.001564,-90.01159,-94.34206,-59.98397,-27.206612,-11.471132,19.557987
-90.00228,-89.99128,-93.581985,-65.16116,-27.319225,-19.75268,83.869774
-90.00111,-90.012505,-93.1896,-58.98671,-28.26557,-7.5633297,2.5586314
-89.999794,-90.01473,-90.034805,-62.2172,-19.738432,-4.6334662,-14.296903
-89.99919,-90.01453,-88.77664,-65.17059,-13.215454,-4.0538273,-15.306207
-89.99902,-90.01392,-89.67963,-64.24508,-13.064299,-3.6866658,-14.917426
-89.99916,-90.012695,-90.98885,-61.99407,-13.863241,-0.8031754,-12.715198
-89.99951,-90.00843,-91.669106,-62.3986,-17.072058,-5.2591743,-4.1066036
-90.000786,-90.00565,-85.21852,-62.940773,-25.840652,-14.6518955,32.929623
-89.998856,-90.00765,-89.54484,-61.263424,-16.486696,4.1479073,-13.919766
-89.99723,-90.009995,-90.38693,-60.587048,-11.735555,0.62239856,-23.320515
-89.99645,-90.009476,-92.08875,-61.88023,-10.877923,6.6697726,-25.397102
-89.995804,-90.00681,-91.14255,-61.49816,-12.407922,8.940957,-27.434984
-90.00018,-90.00235,-81.39573,-53.26628,-31.761106,47.359688,-4.5533657
-90.00222,-89.99169,-81.295135,-55.864326,-32.93124,59.40321,20.153244
-90.01015,-89.98299,-80.015434,-61.523575,-26.702576,99.298355,66.950806
-90.00147,-89.998726,-79.80218,-55.97223,-29.056646,33.876457,-6.6010127
-89.99738,-90.00865,-88.82807,-61.691303,-6.5085917,5.504713,-23.169275
-89.998116,-90.011566,-89.5656,-62.910683,-1.7969803,2.0645282,-19.594532
-89.99855,-90.01232,-89.74085,-63.26698,-1.6352997,-2.415529,-18.448938
-89.99883,-90.01265,-88.83757,-63.732136,-2.9138606,-0.8495184,-17.33977
-90.00038,-90.01551,-88.4862,-61.88845,-3.8127925,-14.509998,24.412495
-90.00653,-89.97707,-88.33589,-68.56454,-1.8477194,-22.386053,108.06568
-90.00053,-90.01987,-89.99183,-61.62844,-3.7968946,-14.500794,14.954726
-89.99953,-90.0136,-89.696,-65.80983,-0.9126813,-1.7273693,-19.191769
-89.999176,-90.01386,-92.369156,-65.21896,-0.31136578,-1.2956266,-24.717339
-89.99938,-90.01422,-92.25576,-65.47119,-0.48310915,-1.5959382,-23.77606
-90.00031,-90.01539,-89.60452,-66.41886,-0.76440823,-2.3294504,-17.056707
-90.00182,-90.02173,-91.769966,-60.335068,-4.306584,-19.352081,21.781763
-90.0075,-89.97583,-94.48931,-67.66956,-3.7874575,-36.69219,105.02891
-90.00187,-90.019516,-90.68945,-63.49405,-4.93786,-9.316009,-0.69159645
-89.99957,-90.01484,-92.136826,-63.38242,0.65084535,-1.2881134,-21.262934
-89.999084,-90.01452,-91.415764,-60.03286,1.8808221,0.06332822,-24.587599
-89.99917,-90.01455,-91.33804,-59.951744,2.1362517,-0.022585692,-23.708061
-89.99979,-90.0157,-92.120316,-63.607586,0.38959512,-2.0355008,-19.048428
-90.00237,-90.01766,-90.284805,-63.264435,-2.8175032,-7.146944,3.4597583
-90.00669,-89.986336,-95.61489,-63.55402,-2.1000013,-35.215725,87.49452
-90.00127,-90.01708,-88.855705,-65.11929,0.57534146,-4.304639,-5.4395375
-89.99931,-90.014786,-91.3884,-59.46722,3.0017555,-0.37930873,-21.325275
-89.998924,-90.01555,-91.284386,-58.015553,4.2252755,-0.2726872,-23.959593
-89.99901,-90.01526,-91.10524,-57.98281,3.8863418,-0.20648766,-23.486021
-89.99946,-90.01499,-91.923225,-60.433605,2.8669457,-0.79642826,-19.295254
-90.002075,-90.01632,-89.19088,-64.14493,-0.20751153,-4.9828367,-0.6611787
-90.00642,-89.98958,-94.97031,-62.158077,-1.0613239,-34.726692,81.98695
-90.00099,-90.01722,-88.63038,-65.63574,2.4566028,-4.83169,-6.4533424
-89.99941,-90.01415,-91.48046,-59.84984,3.73082,-0.41335058,-21.671045
-89.999146,-90.01445,-91.99346,-58.554012,4.5744004,0.24005258,-24.672073
-89.99922,-90.01395,-92.1562,-59.291447,4.221306,-0.14583859,-24.288967
-89.99988,-90.01404,-92.541794,-63.528667,2.3625517,-2.5314908,-20.550814
-90.00157,-90.01959,-89.3955,-63.607323,-0.003587073,-21.16257,10.026938
-90.008896,-89.96932,-93.78461,-68.114395,3.0481575,-37.671654,102.61871
-90.000786,-90.018295,-90.444786,-64.3059,2.0137181,-19.439968,-2.2167642
-89.999825,-90.01309,-93.03392,-63.655872,4.7081175,-5.9703007,-21.689415
-89.99931,-90.013,-94.55922,-62.56947,5.8798847,-3.9375467,-24.605717
-89.99952,-90.01256,-94.364105,-63.499104,6.353672,-7.295093,-22.514723
-90.00014,-90.01361,-91.96928,-63.367344,5.6747527,-18.140509,-11.088677
-90.000984,-90.00852,-85.91871,-61.601246,17.683798,8.950834,10.333363
-90.00394,-89.98398,-89.733635,-66.12481,19.27022,36.67609,69.83345
-89.999825,-90.00722,-83.99499,-61.68346,17.46111,17.067783,-27.03454
-90.00021,-90.00802,-88.658844,-63.521255,13.704719,-5.1338205,-19.588696
-90.00048,-90.00572,-90.48247,-62.965416,13.778097,-4.8819885,-19.24242
-89.999886,-90.00324,-90.78688,-61.429523,13.735577,9.982784,-30.181376
-89.99885,-90.00119,-87.26692,-61.63634,9.936697,27.421629,-49.189205
-90.0,-89.983345,-88.45877,-63.996582,-0.897952,68.552376,24.882454
-90.00242,-89.987724,-88.33248,-60.964085,-8.718636,98.12879,75.94197
-89.99941,-90.00238,-82.98461,-63.2731,15.520633,23.74986,-46.432987
-89.99968,-90.005806,-88.96618,-64.26632,24.681839,9.009317,-33.007454
-90.00153,-90.01111,-94.35114,-64.63122,26.999874,-26.507835,-0.95816666
-90.001274,-90.01634,-94.451195,-64.1813,21.146372,-36.517967,3.0671797
-90.00117,-90.0192,-94.03312,-64.24686,17.796398,-43.986668,15.6354685
-90.00214,-90.01455,-94.82909,-63.85301,22.870623,-48.66203,52.09895
-90.00391,-89.988754,-89.897865,-63.37642,28.710976,2.4399104,63.13458
-90.00008,-90.021904,-94.699814,-64.32103,17.818695,-42.80312,17.063429
-89.99883,-90.01683,-92.48516,-63.363888,22.97474,-1.1047511,-18.286192
-89.99904,-90.01284,-92.021065,-60.83003,27.243395,-0.6216618,-18.873062
-89.99914,-90.01179,-91.65849,-59.73337,28.094261,-0.8472333,-18.615849
-89.99945,-90.01199,-90.715935,-60.10502,25.645607,-1.3645198,-16.348324
-89.99889,-90.016106,-92.3877,-61.43921,21.576385,-6.3228407,-4.401628
-90.00019,-90.01624,-95.71156,-64.13252,29.431736,-40.95986,36.042713
-89.9995,-90.01209,-89.70678,-58.957424,24.448753,-3.197622,-9.6326475
-89.99893,-90.01035,-89.67101,-57.07211,31.157871,-1.2738073,-20.876104
-89.99871,-90.0102,-89.51715,-55.47972,34.149837,-1.0762086,-22.958826
-89.99871,-90.01031,-89.590004,-55.185726,33.862812,-1.1137412,-23.015558
-89.99892,-90.01027,-89.25891,-55.898773,31.013832,-1.5698737,-21.392054
-89.99939,-90.011,-88.55768,-57.549736,26.917084,-2.5550215,-9.026587
-89.99927,-90.01373,-91.45919,-61.33432,23.670155,-9.800161,15.186015
-89.99932,-90.01025,-88.831375,-56.286385,28.850666,-1.829886,-14.514391
-89.99871,-90.01059,-89.888725,-54.23857,33.495514,-1.2031672,-23.147654
-89.998436,-90.0103,-89.952034,-53.83167,35.8464,-0.7531687,-24.211971
-89.99848,-90.010345,-89.98141,-53.86174,35.53545,-0.84303904,-23.99376
-89.99878,-90.01058,-89.79148,-54.41358,32.68597,-1.4552013,-22.555096
-89.999374,-90.010025,-88.32709,-56.595524,29.451754,-1.8864886,-10.687047
-89.99925,-90.01231,-90.23801,-60.090424,24.727867,-7.8733845,12.819402
-89.99938,-90.00977,-88.894485,-56.737366,31.97524,-1.547066,-13.30976
-89.998856,-90.00949,-89.03526,-55.92766,36.735397,-1.6299016,-20.601976
-89.99871,-90.00886,-88.76734,-56.43275,39.98976,-1.5198319,-20.26351
-89.99887,-90.008606,-88.48722,-57.17664,40.248985,-1.8428074,-18.950092
-89.99925,-90.01013,-89.20412,-58.553436,38.18372,-0.34291294,-15.937409
-89.998886,-90.01573,-89.96151,-62.392643,32.80271,-0.7973625,-7.319028
-89.999504,-90.01972,-96.19571,-65.75137,37.115574,-53.955097,47.784416
-89.99857,-90.0197,-91.13006,-65.336365,35.582893,-2.159328,-10.050074
-89.9983,-90.0182,-91.081696,-65.52039,41.263924,4.4044824,-18.844141
-89.9983,-90.01897,-90.24455,-67.10179,42.956264,4.3379836,-19.045557
-89.999016,-90.020836,-90.315094,-68.629295,42.206703,-13.842951,-2.9408722
-90.00056,-90.023544,-91.498505,-68.08228,39.1529,-46.084606,28.618814
-90.00265,-90.00513,-89.02453,-69.94608,45.86673,-12.223922,25.066933
-90.00149,-89.99522,-89.39489,-64.54521,35.93046,41.575546,-7.7138906
-90.001755,-89.99819,-86.81146,-66.34505,44.750393,29.546646,-28.629194
-90.00164,-89.998825,-87.266525,-67.91302,48.784794,20.43623,-32.181015
-90.00087,-89.998474,-87.837105,-66.51379,48.98474,26.470667,-39.99726
-89.992714,-89.99645,-90.3112,-62.90912,40.60709,87.294495,-19.899862
-89.99509,-89.988174,-88.02897,-62.464664,43.05739,73.24332,-11.004487
-90.00206,-89.964165,-88.35403,-61.62888,39.361492,52.556946,16.147305
-90.00007,-89.98753,-94.214195,-63.702,24.860113,91.1188,82.835464
-89.99872,-89.9809,-89.4293,-63.426895,46.31622,54.90037,-11.392681
-90.0013,-89.994095,-84.33495,-64.26744,48.02934,33.800007,-34.258255
-90.0024,-89.99812,-88.972855,-67.96664,57.405582,11.886006,-6.491297
-90.00196,-90.0064,-91.80749,-70.390564,59.659943,-14.04075,17.071003
-90.00125,-90.01172,-91.10601,-71.62246,59.15675,-29.131117,31.157717
-90.00128,-90.01224,-90.20076,-70.96305,55.462368,-34.71981,43.05635
-90.0018,-90.00979,-89.432274,-67.64544,50.44491,-31.564734,57.798252
-89.99715,-90.020966,-89.50618,-68.53576,55.581245,10.7535095,-9.845598
-89.996315,-90.02015,-87.63104,-64.69379,59.074036,11.3414955,-25.828165
-89.99625,-90.01874,-90.555405,-64.55583,63.298916,5.3853765,-22.988752
-89.99638,-90.01695,-91.922356,-63.144634,63.473454,2.4098032,-19.091051
-89.99676,-90.015175,-91.751945,-61.813793,61.12186,1.0535738,-15.664424
-89.997116,-90.01494,-89.7978,-60.59744,56.326168,1.3504792,-11.393453
-89.99757,-90.01618,-89.85871,-61.248474,52.131237,3.0341325,-0.5590406
-89.997925,-90.00882,-91.18248,-60.53234,58.702618,-0.61018485,-11.406991
-89.99786,-90.00596,-92.028465,-60.52271,64.98569,-2.7026384,-10.642761
-89.99793,-90.004166,-90.923874,-59.879467,68.71175,-3.5316324,-9.740392
-89.99791,-90.00407,-90.379684,-59.356613,68.65136,-3.2847967,-9.945343
-89.998,-90.0047,-90.654755,-58.538593,65.23204,-3.294645,-10.853955
-89.99832,-90.00566,-90.49312,-57.468094,59.74186,-3.7291696,-11.276716
-89.99841,-90.00767,-88.077126,-57.607735,53.005142,-2.8996608,-3.1633072
-89.99809,-90.0053,-90.39371,-57.140114,61.308235,-3.2602167,-11.82063
-89.998024,-90.00351,-88.378075,-57.66678,67.63464,-3.6345923,-8.061525
-89.998245,-90.00249,-86.69461,-57.963036,72.75759,-4.9719834,-3.0888343
-89.99823,-90.002594,-86.75628,-57.78353,72.06925,-4.855256,-3.5405173
-89.998,-90.00376,-88.4558,-57.268845,66.204254,-3.4340081,-8.931885
-89.99809,-90.00538,-90.094124,-56.552055,60.55391,-3.2210176,-12.007884
-89.99844,-90.00678,-88.491875,-56.955193,54.22438,-4.0341115,-4.522953
-89.998184,-90.00513,-90.48045,-57.978973,63.47311,-3.8481934,-10.313727
-89.99786,-90.00459,-90.800545,-59.88206,69.815414,-3.5009277,-8.7440605
-89.996864,-90.00888,-92.20514,-61.39041,71.864075,-2.9401538,-11.031013
-89.996254,-90.01252,-93.16447,-62.19326,70.63554,-0.8540403,-14.545503
-89.996155,-90.015625,-92.88175,-61.772327,67.24631,2.12686,-17.436983
-89.99653,-90.01736,-91.0111,-61.451942,62.18034,5.2632113,-17.168964
-89.99695,-90.01908,-88.162636,-64.00491,57.478123,11.008481,-11.388971
-89.99602,-90.02128,-89.1343,-64.28427,62.718838,16.743786,-26.066547
-89.99594,-90.02041,-88.60728,-65.68604,66.25569,21.722977,-28.694685
-89.996414,-90.017654,-88.49037,-67.435165,67.26967,29.370235,-24.14708
-89.99704,-90.01438,-89.74945,-69.8084,67.7626,27.23444,2.9877167
-89.99897,-90.006,-89.386765,-69.89258,67.276695,25.857069,36.35506
-90.00228,-89.9936,-87.754364,-63.90889,62.637478,33.49907,53.785786
-90.0032,-89.98695,-82.7362,-59.292915,51.97276,39.63585,43.54143
-89.992386,-90.00802,-92.5489,-57.80072,48.093777,78.78475,-61.819397
-89.99244,-90.00853,-86.31104,-57.019127,50.524204,72.50897,-56.75003
-89.9934,-90.00391,-80.53698,-57.46589,51.621094,61.516315,-41.720745
-89.99553,-89.992165,-77.11261,-58.30274,52.940014,38.11094,-16.839632
-89.99869,-89.97572,-76.74101,-55.998558,58.33241,34.12425,-0.2635439
-89.999664,-89.97035,-82.96317,-57.84366,61.94304,77.919754,46.102467
-89.99997,-89.98016,-94.566864,-60.62361,46.92261,103.99067,95.99544
-89.99874,-89.97723,-78.024124,-56.384815,59.804592,33.25805,5.0358
-89.99487,-90.00271,-76.71255,-57.22042,48.388863,44.83066,-33.204
-89.99356,-90.01116,-85.10592,-56.67792,48.504227,48.520954,-66.313705
-89.99816,-90.00277,-85.24114,-62.265915,66.36256,-9.269331,-24.866657
-89.99831,-90.004265,-86.07459,-65.93236,69.3867,-39.890377,21.631775
-89.99727,-90.006226,-92.17559,-64.99124,65.20086,-33.893005,23.758915
-90.00016,-89.99866,-92.25156,-60.334377,65.15141,9.372734,59.271637
-89.998085,-90.00401,-88.44181,-60.155933,68.55781,-22.145735,-31.562939
-89.99867,-90.00368,-80.902405,-56.131485,76.90136,-25.141062,-13.998781
-89.99769,-90.005,-83.021935,-56.16857,79.27129,-22.4416,-9.642437
-89.99752,-90.00658,-85.01436,-56.079796,80.78258,-23.40658,-7.4922233
-89.998184,-90.00324,-84.563965,-56.039013,82.41931,-24.09347,-2.3692644
-89.99638,-90.01633,-92.705284,-56.360416,76.1818,7.893846,-24.88321
-89.996666,-90.01307,-90.98119,-58.339237,70.52758,5.9402423,-12.298868
-89.99451,-90.02592,-92.257484,-55.475048,81.065674,8.971819,-28.25251
-89.99658,-90.00898,-89.873566,-60.09118,87.52855,-17.767267,-2.0810618
-89.99371,-90.02059,-93.00297,-57.611176,87.88846,-6.357472,-7.6387777
-89.99365,-90.02113,-93.31548,-57.59745,89.363106,-7.8043203,-7.1698318
-89.99731,-90.00469,-89.77851,-62.701912,89.32167,-14.5307,2.7978253
-89.99447,-90.02276,-88.61621,-54.232903,90.21095,8.241927,-18.379307
-89.99672,-90.0101,-83.48907,-58.419872,85.871635,0.401049,-2.2951415
-89.99427,-90.02454,-88.234825,-52.906376,94.1984,8.193761,-17.82677
-89.99191,-90.02711,-95.40066,-56.703873,93.99727,-4.0944552,-9.835202
-89.99127,-90.03193,-91.67672,-51.853184,95.58077,3.1451995,-19.89602
-89.99121,-90.03212,-92.07146,-51.78069,96.13078,3.0463223,-19.715006
-89.993866,-90.02129,-95.0768,-60.145187,94.205696,-12.063069,-4.6657643
-89.99489,-90.02049,-88.571045,-56.18926,98.33023,5.231549,-8.2470455
-89.99677,-90.01035,-82.697655,-58.424904,89.86062,-1.2345549,1.3900266
-89.99292,-90.036476,-90.05843,-50.42843,90.32105,10.0815525,-32.382698
-89.99248,-90.02278,-94.59317,-54.693913,90.22927,0.81526077,-9.792076
-89.99268,-90.02051,-92.16564,-54.123142,89.37363,10.937367,-14.012033
-89.99298,-90.01765,-90.94357,-55.322536,86.88252,11.638141,-12.935845
-89.99383,-90.01416,-92.20305,-54.985977,83.43353,3.9047847,-7.987125
-89.99735,-90.00592,-87.86809,-54.325527,84.43253,-23.627975,-4.4191513
-89.99808,-90.00664,-84.25878,-53.620853,74.163605,9.328193,-8.570901
-89.99501,-90.014435,-89.26207,-56.669426,82.61571,18.465746,-16.924326
-89.99149,-90.03308,-94.87507,-60.835945,84.34138,64.865456,-27.897675
-89.99153,-90.035515,-96.80235,-61.734154,81.00436,72.04933,-6.0084033
-89.99049,-90.04186,-94.75027,-60.95006,78.98388,67.37666,39.608856
-89.99145,-90.046364,-90.67699,-64.573784,78.82693,65.28546,80.40712
-89.99363,-90.040634,-85.944954,-67.65066,75.93623,66.31499,111.68923
-89.99943,-90.023445,-77.55976,-68.823204,68.61278,38.502377,76.679695
-89.99566,-90.01588,-83.68975,-60.8356,69.347755,68.93605,-53.49392
-89.99639,-90.002106,-84.31583,-50.54602,50.407894,27.988882,-59.128113
-89.996796,-89.994026,-89.9538,-49.02188,44.327045,35.482365,-35.301212
-89.99868,-89.9876,-89.73722,-53.372437,51.643436,48.806087,-2.118917
-89.99907,-89.976524,-89.30984,-56.665253,65.51667,77.78069,54.691242
-89.99901,-89.97335,-98.702225,-55.23055,69.70548,96.42017,72.11373
-89.99872,-89.97162,-108.5857,-58.56227,72.24242,112.626854,87.53201
-89.996864,-89.997475,-89.13481,-50.878548,44.03791,38.743393,-22.221046
-89.99497,-90.010765,-70.92591,-56.550457,5.965522,15.176885,-26.446354
-89.99169,-90.02843,-86.952515,-59.14837,-46.717274,-24.00677,-38.45528
-89.99671,-90.01899,-87.139,-38.405006,-59.573265,-91.37986,53.267326
-89.99805,-90.02452,-87.893364,-40.089886,-99.346634,-111.08753,32.990356
-90.00072,-90.019905,-90.762375,-49.52348,-103.94953,-96.774414,38.005592
-90.00555,-89.993034,-82.78707,-54.29944,-93.15394,-77.16996,93.52933
-90.00021,-90.03351,-90.36716,-27.792305,-129.51564,-109.04998,-22.814827
-89.999214,-90.0383,-87.85512,-25.502977,-126.853165,-94.73016,-45.89939
-89.99939,-90.0359,-90.727905,-22.597301,-123.45595,-85.8897,-39.110928
-89.99983,-90.03062,-95.080605,-21.805342,-118.67315,-82.34367,-27.150908
-90.00001,-90.02397,-97.13236,-22.585579,-119.976654,-84.53651,-13.120444
-90.00289,-90.00181,-96.12948,-25.970041,-112.12645,-81.83729,31.686758
-90.00674,-89.97444,-93.16571,-39.1346,-111.54675,-80.8271,65.498665
-90.00244,-89.996346,-98.532585,-34.983143,-96.106064,-59.810135,24.662903
-90.00105,-90.00691,-100.16629,-36.34759,-84.87344,-38.820034,-0.7231963
-90.00088,-90.00773,-99.95704,-37.312027,-80.995605,-29.489027,-6.3457146
-90.00077,-90.00594,-97.80996,-37.934708,-81.47036,-24.86633,-3.3606536
-90.00161,-90.00002,-93.3129,-38.703552,-85.83314,-26.94137,5.1079583
-90.00389,-89.99208,-85.718704,-40.84957,-90.98578,-24.346472,30.679577
-90.002716,-89.99167,-91.25558,-39.81603,-92.98501,-26.448526,92.95264
-90.003654,-89.9911,-86.33854,-40.413918,-89.93722,-21.638239,41.062878
-90.001755,-90.0028,-87.07559,-37.539673,-84.64875,-18.625193,9.679529
-90.00092,-90.00589,-88.15306,-36.98917,-82.39958,-17.81453,2.7169044
-90.00144,-90.00465,-85.704056,-36.878883,-84.88808,-15.947395,9.857092
-90.002846,-89.994545,-86.36256,-39.029934,-87.1147,-19.194313,50.29336
-90.00233,-89.99364,-90.736435,-38.29533,-89.911995,-24.786987,97.136894
-90.00555,-90.01103,-102.28613,-34.741154,-83.72143,-0.25444618,96.904274
-90.003044,-90.00356,-82.564316,-33.69347,-89.29687,0.58770317,21.38484
-89.99901,-90.01085,-83.62429,-39.72904,-97.194595,-3.121025,4.29441
-90.00105,-90.006325,-91.88892,-31.452963,-76.18238,0.578641,17.66873
-90.00017,-90.01106,-91.614265,-29.368076,-83.548805,10.881237,17.131449
-89.99982,-90.01708,-91.15267,-32.35617,-92.861824,26.457481,23.365349
-90.00014,-90.03092,-89.560356,-37.326546,-92.789604,32.273876,24.22961
-90.004395,-90.01272,-93.40504,-32.07108,-86.905914,19.22101,77.2508
-89.9934,-90.046486,-91.905876,-38.055378,-95.20896,47.95904,-8.007165
-89.98898,-90.05445,-93.22156,-35.944736,-90.53875,41.905838,-24.335882
-89.98938,-90.04678,-89.34362,-31.569178,-83.26186,28.655653,-8.878511
-89.99172,-90.03436,-88.93863,-29.999474,-80.17994,11.486302,29.578945
-89.994644,-90.02807,-94.40141,-30.010815,-84.56188,27.30227,47.26915
-89.99912,-90.01538,-95.908875,-25.612885,-91.43551,56.932415,68.923874
-90.00225,-90.01511,-100.5977,-27.719744,-92.304886,50.075474,75.49174
-89.99405,-90.02952,-89.92923,-38.810974,-89.35757,89.42843,-65.58579
-89.9945,-90.03408,-83.93182,-32.50946,-80.82183,60.273487,-63.261135
-89.997856,-90.02658,-79.27517,-32.923225,-80.68145,26.205633,-40.216732
-89.99899,-90.01651,-71.1801,-36.07279,-83.9869,23.560402,-15.387219
-90.00005,-90.00139,-65.768715,-36.764694,-88.20647,34.016094,10.3199215
-89.99849,-90.011986,-91.143394,-28.289366,-92.43976,75.64415,65.89507
-89.99978,-90.01064,-94.70514,-30.55502,-94.83789,69.49576,69.474884
-89.99973,-90.00831,-67.996376,-38.142956,-87.42195,30.118542,3.0458326
-89.99855,-90.02496,-82.73155,-34.468903,-74.04318,18.683016,-39.671303
-90.002,-90.01179,-84.04825,-29.18534,-64.254105,-42.242737,-30.923569
-90.004906,-90.005875,-91.61465,-23.529013,-63.757507,-88.46962,10.747583
-90.001595,-90.0122,-92.10135,-25.000185,-67.050125,-40.853172,65.732864
-89.99927,-90.010826,-86.930336,-31.674873,-69.21612,-33.67448,66.13974
-89.99802,-90.013985,-86.890434,-35.97469,-77.90473,-34.20783,66.41497
-89.99714,-90.02803,-93.1226,-31.760506,-58.159515,-72.87956,-14.071361
-89.99915,-90.02661,-99.713974,-25.207039,-54.55392,-105.83701,-30.916187
-90.00092,-90.01756,-93.0305,-32.790264,-63.368023,-37.878674,-18.120901
-90.00288,-90.00989,-92.84881,-31.619837,-60.62936,-50.49413,15.751824
-90.00146,-90.0089,-90.34499,-30.730621,-58.032543,-27.825508,49.26049
-89.99981,-90.0101,-88.95205,-33.010067,-60.996105,-3.1245084,51.120914
-90.001274,-90.00843,-87.90285,-32.590725,-75.68311,8.357618,40.0811
-89.997406,-90.02054,-87.56296,-35.652596,-81.96372,-12.477432,-17.857555
-89.997826,-90.02186,-91.75426,-36.492836,-69.12459,-9.723395,-21.07704
-89.998116,-90.02219,-93.29763,-36.508224,-64.29208,-8.239531,-22.718348
-89.99855,-90.01999,-93.395935,-36.355198,-65.66164,-9.635666,-18.801727
-89.999146,-90.01457,-91.552475,-35.84456,-70.99334,-14.477807,-9.877582
-90.001045,-90.004456,-87.78896,-37.458923,-82.74224,-20.319586,5.5851383
-90.00323,-89.989876,-86.710846,-41.20873,-88.71034,-23.446184,58.572376
-90.00086,-90.00449,-90.16261,-37.22269,-79.32679,-20.396374,4.2874036
-89.99986,-90.01381,-93.00611,-36.67722,-67.48438,-14.020685,-8.49749
-89.99969,-90.01637,-93.73888,-36.82313,-64.91288,-10.484468,-14.566873
-89.9998,-90.01554,-93.65967,-36.92708,-65.483795,-11.550395,-12.465262
-90.00041,-90.010155,-92.6001,-36.951164,-69.095894,-16.536045,-3.89202
-90.00168,-90.00166,-89.3326,-37.75603,-80.4515,-21.603153,9.879196
-90.00358,-89.98842,-87.490135,-41.227226,-87.35629,-24.101925,57.10358
-90.0002,-90.00789,-90.62378,-36.354332,-76.461555,-19.539246,-0.037545055
-89.99871,-90.01933,-93.19417,-36.24585,-64.9742,-10.196595,-17.594109
-89.99808,-90.02623,-94.91879,-36.572987,-58.146683,-6.413619,-28.145712
-89.9977,-90.02843,-95.49538,-37.589424,-56.88173,-5.9290586,-31.065296
-89.997284,-90.02657,-93.04923,-37.86444,-60.78739,-6.568073,-30.287668
-90.00038,-90.00967,-91.46139,-32.357754,-56.86798,-16.627354,59.16562
-90.00053,-90.0052,-89.77996,-33.21769,-64.28773,-3.1305385,59.469795
-90.00215,-90.00991,-88.963135,-32.92335,-47.32449,-58.47755,18.29067
-89.99833,-90.01636,-96.19062,-33.996273,-55.195045,-2.3765874,-44.28719
-89.998146,-90.01446,-93.89016,-30.665625,-57.35196,23.475452,-31.728296
-90.00055,-90.0031,-90.64921,-32.007896,-53.508232,12.51519,12.044213
-90.00306,-89.98589,-94.68131,-32.339176,-38.56572,-21.53114,53.694687
-90.00286,-89.98159,-96.28077,-32.034164,-39.826454,1.4138232,65.6974
-89.99937,-89.99491,-96.23995,-32.904568,-57.61306,48.378304,75.173645
-89.998116,-89.99462,-93.84399,-32.10793,-44.148144,59.227947,-91.43468
-89.997856,-90.001396,-89.75795,-36.081562,-44.933224,22.426174,-74.45314
-90.000175,-90.003265,-92.76245,-34.60101,-43.770527,23.852898,-39.09631
-89.99878,-90.01073,-92.90319,-30.527256,-49.710835,37.22593,-23.4059
-90.0002,-90.0021,-85.71477,-26.897741,-52.090096,40.563095,5.9029183
-90.000946,-89.9892,-77.20907,-26.609726,-56.195545,59.272835,41.272614
-90.00107,-89.97931,-72.07583,-30.782255,-64.12596,77.8751,68.204445
-90.00216,-90.00659,-85.82493,-29.631264,-52.22688,22.18037,0.1720543
-89.999954,-90.00031,-90.95116,-35.303043,-40.92281,22.643503,-59.840023
-90.00321,-89.990265,-89.9034,-35.287666,-37.951042,-97.08577,-53.965626
-90.00548,-89.98333,-90.48798,-34.820484,-34.36643,-123.2957,-3.1501372
-90.00534,-89.98026,-91.176125,-32.281925,-28.358692,-95.53335,29.874025
-90.00328,-89.98234,-98.92494,-30.374813,-24.54701,-25.711575,61.9742
-90.00121,-89.99619,-90.191696,-30.57945,-31.402063,-67.21346,75.59231
-90.00315,-89.99893,-98.61675,-41.29903,-23.876848,-65.73026,23.17763
-89.99647,-90.03717,-98.40448,-36.340233,-26.508291,0.09448464,-45.4949
-89.996994,-90.034805,-101.07617,-35.27304,-26.320614,0.7261552,-43.30494
-89.99758,-90.03227,-99.414795,-35.02296,-27.462482,-0.9653282,-39.470085
-89.99812,-90.02918,-95.52489,-34.303463,-31.601683,-3.212106,-33.446682
-89.99876,-90.02084,-89.29854,-32.645332,-43.368153,-12.722841,-3.870833
-89.99943,-90.01169,-86.68658,-34.101536,-55.688156,-30.676777,43.53058
-89.99965,-90.018425,-90.21443,-33.13517,-42.23641,-11.555181,-5.1297107
-89.99927,-90.0233,-93.83986,-31.9536,-30.722471,-3.8860493,-26.521387
-89.999275,-90.02293,-94.38989,-31.292027,-28.57436,-3.262323,-26.60756
-89.999466,-90.02192,-93.59765,-31.268696,-28.878468,-3.4391277,-25.145157
-90.00015,-90.01808,-91.315575,-32.411983,-32.915775,-4.956173,-19.650936
-90.000534,-90.01112,-90.099846,-33.74217,-44.704727,-17.35164,13.499642
-90.00092,-90.00715,-90.85551,-33.692997,-49.11065,-31.017876,54.642826
-90.00099,-90.01132,-88.49274,-33.281673,-40.806255,-12.287107,1.4437532
-90.00016,-90.017914,-92.029396,-32.48061,-29.48914,-4.3355703,-19.70675
-89.999954,-90.01928,-92.871826,-31.474356,-28.230394,-3.5389018,-22.02909
-90.00002,-90.0189,-92.58504,-31.735773,-28.478018,-3.715184,-21.507784
-90.00043,-90.01581,-90.75863,-32.506557,-30.553461,-4.962461,-16.760801
-90.00068,-90.010826,-89.232735,-33.495598,-41.813747,-16.390614,11.92976
-90.00067,-90.00843,-91.14185,-32.347736,-44.85712,-29.779934,55.90572
-90.000565,-90.01353,-89.06334,-32.95906,-37.14659,-11.841955,0.009169053
-89.9993,-90.021706,-93.81659,-31.416304,-24.517664,-3.4989269,-25.074303
-89.99876,-90.024445,-96.664505,-31.382576,-21.76978,-2.5243185,-30.090294
-89.99839,-90.02589,-97.61395,-31.680805,-20.043074,-2.251414,-32.466003
-89.99789,-90.02728,-97.31376,-32.05568,-21.22754,-1.0748414,-32.264645
-89.99795,-90.0226,-90.5582,-30.56009,-29.711086,-10.54975,-7.4697447
-89.99783,-90.01795,-84.692345,-29.670471,-46.90239,-27.95937,39.678993
-89.99624,-90.031296,-95.25673,-32.937748,-19.673893,-1.5631677,-35.10152
-89.995735,-90.03562,-101.722,-32.677494,-14.001337,3.828906,-47.137558
-89.995056,-90.039406,-104.692856,-33.085556,-12.877722,6.4279275,-54.073524
-90.004166,-89.981514,-93.02259,-33.910942,-27.70618,16.327147,0.33603305
-90.00717,-89.970184,-90.78874,-35.00721,-22.900143,-91.13823,40.955784
-90.006996,-89.96566,-100.68769,-33.95598,-16.839785,17.978514,42.258545
-90.00205,-89.977585,-92.20619,-30.851152,-39.765167,67.381805,99.47622
-90.001366,-89.97964,-94.36776,-32.550007,-28.708263,84.340836,-63.37536
-90.00318,-89.98579,-88.75436,-34.58818,-24.464872,-7.868547,-79.50979
-90.00541,-89.98244,-87.51423,-30.36515,-27.198082,26.628468,-28.24353
-90.00504,-89.98753,-89.05553,-29.32866,-29.783009,40.962025,-11.244967
-90.00748,-89.977646,-90.77101,-29.57913,-23.523891,45.789566,13.5788145
-90.00901,-89.96879,-86.23983,-33.971287,-14.065455,61.218925,52.386665
-90.001495,-89.99341,-80.17666,-31.070242,-41.839394,77.66928,79.68322
-90.00722,-89.97892,-86.311485,-30.295597,-15.877142,24.48128,3.129687
-90.00461,-89.98373,-87.15467,-32.11046,-21.111683,21.368214,-48.932148
-90.00573,-89.97679,-85.7247,-33.42262,-19.367653,-96.4476,-45.307842
-90.006615,-89.97672,-85.611824,-34.694763,-24.676054,-147.97142,3.9946804
-90.00729,-89.970726,-88.87655,-35.681908,-15.487079,-123.47994,38.951225
-90.0094,-89.971146,-98.840324,-40.715874,1.5427454,-50.855675,77.00551
-90.00924,-89.981384,-93.48742,-43.203335,5.8039203,-62.954468,100.91216
-89.99548,-90.03189,-95.71476,-30.03876,0.33408955,-0.27685374,-39.118553
-89.99629,-90.02961,-100.40877,-29.712688,0.026864642,3.239551,-42.197884
-89.99702,-90.02744,-101.3982,-29.354832,-2.361868,1.8311846,-39.577385
-89.99755,-90.025566,-101.00211,-28.86582,-3.1642091,0.020214813,-36.47726
-89.997696,-90.02396,-99.24191,-29.33648,-2.1061943,-0.587042,-32.790237
-89.99751,-90.02019,-95.88706,-27.56846,-2.2910423,-4.503034,-9.643821
-89.99694,-90.015945,-87.410034,-22.363808,-10.438961,-24.220776,51.117626
-89.99779,-90.02057,-97.60044,-29.055378,-1.9660459,-3.840188,-17.537512
-89.99803,-90.022255,-98.39063,-28.21688,-4.105596,-2.5791993,-29.645563
-89.99816,-90.02168,-97.628456,-27.861917,-4.7137175,-2.4608266,-29.635065
-89.998184,-90.02139,-97.282135,-28.018358,-4.9226627,-2.511754,-28.788858
-89.99813,-90.02096,-97.31314,-28.603872,-4.2479568,-2.867889,-26.95041
-89.99855,-90.01614,-96.16355,-30.0893,-3.374271,-6.8106112,-10.049599
-89.9978,-90.01327,-89.1625,-25.411314,-9.815266,-22.522764,46.29131
-89.9985,-90.01698,-96.380394,-30.45088,-2.3285072,-4.5222692,-19.00844
-89.9983,-90.02007,-96.309906,-28.327267,-4.922869,-2.8251233,-26.30211
-89.998215,-90.01976,-96.85625,-28.461466,-4.149457,-3.0313098,-26.811697
-89.99827,-90.01975,-96.47897,-28.367846,-4.473174,-2.9774406,-26.616638
-89.99828,-90.01971,-96.32373,-28.566668,-4.4051185,-3.0132296,-25.447649
-89.99871,-90.015144,-95.98168,-30.487913,-3.0576208,-5.790516,-13.14234
-89.99788,-90.0119,-90.18017,-26.394209,-9.189096,-21.877384,44.641243
-89.99831,-90.01793,-96.58156,-30.155758,-0.79946965,-4.149586,-20.75248
-89.998024,-90.02134,-97.50065,-27.799017,-2.074991,-2.6031263,-28.716555
-89.99793,-90.02147,-98.48053,-27.4818,-0.30178162,-2.724595,-30.565577
-89.99788,-90.02217,-98.723785,-27.164972,0.20758635,-2.532237,-31.572393
-89.99779,-90.02263,-98.91249,-28.365284,1.6447402,-2.563253,-31.399876
-89.99716,-90.02163,-96.73159,-28.419195,5.123712,-3.7192185,-16.394928
-89.9962,-90.019264,-89.52395,-26.720963,-1.0786631,-24.282145,53.969692
-89.99618,-90.02713,-96.27511,-29.128174,10.326612,-1.7195103,-32.437935
-89.99555,-90.031815,-99.579056,-30.974033,14.09793,3.3600428,-47.7378
-89.99443,-90.03747,-101.09327,-31.86923,18.60111,5.9649787,-56.32967
-90.00363,-89.98622,-82.18528,-33.08101,-4.1426334,25.65981,-6.149236
-90.00672,-89.98048,-83.038155,-42.171597,-7.607836,-91.32327,42.091835
-90.007484,-89.96928,-95.58291,-34.9351,4.3999414,48.41141,64.162865
-90.0089,-89.95934,-94.03995,-33.118065,-3.1085262,73.046326,103.10234
-90.00187,-89.9781,-92.63918,-32.615227,-3.912508,78.37236,-60.777027
-90.00163,-89.98297,-85.439384,-33.619396,-3.9312313,41.49063,-71.03702
-90.004524,-89.979515,-85.12713,-31.561226,-4.692013,34.428265,-25.212067
-90.00647,-89.97581,-86.73288,-31.754023,-6.6935005,41.456615,-3.2793717
-90.0079,-89.966385,-87.12131,-30.9484,-2.4100592,50.11677,21.09066
-90.00314,-89.98169,-82.519165,-26.9119,-3.816529,76.89596,67.183235
-89.99835,-89.9965,-89.85152,-33.20341,-5.224907,100.87516,93.32244
-90.004524,-89.98035,-84.24939,-28.593098,7.748214,48.16173,37.74427
-90.00352,-89.98317,-83.74012,-32.230724,1.5510048,19.090841,-38.058086
-90.00533,-89.97139,-87.86592,-33.249256,8.494245,-49.771427,-45.273163
-90.0072,-89.9779,-86.27305,-36.831398,-1.6398689,-127.36174,3.4906363
-90.00739,-89.986885,-82.67388,-45.52503,-3.9398093,-108.967354,37.351555
-90.00895,-89.97719,-88.39697,-47.215687,20.079607,-34.13348,78.87984
-89.9916,-90.03738,-89.2458,-40.558235,15.631386,-23.924128,41.45853
-89.99406,-90.033966,-93.47546,-33.817616,29.62654,-0.43523607,-35.635788
-89.995705,-90.02836,-97.14212,-32.02198,27.62546,-1.3612115,-42.73744
-89.99699,-90.01918,-98.30242,-29.072433,26.39748,-4.7616324,-31.63645
-89.99682,-90.01701,-98.32574,-27.342352,25.19917,-5.6636147,-27.345009
-89.99679,-90.016525,-96.91494,-27.43795,22.185108,-6.441729,-24.158314
-89.996956,-90.01703,-94.64985,-27.805662,20.28086,-5.8190684,-21.213312
-89.996735,-90.01211,-94.8755,-26.68948,10.212041,-13.623812,21.245031
-89.996925,-90.01409,-96.36107,-27.975931,18.37205,-7.7029185,-18.793259
-89.99697,-90.012245,-95.28316,-27.586555,21.779549,-5.8981853,-22.38753
-89.99707,-90.01163,-94.78271,-27.754679,24.04513,-4.7558546,-24.32092
-89.99716,-90.011566,-94.35919,-28.038294,23.83583,-4.589515,-24.152643
-89.997185,-90.011765,-93.86406,-28.514723,21.413994,-5.5103874,-21.828081
-89.99714,-90.01223,-95.90708,-28.844263,15.359623,-7.652957,-16.560179
-89.99755,-90.00922,-94.96497,-31.224817,11.393749,-8.9580555,-7.20996
-89.99727,-90.01221,-94.65488,-29.167284,17.10987,-6.4186516,-19.0403
-89.99738,-90.01135,-93.25683,-28.627691,24.212608,-4.210864,-23.894821
-89.99732,-90.01146,-94.279976,-28.51733,26.636574,-3.2143676,-25.726656
-89.99735,-90.01141,-93.99706,-28.557215,26.333529,-3.3583388,-25.382034
-89.997406,-90.011345,-92.877,-28.809969,23.599607,-4.535271,-23.004522
-89.997314,-90.01211,-94.46074,-29.39886,16.708239,-6.5242476,-18.233944
-89.99744,-90.0092,-94.247734,-30.855368,11.605696,-8.950185,-8.323628
-89.997116,-90.01202,-94.83359,-28.550907,18.68598,-6.7454033,-18.716322
-89.99702,-90.01149,-94.17906,-27.161758,25.555096,-5.134077,-23.035597
-89.99686,-90.01145,-95.11323,-26.257544,28.401398,-4.953222,-23.988968
-89.99665,-90.011566,-95.27769,-26.22931,28.83972,-5.9473987,-22.57558
-89.99634,-90.01311,-96.53572,-27.068233,26.77821,-8.751436,-17.555174
-89.996445,-90.01302,-93.60138,-29.095718,26.911919,-7.5863523,-12.419486
-89.99611,-90.01747,-91.92115,-29.998077,21.676012,-9.170692,20.240965
-89.99561,-90.02136,-95.31865,-33.331783,36.391968,-4.387998,-18.953558
-89.99473,-90.02753,-95.61064,-33.486794,41.289467,-1.4130812,-36.31767
-90.0028,-89.99063,-85.10904,-30.303852,30.931015,39.711075,-32.955112
-90.00088,-89.997116,-81.06924,-32.930565,25.660496,43.932877,-20.371729
-90.004234,-89.99664,-71.30524,-47.55963,3.5873675,-62.213383,42.956085
-90.00747,-89.972916,-86.06783,-38.447884,22.59834,23.52318,74.078964
-90.00775,-89.96748,-91.62598,-33.40999,18.698427,59.629875,81.24099
-90.00233,-89.97893,-88.86984,-30.57469,17.513144,93.19062,-73.62913
-90.00219,-89.97855,-80.63494,-32.082043,18.83914,46.3881,-54.85203
-90.00371,-89.97823,-80.84523,-32.535656,22.577814,39.616104,-18.916399
-90.00586,-89.96604,-86.023705,-36.16222,27.85091,51.171345,1.9564177
-90.006676,-89.954796,-84.514175,-36.385273,34.54789,62.57957,19.885447
-90.00204,-89.977516,-85.047806,-28.99355,22.678204,90.72631,70.81129
-90.00084,-89.976524,-91.43354,-36.18404,25.089296,95.27746,104.32586
-90.00464,-89.96571,-83.29245,-29.89852,36.86591,66.075554,38.13934
-90.00369,-89.97597,-82.56257,-32.08422,30.255062,32.067814,-18.864056
-90.00796,-89.966125,-80.36136,-44.70655,21.620733,-48.542,-27.84157
-90.008965,-89.97687,-73.637436,-46.627045,-7.7646947,-130.19443,4.041778
-90.0058,-90.00101,-73.91191,-45.771137,6.988504,-88.92291,45.08075
-90.00781,-89.99023,-73.560356,-49.015873,24.41409,-82.53656,73.77016
-90.00992,-89.979294,-84.59373,-43.696907,41.079933,-54.45489,104.14791
-89.99914,-90.00577,-88.24707,-36.85564,33.125988,18.103762,-35.56077
-90.001785,-89.989456,-82.02731,-28.265224,48.078243,9.260297,-46.08592
-90.00194,-89.98632,-82.26538,-26.336046,51.86852,-7.1784616,-37.868645
-89.99449,-90.00576,-99.025375,-27.115957,51.624542,-12.1999855,0.0949683
-89.99474,-90.00531,-96.90375,-26.482292,49.111115,-12.352774,0.13618381
-89.99463,-90.000084,-93.181854,-27.333248,46.19354,-14.760971,14.043252
-89.99464,-89.99307,-89.34021,-29.044962,41.773895,-15.6488905,31.594168
-89.995865,-90.00836,-95.718285,-26.73524,47.976337,-8.490057,-10.19609
-89.996086,-90.01081,-98.12031,-25.77939,53.87641,-2.829357,-20.466066
-89.99594,-90.01109,-98.165,-25.437603,55.69911,-1.8450471,-21.558695
-89.996056,-90.01116,-97.13662,-25.603527,55.96153,-1.7714771,-20.909977
-89.99624,-90.01064,-96.63802,-25.679405,51.909546,-1.8921295,-22.32375
-89.99679,-90.00998,-94.97059,-27.16959,47.664627,-3.323124,-20.533842
-89.99641,-90.005264,-89.177925,-27.641443,40.125523,-9.506271,-3.8874693
-89.99663,-90.01009,-95.001,-26.335846,48.654457,-2.4306793,-22.098349
-89.99636,-90.01108,-93.23118,-26.109522,58.15366,-1.8038114,-18.275965
-89.996254,-90.01146,-91.786316,-27.28844,64.04611,-2.049979,-14.5564575
-89.996284,-90.01137,-91.77006,-27.222141,63.48572,-2.0970225,-14.821001
-89.996445,-90.010826,-92.96161,-26.289602,57.04545,-1.9703873,-18.624863
-89.99672,-90.00988,-94.40784,-26.589333,48.28852,-2.5535486,-22.119972
-89.99692,-90.00766,-90.184265,-28.181425,42.530277,-6.900056,-11.399615
-89.99647,-90.01006,-95.118286,-26.416132,51.404236,-2.837239,-20.36286
-89.995895,-90.011154,-97.09727,-25.50847,58.873535,-2.4367266,-18.535042
-89.99567,-90.01136,-99.11155,-25.511557,61.271923,-2.7504752,-17.845888
-89.99557,-90.01069,-100.16798,-25.881954,60.872093,-4.3729057,-16.306074
-89.995056,-90.0088,-98.64494,-25.83106,57.41008,-9.494575,-7.256313
-89.99392,-89.99507,-95.46149,-28.078356,53.994003,-16.264994,28.924929
-89.99366,-89.98954,-89.21129,-30.73228,52.33635,-13.958866,45.9759
-90.00045,-89.99465,-85.01697,-29.02315,51.435963,13.656348,-62.098236
-89.996086,-90.00989,-90.008484,-32.553493,59.42212,32.017506,-34.53139
-89.99467,-90.01329,-87.89432,-34.069153,65.22326,36.21618,-31.176329
-89.996185,-90.0106,-85.729515,-34.97683,63.536343,34.38458,-17.671606
-90.00112,-90.00739,-89.347466,-38.951744,62.939503,4.737291,43.768417
-90.009056,-89.98555,-81.03094,-41.202442,49.867287,-5.525557,67.87485
-90.006905,-89.969315,-85.666756,-28.09079,37.60753,78.97971,84.61469
-90.00612,-89.97505,-79.598694,-44.86664,41.160965,55.813755,-67.300644
-90.005646,-89.970184,-83.98445,-44.258778,55.42416,45.169537,-35.9883
-90.00626,-89.95679,-87.14523,-43.110474,64.87836,42.355537,-15.800485
-90.00835,-89.939064,-94.53741,-42.2826,74.99688,49.66152,-11.135672
-90.00805,-89.92891,-84.96569,-42.604828,79.96907,76.0365,32.108818
-90.00379,-89.95764,-89.477516,-33.043617,66.16861,88.83012,79.78834
-90.000725,-89.963264,-92.75827,-34.32686,46.22111,98.6832,101.030525
-90.006645,-89.93841,-81.92649,-38.458973,80.15807,67.33557,28.615744
-90.00677,-89.957565,-88.15965,-43.348724,56.91052,17.416182,-26.209038
-90.007034,-89.98119,-96.28911,-47.156693,79.54756,-28.411987,-32.607548
-90.00181,-90.01507,-89.45864,-41.82985,76.72715,-59.709732,16.39134
-90.001175,-90.02534,-87.43341,-39.13208,85.90035,-77.98865,55.453854
-90.000885,-90.02228,-82.7425,-34.353012,79.92414,-55.906773,73.93393
-90.0045,-90.00304,-83.963196,-35.78517,75.30437,-26.541607,102.681725
-89.99313,-90.03135,-81.766464,-30.036642,77.47749,-7.163824,-30.489756
-89.99327,-90.03328,-90.496475,-29.958221,91.63896,-32.57244,-20.754519
-89.99391,-90.03139,-95.576546,-31.403538,96.34373,-34.22937,-15.317872
-89.99392,-90.02797,-97.60418,-30.727438,96.3542,-33.32373,-2.179009
-89.994835,-90.01613,-94.30145,-27.047106,92.169106,-24.224255,8.409054
-89.99429,-90.01417,-87.90304,-25.10973,83.92099,-15.183506,-0.9940459
-89.99298,-89.992935,-99.62569,-28.296518,68.59384,-17.783518,40.570686
-89.992584,-90.015915,-87.23821,-22.636387,88.75134,-14.599441,-24.39517
-89.99376,-90.02177,-94.88221,-26.916422,93.76014,-18.30805,5.315103
-89.99267,-90.03351,-96.573654,-25.69313,94.417816,-14.799918,-6.0784893
-89.99253,-90.03317,-95.90584,-25.624222,93.64491,-14.719155,-5.1163297
-89.99338,-90.022095,-91.909134,-28.741589,90.31376,-9.149238,-1.0456723
-89.991936,-90.01993,-98.5588,-25.630194,87.725136,-1.1231214,4.2717233
-89.99348,-90.01617,-92.664276,-26.707167,82.57365,-4.3009987,4.000962
-89.99139,-90.02253,-98.51113,-26.138973,91.160385,2.1620913,2.7467382
-89.99278,-90.03566,-93.611664,-24.55401,94.96555,-5.8273697,-12.088434
-89.99501,-90.04071,-87.09514,-24.795736,88.51472,11.188381,-22.4893
-89.995026,-90.04066,-86.521034,-24.800686,88.66097,11.590379,-22.591505
-89.992,-90.0304,-96.571335,-28.60043,91.775475,-11.211949,-1.7863177
-89.99118,-90.02648,-93.08487,-26.446083,97.24436,6.162036,1.3450129
-89.99285,-90.018555,-91.63375,-27.118683,86.597046,-1.4062722,3.4024858
-89.993126,-90.01463,-85.64577,-26.901714,87.45538,-10.665349,-33.83717
-89.9943,-90.03613,-95.11485,-28.41019,95.59882,-11.331513,-12.542789
-89.99383,-90.03414,-101.223076,-34.174118,91.27149,19.691288,-25.546375
-89.99459,-90.03046,-102.24363,-36.04135,93.18663,12.098919,-26.90411
-89.99551,-90.02835,-100.08824,-34.142895,97.145836,-22.165846,-13.135141
-89.99488,-90.01792,-95.44442,-28.603765,92.80612,-30.526445,5.739432
-89.99536,-90.0132,-86.41629,-26.767775,76.70311,-16.473347,4.6106105
-89.99504,-90.03061,-89.094955,-31.69121,94.348,-2.4494245,-41.7697
-89.996704,-90.02758,-96.516785,-33.51817,94.55517,44.993587,-34.22902
-89.99804,-90.02808,-99.864395,-32.506912,89.809425,62.48424,-6.747692
-89.9976,-90.03462,-99.14002,-31.311253,89.352036,77.84137,13.703889
-89.99699,-90.04311,-97.64204,-30.642475,89.762276,83.38489,31.715038
-89.99751,-90.0452,-92.5588,-28.795557,89.948814,83.13877,60.944107
-90.00331,-90.02767,-82.009766,-22.197664,78.53908,61.59758,96.68463
-90.00143,-90.002235,-84.57231,-37.764507,95.1894,88.366875,-93.68864
-90.00212,-89.9696,-92.15966,-32.994385,88.466866,76.67084,-56.724285
-89.99942,-89.94084,-88.59629,-30.613035,80.77226,86.73672,-36.06092
-89.99824,-89.93311,-90.01199,-27.454872,96.328026,85.34485,19.375145
-90.00045,-89.934975,-95.41863,-31.236643,94.8715,80.81803,49.738766
-90.0006,-89.93738,-99.819565,-32.07577,92.297455,87.354095,65.83244
-90.00013,-89.94728,-95.51117,-30.766813,84.2098,93.29063,80.09744
-90.000404,-89.978714,-68.16929,-36.000595,-27.974146,-15.23361,-25.749495
-89.99863,-90.01778,-62.833134,-38.484028,-90.06527,-62.67766,-45.63936
-90.00696,-89.98565,-61.78414,-34.133266,-96.41072,-104.53861,-11.941945
-90.007225,-89.974915,-88.8746,-13.10196,-99.65075,-113.352585,12.622007
-90.00382,-89.98493,-87.802826,-13.220829,-87.12317,-104.20988,38.52224
-89.99795,-90.00771,-86.738045,-10.105094,-92.318954,-81.37464,71.271835
-89.993805,-90.02199,-85.49083,1.3482507,-86.63972,-126.101036,85.940155
-89.99853,-90.011345,-88.7219,-4.546489,-99.34221,-59.531536,-83.526535
-90.00444,-90.01203,-95.193375,-2.6502671,-92.72069,-57.487225,-54.35083
-90.00241,-90.02007,-93.70854,-0.3583023,-86.89536,-59.69241,-36.49977
-90.00336,-90.01885,-90.42216,-3.4792645,-96.016014,-60.86261,-14.692621
-90.00323,-90.009926,-92.63522,-7.311216,-105.92459,-59.586315,38.51945
-90.0039,-90.00104,-86.32431,0.65520436,-89.46491,-72.70051,57.355503
-90.001625,-90.018715,-87.10803,6.249133,-95.45363,-59.452972,100.29629
-90.00402,-89.997246,-80.50417,-2.8324893,-86.29628,-61.552883,-23.230082
-90.0006,-90.005516,-86.23557,6.6625166,-74.12643,-28.407696,-61.192314
-90.000336,-90.01348,-81.35708,21.90275,-73.23137,-11.178151,-38.72319
-90.00042,-90.01241,-78.574486,26.51201,-72.47996,-7.2206645,-23.027843
-90.00064,-90.00633,-75.54622,27.155106,-73.311356,-14.5580015,-1.0137058
-89.999794,-90.01359,-82.301865,35.913845,-76.28255,-31.144579,78.299995
-89.99996,-90.00995,-82.36281,26.386972,-77.87208,-23.536837,60.048664
-89.99995,-90.01385,-84.2025,38.28672,-74.197266,-20.87231,71.6015
-90.00031,-90.01199,-85.545845,41.362263,-75.13483,-7.091884,0.87645274
-90.00015,-90.01233,-87.2562,42.61379,-77.73404,-4.220351,-8.053322
-89.99973,-90.01195,-89.26594,42.63368,-79.86812,-3.1263838,-4.195155
-89.99862,-90.011604,-92.426445,40.470493,-81.25969,-7.3759875,26.275797
-90.00016,-90.0111,-88.96468,36.94547,-89.26398,-15.32577,78.037575
-89.98473,-90.039375,-120.99937,33.46871,-113.62337,0.048617665,114.57056
-89.99872,-90.01183,-82.6901,35.98568,-80.954414,21.403255,-71.07635
-89.999695,-90.009254,-89.833694,40.260372,-87.36262,23.98727,-72.173
-89.999084,-90.01524,-91.14999,43.264458,-86.70585,28.599949,-55.798363
-89.99969,-90.008354,-87.29672,41.622227,-85.06735,35.599537,14.637164
-90.001175,-90.01153,-77.70097,40.420837,-77.96793,35.96041,38.096897
-90.00079,-90.02696,-87.527725,40.761204,-91.54918,31.941658,65.571144
-89.99826,-90.02303,-90.60343,34.194256,-93.62538,17.767122,68.690605
-90.00119,-90.02972,-87.31504,39.354206,-84.11239,75.88246,-50.65118
-90.00022,-90.011345,-71.48585,37.93879,-66.98755,64.625275,-51.569153
-90.00142,-90.005646,-71.911194,36.516186,-67.7699,50.844055,-13.810286
-90.00231,-90.00406,-68.406296,35.9708,-64.17473,51.819088,16.406277
-90.00185,-90.00774,-66.19534,37.2048,-62.90449,56.86336,18.317259
-90.00337,-89.9973,-42.87624,30.56722,-44.181614,45.019936,67.10931
-89.99943,-90.01488,-55.163372,38.25832,-50.54069,63.2519,96.82607
-89.996796,-90.027565,-72.17718,40.760967,-71.67557,99.98183,-103.15899
-89.99995,-90.01521,-65.96757,40.028214,-59.99263,91.30982,-82.936775
-90.00084,-90.00926,-55.819225,38.779945,-44.086628,53.05041,-40.67318
-90.00145,-90.007774,-51.012634,38.930855,-38.868866,48.930264,-15.40399
-90.00165,-90.00202,-58.68306,40.393368,-44.324833,34.556637,-11.846205
-90.00006,-90.00289,-22.336687,36.22331,-16.900236,89.01077,41.091248
-90.00119,-89.996,-30.994122,37.624817,-23.180166,79.91651,77.28559
-90.001755,-90.00426,-76.00599,42.163532,-54.257717,-52.130775,-54.0045
-89.998985,-90.01458,-87.22705,42.697155,-62.28412,-15.866368,-47.97576
-90.00575,-89.99573,-93.43186,41.595474,-59.88441,-92.99775,-49.100666
-90.00512,-89.9918,-87.55159,38.590973,-57.289448,-97.21883,-9.600234
-90.00528,-89.99457,-84.09298,38.469704,-59.081963,-85.723015,20.729916
-89.99928,-90.018906,-80.00808,41.169693,-66.8548,5.007792,71.04848
-89.99636,-90.02112,-86.44599,45.850086,-61.39711,-88.71694,101.85705
-89.99829,-90.02279,-81.92084,41.442406,-57.287376,-61.080315,-41.410152
-90.00681,-90.01232,-84.13207,42.27602,-54.830444,-62.491776,-51.5043
-90.00417,-90.02155,-88.555824,45.29888,-54.419113,-72.8333,-33.17039
-90.00297,-90.02099,-86.794914,46.064037,-55.093002,-75.6802,-1.2764661
-90.002716,-90.018456,-82.77293,43.685528,-58.85959,-65.23001,29.968634
-90.00312,-90.01376,-83.393776,43.838295,-65.540474,-56.801258,75.31709
-90.00165,-90.01749,-86.74584,43.604332,-69.83538,-59.246567,97.961334
-90.00022,-90.01084,-83.67676,41.940254,-67.20681,-39.764416,-75.80849
-90.000336,-90.02241,-83.88953,44.412464,-68.65657,-15.690468,-58.227547
-90.0005,-90.02,-85.315056,45.729794,-67.58551,-24.137434,-27.079782
-90.00059,-90.016556,-83.45048,44.94114,-68.129364,-19.651411,-16.522223
-90.00112,-90.012,-80.65139,43.61381,-70.05235,-12.673683,-14.2832985
-90.00076,-90.01034,-81.27479,39.416367,-70.88396,-13.843756,-2.5328908
-90.000565,-90.012856,-84.90456,37.80596,-80.109665,-22.134869,85.149704
-90.00097,-90.01209,-80.05139,41.15686,-70.25592,-5.8191257,-1.8580555
-90.00187,-90.013,-77.909645,44.03922,-69.902695,0.08323704,-10.942446
-90.00232,-90.01308,-76.5018,44.93928,-68.85882,1.6530769,-13.410932
-90.002205,-90.01324,-76.36795,44.525146,-68.80344,3.7052343,-11.595503
-90.0013,-90.01406,-77.72642,43.061317,-69.79138,5.1269956,-6.148187
-90.00048,-90.013855,-79.004326,41.270317,-68.690384,0.66965306,19.150051
-90.00093,-90.01104,-79.84188,37.781776,-76.212326,-10.3545885,81.35904
-90.0007,-90.01087,-77.42472,38.87707,-69.83092,-11.228537,-11.727985
-90.00094,-90.01686,-81.015785,43.29532,-69.38696,-16.754593,-30.456919
-90.000854,-90.02246,-78.53799,45.076992,-69.309784,8.424938,-43.04519
-90.00028,-90.02444,-75.34777,44.660732,-70.30258,25.465916,-0.5050065
-90.00034,-90.01819,-75.92031,43.99794,-62.503345,12.139951,37.419342
-90.00187,-90.02856,-76.631035,42.533176,-66.32446,26.19507,73.63154
-90.00173,-90.02589,-77.28482,40.5896,-70.72661,37.98731,93.41491
-90.00121,-90.032074,-74.56049,39.5043,-62.285812,62.359215,-96.14304
-90.00255,-90.02064,-75.26077,40.968605,-65.57058,60.085022,-58.796898
-90.002495,-90.01859,-71.10959,41.446205,-63.820934,60.01065,-29.271954
-90.00268,-90.01329,-71.78108,40.9357,-64.841324,56.654972,14.330476
-90.00129,-90.00756,-75.27988,38.493896,-59.58949,-3.6818342,36.504723
-90.001915,-90.0176,-73.07895,42.10642,-65.31838,69.15342,68.897736
-90.002144,-90.02906,-77.71655,45.111137,-72.79506,62.475586,103.15005
-90.00031,-90.03043,-74.89231,45.954296,-68.77957,97.351494,-103.35941
-89.99955,-90.024414,-77.75698,42.92305,-69.18852,94.84271,-85.069046
-89.998924,-90.01578,-82.62087,45.938908,-61.81464,-3.7087624,-42.157253
-90.00207,-90.00652,-78.883995,46.160618,-68.55256,72.8609,3.0400147
-90.00255,-90.00231,-74.655716,49.0785,-63.813076,78.845825,39.913353
-90.0038,-89.9886,-74.1574,50.366444,-61.92711,79.39717,74.94709
-90.00542,-89.98853,-79.94849,51.323967,-70.459206,82.11611,96.24264
-90.00296,-90.014175,-79.86414,53.32003,-39.745956,-125.873985,-101.35959
-89.99943,-90.01908,-78.18011,48.83534,-51.623177,-65.90404,-60.22254
-90.00388,-90.008385,-76.061005,41.03447,-56.966133,19.367264,-52.303036
-90.004425,-90.000725,-72.41987,40.859493,-45.700417,-87.69869,-1.3313723
-90.003555,-90.00473,-73.39535,40.11291,-49.32817,-82.874664,33.357162
-89.99812,-90.02005,-68.987946,41.69908,-52.326904,-41.60711,65.55489
-89.99702,-90.019875,-72.661415,45.070484,-47.645767,-90.831154,98.25853
-89.99746,-90.02769,-71.467285,44.64557,-46.602257,-57.462387,-97.619385
-90.005455,-90.01684,-74.69423,45.0358,-53.98953,-40.800777,-60.695568
-90.00365,-90.02231,-79.41799,47.297894,-51.365974,-62.794956,-32.746677
-90.00288,-90.021996,-77.727036,47.452164,-51.34934,-64.51554,-1.8615742
-90.002,-90.021904,-74.418594,44.16907,-55.710888,-63.777992,33.049297
-90.003235,-90.01629,-69.598404,46.13296,-53.903755,-72.72981,73.79589
-90.00134,-90.01779,-70.325966,44.518158,-56.485783,-64.84553,98.24756
-90.00001,-90.01253,-71.94032,27.398977,-65.42462,-28.721622,-77.102715
-90.00156,-90.01589,-62.826252,44.119125,-56.06626,-13.679522,-49.6264
-90.00169,-90.01444,-63.568027,46.515484,-53.90323,-20.623713,-23.792942
-90.00172,-90.01349,-62.271965,45.95108,-54.646046,-15.599586,-14.224334
-90.00189,-90.01266,-60.860004,44.115654,-57.56653,-9.450362,-11.261198
-90.0013,-90.008545,-56.606537,40.127895,-58.593666,-14.10221,27.707817
-90.00038,-90.01389,-58.085106,38.64806,-60.474888,-21.23553,91.86881
-90.00114,-90.011536,-57.567375,42.59747,-55.63605,-0.30945757,24.853046
-90.00183,-90.013084,-59.821964,45.159664,-56.346973,-3.125672,-11.264688
-90.001816,-90.013466,-60.056995,45.994106,-55.814327,-2.6883109,-15.243368
-90.00183,-90.01332,-59.696377,45.771027,-55.7024,-2.2990031,-13.810893
-90.00151,-90.01357,-58.54632,44.153248,-55.0703,2.5120068,-5.140679
-90.001305,-90.010895,-56.849773,43.831047,-50.61775,2.7363262,65.22526
-90.00079,-90.00891,-53.84144,39.00793,-55.45706,-5.341829,93.71878
-90.00067,-90.01061,-57.72535,39.55069,-58.636562,-1.559517,-20.125275
-90.00175,-90.013626,-60.28868,44.136345,-54.293133,-15.020482,-25.367487
-90.00119,-90.017204,-61.02191,44.815773,-55.09401,-0.14358209,-33.90884
-90.00066,-90.0215,-58.0858,43.616535,-58.457928,27.949156,-1.9455216
-90.000084,-90.02155,-62.286926,42.433388,-55.5166,26.216362,33.775917
-90.00208,-90.02853,-61.70978,43.341328,-51.234634,17.150875,66.56892
-90.00218,-90.023506,-60.925743,42.493988,-56.32045,29.064657,100.729706
-90.00209,-90.02872,-60.920063,40.970913,-52.04625,54.11268,-97.04572
-90.00239,-90.01685,-60.489994,41.863594,-52.006344,61.81632,-63.06523
-90.002075,-90.01532,-59.46508,43.27314,-53.29285,58.68703,-28.431852
-90.00251,-90.01384,-58.505833,43.05606,-52.614143,58.03441,3.6334188
-90.00135,-90.01024,-61.9124,39.327656,-45.876663,-9.808537,29.522617
-90.002396,-90.0118,-60.324417,42.695663,-54.18164,64.56872,66.40928
-90.00214,-90.0136,-56.917305,46.28042,-50.24201,61.87297,90.12563
-90.00063,-90.02557,-56.372746,46.188473,-50.22798,85.496216,-90.37722
-90.00066,-90.01837,-59.528362,46.247402,-40.003746,-38.304523,-51.81651
-90.00153,-90.00581,-56.797764,45.944736,-48.468998,76.559715,-9.762628
-90.0008,-89.99781,-60.005707,47.7124,-51.014248,86.89799,16.056234
-90.00115,-89.99196,-62.469654,49.37316,-51.2385,85.607895,38.536304
-90.00178,-89.99487,-63.200104,51.677017,-51.24514,88.50889,71.25571
-90.00139,-90.004814,-60.3534,50.04589,-52.08085,83.04146,99.33005
-90.00281,-90.010666,-65.00048,53.31489,-20.87418,-93.45982,-78.4652
-90.001274,-90.01932,-58.51538,50.338,-24.320627,-99.22043,-62.244503
-90.00455,-90.0039,-55.895947,41.547775,-35.95265,5.469892,-41.201317
-90.004326,-90.003624,-54.30892,41.5141,-28.923578,-90.16368,-4.628642
-90.00321,-90.00604,-57.581234,41.27178,-37.37047,-90.836205,34.341362
-89.9982,-90.017975,-59.47073,43.613155,-38.366383,-81.80538,64.84185
-89.99826,-90.0165,-60.07068,46.180668,-38.46098,-90.62221,96.54554
-89.997826,-90.02477,-61.682266,45.628464,-39.049282,-58.75742,-96.40309
-90.00509,-90.01243,-61.425938,44.049168,-43.836605,-32.53502,-62.228195
-90.00384,-90.01424,-65.9084,47.60717,-41.26726,-62.670795,-34.607937
-90.00332,-90.0135,-64.18654,47.40036,-41.034332,-62.9993,-4.500214
-90.0028,-90.01887,-62.368774,44.892365,-45.468987,-66.87176,25.334139
-90.00399,-90.01308,-53.453625,46.656765,-40.78426,-74.92284,66.408775
-90.00105,-90.01849,-55.302456,44.22938,-41.613403,-65.12046,96.04265
-89.99995,-90.01625,-50.249012,41.56235,-45.095592,-27.55948,-85.64016
-90.00189,-90.0127,-51.965237,45.621193,-44.70196,-15.294235,-45.243748
-90.00223,-90.010124,-48.977848,46.988777,-40.277733,-21.346249,-19.546307
-90.00218,-90.00936,-47.334305,46.486935,-40.527348,-15.500779,-12.390017
-90.00231,-90.00879,-46.180843,45.118256,-42.84045,-8.247998,-10.453173
-90.00195,-90.00648,-39.751564,43.339905,-41.071457,-11.005611,21.852346
-90.00145,-90.01153,-43.50692,41.271065,-45.17333,-20.458878,92.32114
-90.00174,-90.006386,-40.145126,44.308132,-40.1641,0.39005396,5.7624173
-90.002525,-90.008545,-42.64401,46.50391,-40.401787,-0.22009678,-13.9504385
-90.00256,-90.00884,-42.71103,47.284542,-39.821335,-0.3586436,-15.811911
-90.00256,-90.00871,-42.069626,47.184227,-39.58759,0.7167842,-15.528585
-90.00258,-90.00882,-41.166637,46.3225,-39.671043,3.118363,-10.61595
-90.00246,-90.005806,-38.394432,45.580067,-34.865063,0.59109867,69.23611
-90.00169,-90.0077,-40.82143,41.94647,-40.97647,-5.440386,98.06744
-90.00111,-90.00676,-40.174393,42.316284,-42.605118,3.3539672,-39.11109
-90.002205,-90.00939,-47.63148,45.8249,-41.227142,-16.855873,-19.41439
-90.0018,-90.01208,-45.490036,45.430153,-42.928947,9.643893,-27.80307
-90.00074,-90.01598,-45.52373,45.040634,-41.03399,27.218094,-3.811419
-89.99998,-90.0217,-48.20139,43.58864,-42.17764,25.304136,31.305199
-90.002266,-90.02467,-46.122402,43.7601,-40.27967,19.056116,65.427246
-90.00243,-90.01978,-43.807095,41.81409,-41.10098,30.367592,95.02666
-90.003075,-90.0228,-46.870113,41.560463,-38.95419,61.03361,-99.59943
-90.002525,-90.01315,-47.945965,41.71865,-41.16555,60.17933,-67.366035
-90.00244,-90.01386,-48.33666,42.78415,-42.527832,61.031467,-33.844044
-90.00298,-90.010925,-47.263847,41.821365,-42.480694,60.408695,4.392934
-90.002045,-90.00993,-44.72328,41.041317,-37.602867,59.186348,31.442562
-90.00239,-90.0122,-46.708492,43.207882,-41.333527,64.96327,65.15249
-90.002,-90.01278,-43.412094,46.65799,-35.88713,57.90992,87.019005
-90.00034,-90.02114,-39.94775,45.426647,-34.357834,76.59548,-93.68042
-90.0018,-90.01841,-43.78871,46.96603,-24.074644,-53.467842,-60.29333
-90.001305,-90.00138,-45.681522,45.22447,-37.21306,77.62933,-12.278727
-90.00121,-89.99101,-48.264156,47.18757,-39.821724,85.372215,14.195579
-90.001205,-89.99153,-48.107353,47.390896,-37.309456,80.08052,36.46011
-90.00124,-90.000824,-46.908485,50.832607,-36.534374,87.69421,68.04738
-90.001045,-90.00725,-48.79208,52.67525,-40.497223,83.097824,100.2634
-90.00291,-90.01096,-49.952236,53.02261,-8.146629,-85.56327,-86.58749
-90.001495,-90.017914,-44.034874,48.965702,-11.948771,-99.077995,-64.096436
-90.00738,-89.98807,-43.97345,43.65074,-20.675842,-76.16141,-35.921047
-90.00476,-90.002304,-42.783627,41.98813,-18.019714,-93.30916,-1.5451754
-90.00337,-90.00547,-45.739513,42.480648,-27.132713,-92.136665,34.981564
-89.9991,-90.01373,-47.061287,42.89535,-27.402447,-84.37889,60.07711
-89.99971,-90.01237,-46.076775,44.897594,-28.489405,-85.71497,90.87398
-89.999084,-90.01997,-49.614933,46.371456,-28.107832,-64.14786,-106.969864
-90.006,-90.01085,-47.93559,46.601307,-30.087332,-54.86424,-62.88641
-90.00401,-90.01259,-50.159992,47.392696,-26.565435,-61.2751,-35.494446
-90.00339,-90.011986,-47.5221,47.39924,-27.348711,-61.165432,-0.47260475
-90.00291,-90.01654,-45.734062,45.76421,-30.637442,-64.34206,29.736816
-90.00451,-90.010376,-39.14707,47.495388,-29.043987,-70.68779,63.136387
-90.00186,-90.01305,-33.266014,44.379578,-21.710482,-60.99446,90.15121
-90.00053,-90.01338,-35.629128,43.333763,-31.967943,-26.441637,-88.03114
-90.002594,-90.011055,-35.150818,46.162132,-30.527758,-11.252693,-58.48875
-90.00314,-90.005775,-34.651993,47.777237,-28.355747,-22.796806,-19.918497
-90.00294,-90.00504,-33.29108,47.36591,-27.760231,-15.743223,-9.701693
-90.00298,-90.00471,-31.318916,45.6542,-30.038776,-8.669954,-9.044719
-90.0024,-90.00424,-28.714096,42.896027,-31.35883,-11.193188,20.369474
-90.00314,-90.00474,-30.919643,41.899536,-32.814404,-14.507785,92.986855
-90.00198,-90.00391,-27.721668,43.78197,-29.923443,1.5298847,-12.669889
-90.00291,-90.00575,-30.827528,47.670155,-28.194275,1.4465116,-12.750683
-90.00308,-90.005684,-31.70309,48.67349,-28.091406,0.033800263,-14.477967
-90.003044,-90.00578,-31.413403,48.49038,-28.201117,1.2928103,-14.307685
-90.0028,-90.00616,-29.424305,47.42123,-27.51283,4.339034,-11.383033
-90.00246,-90.00427,-28.8985,44.71072,-27.95166,0.25765887,58.722
-90.00319,-90.00275,-30.586252,43.16841,-28.73321,-1.1439161,98.555336
-90.00119,-90.004845,-28.162067,42.454502,-30.814018,8.313313,-48.373024
-90.00292,-90.00695,-32.482204,46.09387,-28.874613,-14.968854,-26.09339
-90.00293,-90.00793,-31.653666,45.2539,-31.428051,11.350575,-35.83442
-90.0018,-90.012115,-31.922848,44.292713,-30.497461,25.635162,-6.132435
-90.00007,-90.02044,-35.625206,44.553368,-27.961555,22.545572,33.0828
-90.001976,-90.02301,-34.583214,43.786682,-26.799934,17.553604,61.54961
-90.00245,-90.01599,-27.45756,42.277096,-23.58466,28.837673,91.96134
-90.00353,-90.02104,-35.65005,42.41578,-28.155142,63.5059,-91.82568
-90.00286,-90.009476,-34.852192,42.738277,-27.844904,57.47788,-65.36969
-90.00278,-90.01127,-31.4888,43.433983,-26.151718,59.51895,-29.290634
-90.0032,-90.00995,-32.699894,42.216606,-28.032482,59.62765,6.569548
-90.00276,-90.00651,-29.8438,41.71695,-24.947369,54.374977,36.144695
-90.00233,-90.012024,-26.150955,44.94459,-22.264448,63.958096,67.14881
-90.00101,-90.014786,-27.757593,46.80618,-21.13517,59.194145,90.839806
-89.99906,-90.01773,-23.820503,46.404346,-20.144844,89.012886,-93.72483
-90.00231,-90.01476,-33.562992,45.237366,-20.89847,50.467617,-70.118645
-90.002235,-89.99927,-30.542133,45.744144,-22.186384,83.379906,-18.477402
-90.0019,-89.98913,-30.541756,46.766113,-22.530352,86.34977,9.2045355
-90.0014,-89.99055,-31.346334,46.221207,-20.966192,81.673775,34.43025
-90.00088,-90.003456,-32.41041,49.87775,-21.754345,87.82908,66.787674
-90.00121,-90.00229,-34.91934,51.048992,-23.898592,84.833336,101.97059
-90.00324,-90.013885,-31.50507,53.585217,8.729913,-101.73404,-96.166794
-90.00248,-90.01606,-31.745232,49.992374,-0.36289147,-103.801445,-66.22639
-90.00812,-89.98453,-38.080067,44.856762,-13.012348,-88.150085,-30.164774
-90.00551,-89.999756,-35.5173,43.13292,-11.403997,-92.82928,4.2690797
-90.004456,-90.00405,-33.92478,43.571724,-13.298125,-97.3145,34.46789
-89.999886,-90.00953,-33.09908,42.456455,-15.872334,-85.99945,62.96925
-90.00121,-90.00654,-27.523249,43.896477,-12.489788,-86.2786,88.935616
-90.00019,-90.015274,-34.70565,45.60618,-17.55822,-63.361366,-91.92045
-90.005264,-90.01069,-28.7379,45.338043,-8.647552,-55.236664,-64.96686
-90.00468,-90.00607,-30.346083,46.708237,-5.715385,-62.363384,-34.819168
-90.00422,-90.00413,-27.59173,47.024136,-4.4724355,-64.29432,-1.9490604
-90.00422,-90.00741,-26.210842,46.29712,-7.8295913,-68.083176,28.059395
-90.003555,-90.014336,-24.063894,47.614723,-4.0659037,-64.6283,62.292545
-90.00202,-90.01128,-21.660496,44.06998,-8.497348,-63.513287,90.49147
-90.00092,-90.016426,-21.019712,44.341305,-7.160571,-29.05254,-95.86081
-90.00239,-90.00728,-24.978489,47.347897,-6.630599,-33.21505,-49.663067
-90.00202,-90.00461,-27.662241,47.455322,-7.7058163,-27.966564,-15.191454
-90.00177,-90.00699,-27.308395,47.022106,-8.901503,-19.704315,-10.691709
-90.00193,-90.00599,-24.141088,46.265118,-9.038812,-13.741493,-9.282691
-90.00168,-90.0038,-17.493845,43.913307,-11.735828,-2.645813,-25.880102
-90.00279,-90.00657,-18.08139,46.121143,-9.663461,-23.135155,95.898926
-90.00191,-90.00638,-20.836681,45.890743,-9.248976,-4.3917294,-7.6197906
-90.00115,-90.01304,-26.504946,46.242058,-7.8245926,-2.2852979,-12.696355
-90.000626,-90.01734,-30.263824,47.234447,-6.293109,-1.5994618,-15.285525
-90.00063,-90.01718,-29.443703,46.98116,-6.075771,-0.9331157,-14.83518
-90.00117,-90.01287,-25.282875,46.058517,-7.5880466,-0.21673886,-12.363091
-90.00166,-90.00564,-17.814426,45.67883,-8.212496,2.5706525,-9.647272
-90.00245,-90.00454,-18.15708,46.425003,-7.67111,-11.01195,101.260574
-90.00142,-90.00661,-21.905396,45.496853,-7.1257353,-9.185805,-15.282672
-90.00094,-90.00787,-26.483326,46.99508,-3.2414565,-18.24948,-21.307322
-90.00064,-90.01055,-24.255346,46.26499,-2.8515244,26.443256,-28.240631
-89.99988,-90.01218,-21.45776,44.66458,-2.6772063,21.396286,-0.64380795
-89.999344,-90.02129,-21.997236,44.57549,-6.6776004,21.20226,30.99133
-90.0014,-90.02485,-21.45693,44.467648,-3.4659193,23.406317,56.92533
-90.00258,-90.01352,-14.489906,43.210556,-5.755118,29.218016,92.775024
-90.00199,-90.02301,-18.798695,42.110226,-8.451531,59.668644,-96.96702
-90.003944,-90.00604,-15.274241,44.38562,-8.366621,63.187115,-60.933006
-90.004196,-90.006226,-14.5413265,45.141518,-10.890851,59.4661,-25.146318
-90.00388,-90.01126,-14.803141,43.893997,-11.091145,62.084415,8.276668
-90.00343,-90.00755,-15.5307455,42.46088,-12.521422,54.772076,35.145004
-90.00234,-90.00967,-16.999092,44.449482,-13.068901,63.972248,66.32139
-90.0012,-90.01477,-16.99477,48.74608,-11.2862835,63.73898,99.779015
-89.99865,-90.01793,-13.012714,47.466415,-8.223533,94.06644,-95.91793
-90.00119,-90.00836,-16.548935,45.738686,-10.15036,80.32444,-66.90641
-90.00277,-89.99791,-13.819127,45.214935,-5.2104516,83.798454,-24.291857
-90.00272,-89.98804,-16.166765,45.44033,-7.2451663,87.70133,1.1288706
-90.00208,-89.9894,-14.424514,46.221664,-3.1373243,82.99833,36.55973
-90.00077,-90.003746,-19.109358,49.67847,-8.017669,89.40485,66.52173
-90.0015,-89.99945,-21.069675,49.96063,-9.515863,86.635345,99.30925
-90.00373,-90.01203,-21.902605,53.02793,14.2149,-102.20118,-98.35602
-90.00279,-90.01439,-20.292198,49.29419,7.85684,-104.45012,-64.78608
-90.00821,-89.98057,-11.968895,44.125946,7.0272875,-93.129036,-27.754385
-90.006096,-89.99921,-9.808208,43.838,10.144082,-94.62606,5.6582584
-90.00486,-90.00648,-9.382713,42.61485,11.14467,-101.561966,36.334625
-90.000084,-90.00768,-9.165144,42.522293,6.022914,-93.10014,63.222023
-90.001686,-90.00421,-10.122825,45.88215,1.4818511,-93.55012,94.22573
-90.001686,-90.01081,-13.709076,42.949337,1.7692658,-58.82797,-87.3737
-90.0032,-90.0093,-12.52485,43.615757,16.874643,-57.53879,-66.386696
-90.00152,-90.012985,-14.80397,43.42562,19.09721,-61.862305,-35.630577
-90.001305,-90.01119,-15.167566,44.09553,17.84866,-61.953415,-2.5250561
-90.00086,-90.00931,-14.996794,43.62593,14.09915,-61.593628,24.005463
-90.00259,-90.00523,-13.318382,45.75103,14.420321,-62.202946,54.391804
-90.00079,-90.0109,-16.295916,43.503445,12.335667,-61.000526,97.195206
-89.99839,-90.016396,-10.889983,45.602016,14.519122,-22.488548,-103.18803
-89.99808,-90.01941,-18.20343,45.777557,19.184189,-37.186104,-47.130863
-90.00004,-90.01233,-17.295181,47.352894,14.652968,-35.22767,-17.283506
-89.99965,-90.01679,-18.385328,47.485428,14.787672,-31.351486,-7.952735
-89.99916,-90.01062,-16.606695,47.417377,14.11774,-35.041462,35.897728
-89.998985,-90.0021,-9.844136,44.75057,15.840003,-9.136925,-22.059784
-90.00037,-90.01213,-15.708162,48.2144,11.57052,-21.160398,100.339775
-89.99837,-90.000336,-9.951391,46.300045,18.691668,12.454687,-92.41012
-89.99881,-90.01838,-14.881436,47.71774,13.91796,4.894484,-71.2645
-89.99857,-90.015366,-14.564891,47.54732,14.561188,-0.25207165,-17.274563
-89.998634,-90.01534,-14.653181,47.389526,14.550338,-0.38119107,-17.098854
-89.99785,-90.01867,-17.711805,49.57665,13.483302,-7.684192,32.15314
-89.999855,-90.00352,-10.002256,45.44375,16.386225,2.090882,42.844234
-90.00003,-90.01049,-14.486803,48.60459,11.42189,-6.3335977,103.11113
-89.99789,-90.00749,-12.665242,48.82071,16.10798,33.991493,-106.42378
-89.99965,-90.00992,-11.619993,46.21374,11.912128,23.30455,-64.82698
-90.0011,-90.00484,-10.875456,47.758347,12.14663,26.014994,-29.972294
-90.00142,-90.004715,-10.823541,47.202423,13.454528,32.921333,-10.949151
-90.00108,-90.01189,-11.2318945,46.24939,12.932591,28.80384,26.062862
-90.00123,-90.02007,-11.9301815,44.99362,12.816533,11.520839,64.01329
-90.003586,-90.003815,-12.928092,43.396137,8.600468,24.11308,97.12023
-89.99967,-90.03187,-12.267473,41.428204,17.671007,61.283566,-102.394005
-90.00218,-90.009285,-14.325107,41.95504,15.607946,56.47132,-64.76888
-90.00177,-90.01056,-13.401509,43.68387,13.142316,56.510735,-29.945446
-90.001945,-90.0162,-10.473873,43.30624,13.585508,59.132195,6.110076
-90.00297,-90.01638,-10.054181,42.267956,12.08795,57.03321,32.66096
-90.00279,-90.01177,-1.1262801,40.641605,1.9530171,64.26773,65.12826
-90.00149,-90.01753,-1.8729327,45.686546,5.31485,62.654613,96.33322
-89.99863,-90.01899,0.2585971,44.42862,9.264272,91.73952,-93.8356
-90.00119,-90.01058,-1.0976489,43.942226,7.197892,83.656715,-62.21049
-90.004,-90.00236,-2.1308615,44.53695,7.0662584,79.55819,-25.958796
-90.004326,-89.98988,3.793575,46.260273,12.480017,87.624565,1.6315504
-90.00304,-89.99698,1.444516,46.48083,13.556136,87.22963,37.20061
-90.001816,-90.00222,-2.879411,48.961514,10.294001,87.37428,68.13267
-90.00238,-89.999374,-5.173987,49.83656,8.882791,85.72214,99.32544
-90.00387,-90.011536,-16.153599,53.13315,17.482014,-101.01859,-97.98914
-90.00266,-90.015526,-28.55236,49.98644,1.8269969,-103.07673,-63.861004
-90.00814,-89.98452,-37.468536,44.935806,-12.316677,-88.5808,-29.691662
-90.00521,-90.00049,-38.9401,42.356632,-14.137644,-93.90811,0.637255
-90.00348,-90.005104,-44.19355,42.577152,-25.817806,-92.716644,35.57536
-89.998856,-90.014946,-51.133793,43.248947,-30.922405,-84.927986,60.71738
-89.998795,-90.01579,-56.90356,46.294052,-36.686626,-88.20325,98.346214
-89.99784,-90.0247,-61.518036,45.662457,-38.874344,-58.87847,-96.97116
-90.00498,-90.01272,-65.68281,44.039024,-47.90751,-29.83502,-60.644188
-90.00383,-90.01815,-76.41522,47.486748,-49.669968,-62.578205,-37.113655
-90.002945,-90.01949,-75.86244,47.5308,-50.009686,-63.393085,-6.195645
-90.00199,-90.02187,-74.54374,44.14976,-55.923317,-63.197227,33.234547
-90.003235,-90.015785,-72.23701,46.181965,-56.638016,-72.32096,73.41078
-90.00128,-90.019135,-79.932236,45.46028,-65.79249,-66.38971,99.17111
-90.00033,-90.01648,-78.924934,36.116528,-70.741135,-23.687088,-84.201065
-90.0012,-90.01925,-78.03211,44.268154,-67.509056,-11.163018,-55.73186
-90.00103,-90.01835,-80.35179,45.67161,-66.102455,-21.850603,-26.026443
-90.00074,-90.01639,-82.03357,44.902187,-67.78716,-18.939655,-16.780573
-90.00101,-90.0119,-82.630714,43.84818,-71.39948,-14.111835,-14.435429
-90.000435,-90.010315,-86.07192,40.035908,-74.204765,-19.251825,4.352004
-90.000656,-90.01484,-91.21925,35.945724,-86.99542,-25.775686,76.32722
-89.99949,-90.01075,-90.11597,40.98236,-79.52344,-9.524523,8.305629
-90.0001,-90.01193,-90.55658,44.683994,-80.707016,-7.8550043,-14.384672
-90.00031,-90.01193,-90.64184,45.77392,-80.95339,-6.558646,-16.929893
-89.99972,-90.01167,-92.90079,45.15583,-83.41171,-4.5819144,-14.8720455
-89.99857,-90.009514,-95.06264,42.11203,-86.39288,-1.2062814,2.2420042
-89.99891,-90.002014,-84.97958,35.792595,-88.48391,-7.102515,69.02709
-89.98465,-90.04279,-116.33814,34.707962,-111.373566,-3.4371114,106.068214
