MatasFilip/panda_machine_learning/predicted_joint_angles_30.csv
q1,q2,q3,q4,q5,q6,q7
-89.99856,-90.03387,-81.7723,-90.65393,-89.38954,-79.41203,-60.700047
-89.99979,-90.02805,-87.15624,-91.223,-103.32416,-74.49526,-27.493025
-90.00124,-90.01598,-89.19784,-88.87134,-108.703316,-75.11332,4.893868
-90.00288,-90.00245,-90.756454,-90.32364,-110.30258,-76.75627,37.660145
-90.003815,-89.99198,-95.18461,-90.67119,-109.56591,-72.42212,62.94715
-90.003,-89.99371,-107.33292,-92.95478,-111.95791,-71.60495,64.11516
-90.00127,-90.004776,-104.436195,-92.76734,-106.394325,-70.787,43.593307
-90.00035,-89.999565,-95.737366,-93.32769,-98.668396,-62.57533,20.830915
-89.99923,-90.00085,-89.038216,-92.57266,-88.88559,-49.58113,3.0288498
-89.99874,-89.987755,-91.03882,-87.54863,-95.17942,-48.03356,-3.4256208
-89.99886,-89.97085,-92.532936,-86.143364,-102.53251,-50.1635,-6.7913284
-89.999176,-89.96023,-95.63015,-89.378456,-107.89523,-48.568844,-10.24219
-90.00014,-89.96001,-97.00427,-92.27854,-105.09489,-32.138702,-10.597142
-90.00424,-89.9327,-105.51202,-93.83845,-106.20934,-49.396988,80.72926
-90.00012,-89.95029,-98.53874,-96.29874,-106.50333,-20.051712,-15.268832
-90.00016,-89.9494,-99.87653,-91.90263,-105.970406,-20.604603,-15.342067
-90.00011,-89.94752,-99.49106,-89.70068,-104.700035,-20.087011,-15.128825
-89.9999,-89.947495,-100.01541,-89.59489,-105.251755,-18.612766,-15.053382
-89.999374,-89.952385,-100.340614,-92.258606,-105.69821,-16.303333,-15.377256
-90.0043,-89.950424,-89.31133,-85.660645,-115.710976,-33.38995,61.449608
-90.003914,-89.82173,-102.14189,-85.41225,-109.37148,-44.738693,95.799866
-89.99796,-89.98196,-91.80946,-100.82603,-94.96584,12.662816,-12.180308
-89.999084,-89.96178,-93.99583,-87.27533,-101.368484,-11.108344,-12.620706
-89.99942,-89.96133,-90.63987,-82.74102,-100.06622,-10.29305,-8.095405
-89.99928,-89.96892,-89.12433,-83.878075,-100.01221,-6.3472137,-6.639532
-89.99881,-89.97738,-86.69418,-90.26276,-97.175644,-0.15896383,-9.631633
-90.00508,-89.86401,-91.575806,-80.74167,-101.84824,-18.271889,65.889015
-90.00499,-89.796135,-94.45677,-76.1371,-93.625336,-17.696299,92.08217
-90.00513,-89.97081,-89.11029,-80.30097,-109.636,3.7154272,21.669802
-90.000206,-89.99431,-87.6892,-92.84591,-89.7735,14.042539,-9.556843
-90.00062,-89.996025,-89.45541,-90.89839,-90.76514,11.813854,-9.565906
-90.00043,-90.00606,-90.95308,-89.27281,-88.81432,23.03499,-6.763554
-90.00021,-90.02837,-88.87858,-88.483925,-86.863266,46.91065,1.2353557
-90.00417,-90.014244,-85.51184,-73.99434,-95.18568,26.880964,19.581158
-90.00377,-89.94422,-84.94933,-73.3095,-88.96513,24.186264,50.614323
-90.003975,-90.05346,-83.32831,-74.50613,-95.79471,38.79514,12.879408
-90.00052,-90.029526,-90.92069,-87.907074,-86.58786,42.31001,-1.6225468
-90.00057,-90.02654,-92.6951,-88.08778,-85.31614,37.965096,-1.4201251
-90.0006,-90.02877,-95.0175,-89.44161,-84.92032,42.03798,-1.4243852
-90.00071,-90.03508,-96.90034,-90.99213,-86.25203,51.81813,-2.0955677
-90.00336,-90.073,-84.55734,-80.29117,-96.403946,57.817947,25.070879
-90.00331,-90.044044,-87.16966,-79.62115,-94.74138,52.39203,40.616306
-90.00327,-90.094124,-84.97991,-81.757614,-99.078224,66.88666,23.779379
-90.00013,-90.04692,-89.19109,-91.88731,-78.85695,43.199684,-11.504776
-90.00027,-90.04611,-84.67974,-92.93965,-80.31115,45.336548,-14.370638
-90.000534,-90.04558,-83.04866,-95.543686,-80.81091,51.126232,-16.120552
-90.0007,-90.04691,-81.241295,-98.13707,-80.479904,57.38402,-16.689789
-90.00085,-90.098145,-78.79311,-84.07601,-96.57835,82.43416,44.943363
-90.00015,-90.07655,-85.04021,-84.716255,-95.02049,87.011284,54.882607
-90.002075,-90.05259,-84.32885,-68.95115,-64.36847,-67.93064,-74.10019
-90.00007,-90.04037,-83.66056,-87.88439,-68.14426,23.290318,-11.964417
-90.0001,-90.03153,-90.186005,-85.77074,-62.109497,6.330772,-9.569856
-89.999954,-90.02869,-91.40074,-86.11837,-62.095512,-3.450172,-7.3012857
-89.9998,-90.02485,-89.5084,-86.20151,-61.090298,-7.5587907,-2.217346
-89.99982,-90.021065,-87.76949,-87.34841,-64.66188,-6.832573,4.8235497
-89.999756,-90.00858,-86.59614,-86.92778,-70.72681,4.8612175,5.0293536
-89.99925,-90.00952,-85.13305,-87.25242,-58.317596,-6.0068474,7.5642076
-89.99933,-90.00813,-85.7887,-86.71197,-56.39106,-9.350457,1.3862153
-89.99915,-90.00442,-88.28726,-87.08205,-56.873074,-10.4817095,-0.55309606
-89.999146,-90.00159,-88.4708,-87.248024,-56.98539,-10.859438,1.8701544
-89.998924,-90.00685,-87.56456,-86.77577,-55.79668,-12.052387,16.715849
-89.999405,-90.00502,-88.70644,-88.27482,-55.832798,-17.177795,44.819294
-89.999275,-90.003075,-89.99269,-86.34239,-54.168427,-16.887299,62.967678
-89.99933,-89.99984,-90.0778,-87.96292,-54.099606,-16.268038,40.54219
-89.99913,-89.99931,-91.52637,-87.50901,-58.077564,-11.919355,10.836273
-89.99926,-89.99668,-92.57818,-87.36127,-59.014023,-11.237765,0.80864644
-89.99932,-89.99614,-92.89209,-87.43935,-58.891098,-11.191118,2.0358944
-89.99934,-89.99502,-92.60429,-87.376144,-58.12089,-11.67773,12.896702
-89.99941,-89.98898,-91.12791,-86.114296,-52.33109,-14.00623,39.10137
-89.99976,-89.98861,-92.143875,-82.090515,-49.29979,-10.342688,82.23803
-89.99936,-89.988525,-92.287796,-86.015625,-54.120388,-12.952391,28.820236
-89.999466,-89.99475,-92.38173,-87.00245,-59.31845,-11.30262,4.657532
-89.99944,-89.99664,-92.480865,-86.21765,-57.873096,-11.410388,0.03663359
-89.99948,-89.99629,-92.35844,-86.3434,-57.908592,-11.457038,1.2024257
-89.99949,-89.99251,-92.449936,-86.8994,-58.709152,-11.345428,8.724226
-89.9994,-89.98653,-92.175934,-85.61922,-52.61245,-13.130858,33.27422
-89.99993,-89.98544,-92.13407,-82.01843,-49.678192,-9.97034,73.64049
-89.99939,-89.994026,-92.30571,-87.23782,-54.77029,-12.912795,23.809055
-89.99933,-89.9979,-92.7909,-87.59511,-56.910942,-11.938547,4.477436
-89.99913,-90.0008,-91.72493,-86.79842,-54.11187,-11.378447,-1.480619
-89.99905,-90.00243,-91.30431,-87.2006,-53.44067,-11.177927,-1.5662328
-89.9991,-90.002846,-90.61735,-88.44567,-54.896126,-11.94595,5.2765446
-89.99912,-90.00774,-88.961784,-88.28237,-53.617676,-13.915301,24.240358
-89.99976,-90.001,-90.42653,-88.792854,-54.169468,-17.768003,57.240707
-89.99919,-90.00839,-88.456276,-89.56186,-50.170948,-9.492821,6.544406
-89.99901,-90.00826,-89.67433,-88.55232,-51.365112,-9.765464,-3.753526
-89.99887,-90.00788,-90.97284,-88.66388,-50.41746,-9.680974,-7.443015
-89.998985,-90.0084,-91.12614,-89.312195,-50.27782,-8.712363,-8.185449
-89.99914,-90.010826,-90.21257,-89.85328,-49.515827,-7.5074525,-6.4445906
-89.99923,-90.01646,-88.203415,-90.19264,-46.510612,-4.675288,-2.2322001
-89.999214,-90.020065,-85.80619,-90.49427,-46.06149,-2.6842937,3.40842
-89.99937,-90.015,-88.19807,-90.37172,-44.66199,-1.0894502,-7.4027863
-89.99978,-90.01212,-89.065384,-89.622475,-47.30962,3.71444,-13.454879
-90.0,-90.02037,-88.41038,-88.541466,-46.820553,15.362173,-14.867266
-90.00019,-90.02671,-87.694954,-88.476814,-46.07679,23.200552,-12.908906
-90.00029,-90.028404,-88.54627,-88.307526,-48.99061,27.183426,-11.451688
-90.00016,-90.028496,-89.540405,-88.42651,-52.481922,26.947786,-10.973927
-89.999985,-90.02778,-90.14241,-88.31444,-55.652195,24.476933,-9.869474
-90.00026,-90.02555,-89.17167,-88.301476,-46.200443,20.553814,-11.579745
-89.99984,-90.014206,-90.11957,-91.317505,-42.45328,7.199187,-14.434063
-89.99952,-90.00803,-92.061554,-93.770386,-41.10037,-2.6817968,-16.691444
-89.99906,-90.00697,-91.193634,-93.41972,-36.55448,-5.872974,-15.233604
-89.99861,-90.00748,-90.3529,-92.57832,-33.66507,-7.5641108,-10.198015
-89.99888,-90.00794,-90.37023,-91.54555,-33.090557,-9.475665,3.0309358
-89.999466,-90.01436,-90.77756,-90.50446,-38.704277,-14.571931,35.588448
-89.999146,-90.00218,-91.06443,-88.99201,-30.941725,-12.3430195,12.156497
-89.998795,-90.00067,-91.819695,-88.82939,-30.108328,-11.390725,-4.332185
-89.998764,-90.0008,-92.20605,-88.91806,-29.443357,-11.329773,-6.7457666
-89.998825,-90.00002,-92.14802,-87.75481,-28.850496,-11.739556,-5.094805
-89.99918,-89.99886,-91.352806,-86.82631,-28.612509,-12.550626,3.3900971
-89.9992,-90.00596,-93.73863,-87.18844,-29.00538,-16.676064,36.507114
-89.999626,-90.00057,-95.05751,-87.8486,-30.958569,-23.918726,62.406147
-89.99919,-90.00414,-93.42926,-85.91193,-27.148682,-16.361155,31.082106
-89.999146,-89.99936,-91.23465,-85.10605,-26.682678,-12.78524,1.5429168
-89.998955,-89.998795,-92.087296,-85.00474,-27.171844,-12.687172,-3.552792
-89.99902,-89.999115,-91.70641,-84.619774,-26.815746,-12.830526,-2.0286674
-89.99927,-89.99918,-91.07051,-83.9249,-25.623674,-13.869585,9.829778
-89.99923,-90.00565,-94.07427,-85.023415,-26.331022,-18.026014,41.85128
-89.999626,-90.00075,-94.812836,-85.662155,-29.328613,-23.500223,60.328423
-89.999214,-90.00434,-93.592575,-84.19525,-25.22671,-17.302994,35.059948
-89.99922,-89.99987,-90.61002,-83.5294,-25.305973,-13.067634,2.4046376
-89.999016,-89.999054,-91.77486,-83.85667,-26.373966,-13.036397,-3.1270328
-89.99907,-89.9989,-91.4487,-83.7868,-26.038307,-12.986275,-1.8916444
-89.9993,-89.99963,-90.9103,-83.21693,-24.739254,-14.013451,9.917303
-89.99925,-90.005714,-94.118576,-84.28898,-25.175928,-18.279263,42.3689
-89.99963,-90.00093,-94.9458,-85.14464,-28.238607,-23.777082,61.175495
-89.999245,-90.00269,-93.95297,-84.64786,-24.3257,-17.172997,33.333843
-89.999176,-89.99906,-91.85529,-85.557526,-24.807186,-12.863925,0.62375116
-89.99895,-89.99926,-92.14606,-86.67219,-23.343592,-11.98513,-4.9740076
-89.99896,-89.998405,-92.24236,-87.46791,-23.107828,-11.861564,-4.579971
-89.99924,-89.997314,-92.46661,-87.98257,-24.489086,-12.858017,2.9235628
-89.99932,-90.00029,-94.84259,-87.77106,-24.536577,-16.878418,34.86109
-89.99962,-90.00073,-98.60165,-88.53021,-27.088873,-24.911419,67.04173
-89.99934,-89.99786,-93.49175,-89.6122,-24.246202,-14.608558,20.333004
-89.99886,-89.999596,-91.48501,-92.543884,-19.494856,-10.482934,-5.416892
-89.99879,-90.00452,-89.94925,-94.07245,-15.693078,-8.236409,-9.856344
-89.99878,-90.00539,-89.69247,-94.54678,-14.917438,-7.3204656,-10.2369375
-89.99878,-90.002266,-89.655754,-94.698204,-16.038597,-8.128604,-6.76553
-89.99903,-89.99698,-91.23225,-93.4405,-19.882744,-11.030629,12.254705
-89.99897,-90.00701,-95.682884,-91.19818,-23.575869,-16.264011,53.569675
-89.998764,-90.00242,-88.1842,-93.91802,-14.410651,-5.860167,-2.453311
-89.99908,-90.00971,-89.61322,-95.44038,-14.131175,-0.05715456,-12.835308
-89.999275,-90.01113,-90.35813,-97.132484,-16.868193,2.6580937,-14.1881695
-89.9993,-90.011116,-90.30383,-96.84555,-18.195484,4.848352,-13.239217
-89.99936,-90.01086,-88.13003,-93.97148,-21.221785,7.707655,-11.244685
-89.9993,-90.01152,-86.13953,-89.43369,-22.50514,11.003664,-7.06202
-89.999016,-90.00153,-85.78645,-89.82851,-26.33665,11.196768,-0.4145876
-89.99909,-90.0101,-86.7501,-90.73217,-16.576902,5.9970875,-7.511649
-89.99902,-90.010864,-89.62406,-95.58099,-10.62524,1.8178066,-11.354406
-89.998764,-90.0113,-90.55126,-97.445755,-5.2144327,-0.73478526,-12.190271
-89.99881,-90.00856,-89.59808,-96.62546,-5.008302,-2.4855602,-10.041575
-89.998825,-90.00304,-88.86076,-93.0211,-3.722303,-5.877772,-0.27405888
-89.998604,-89.99992,-92.593376,-88.18873,-5.4006286,-14.928896,36.186947
-89.99974,-90.0009,-101.02826,-90.359474,-14.585169,-29.345406,94.87221
-89.99867,-90.0011,-91.45055,-87.540474,-3.6433191,-14.512676,29.239552
-89.99889,-90.0027,-89.14343,-91.80627,-2.203713,-8.009333,-1.7906129
-89.99885,-90.00504,-91.84263,-93.23593,-0.2574947,-7.996838,-5.3522377
-89.99886,-90.0045,-91.55744,-92.270584,-0.068678804,-8.627236,-3.7087095
-89.99898,-90.0027,-88.46681,-89.187485,-1.7600348,-9.971021,3.7074997
-89.998795,-90.00602,-89.87238,-85.306526,-3.3633382,-16.371979,34.72342
-89.99957,-90.00625,-99.59633,-86.20802,-12.834417,-28.932922,86.66954
-89.9989,-90.00368,-87.8452,-85.354675,-3.3639584,-13.913434,19.13351
-89.99899,-90.00473,-90.831245,-89.44922,0.8770439,-10.154652,0.14249302
-89.99901,-90.00778,-94.00049,-91.062386,2.5858433,-10.336852,-4.6351953
-89.999016,-90.00752,-93.49156,-90.473366,2.5178638,-10.499511,-3.7705488
-89.99903,-90.005066,-89.52914,-87.70322,0.63810533,-10.927047,3.010277
-89.99897,-90.005165,-86.54122,-83.92958,-3.9124498,-14.240618,20.22739
-89.99922,-90.01411,-96.08056,-84.53604,-11.427568,-24.546343,71.017624
-89.99899,-90.005005,-86.526566,-83.95466,-2.111006,-12.881876,12.787478
-89.99906,-90.00707,-92.19199,-88.9749,2.5712059,-11.0037775,-1.4497079
-89.998985,-90.01137,-95.026375,-90.775314,3.3937097,-12.167293,-6.3299985
-89.999,-90.01076,-94.55645,-90.45148,3.2662313,-11.994845,-5.7314963
-89.999084,-90.00565,-90.903625,-87.934814,2.2510264,-11.286507,1.6299393
-89.99896,-90.00667,-86.1548,-83.30033,-2.5532064,-13.828728,17.847183
-89.999016,-90.01731,-94.33692,-83.82223,-10.41089,-22.72714,65.65642
-89.99889,-90.00715,-87.8123,-84.32718,-0.3257873,-13.158395,14.84959
-89.99908,-90.005844,-93.230446,-90.3636,3.8414075,-11.271712,1.3961039
-89.99908,-90.009094,-96.78955,-92.70253,4.4771733,-13.829466,-2.142805
-89.99911,-90.00716,-96.19578,-92.627495,4.675648,-13.480339,0.74736685
-89.998955,-90.004105,-91.205765,-90.25665,3.582621,-11.195294,8.480884
-89.99851,-90.00696,-89.852104,-83.71516,0.06168618,-15.3814335,28.075851
-89.99878,-90.015656,-94.18681,-85.65341,-7.6159124,-23.354649,78.3361
-89.99851,-90.00316,-90.135475,-85.86623,1.9427432,-13.713585,24.442327
-89.99903,-90.00116,-92.45866,-93.122086,5.227443,-9.925282,10.363386
-89.9991,-90.00319,-95.65956,-95.87392,6.718568,-12.224359,8.500959
-89.99907,-90.00086,-93.72717,-95.12371,6.9085164,-10.157563,9.231945
-89.99874,-89.99745,-90.796616,-90.191956,5.1465096,-9.904383,17.026114
-89.99811,-90.00031,-89.32897,-84.33745,2.9761975,-11.998293,30.136295
-89.99805,-90.00524,-90.53041,-86.99844,-4.7028904,-16.426327,71.148445
-89.99816,-89.99953,-88.22286,-86.13519,5.057346,-7.808171,24.826845
-89.99853,-89.99464,-87.67062,-89.3149,8.086922,-6.663382,13.969424
-89.99852,-89.99475,-86.0535,-90.31855,10.51937,-6.0405755,9.535185
-89.99834,-89.99721,-84.04897,-89.575005,9.85273,-3.5207076,7.433839
-89.99815,-89.99697,-84.19748,-86.52556,6.9793334,0.14603353,9.977418
-89.99759,-89.992775,-85.262886,-86.36669,3.3924599,5.902345,15.167782
-89.996895,-89.987206,-84.29258,-88.545586,-3.3342988,17.194597,48.02539
-89.99746,-89.99507,-84.607445,-86.81343,6.2645674,0.5832452,19.241669
-89.99797,-89.9958,-84.35182,-87.92314,11.304648,-4.9962473,12.605261
-89.99817,-89.99685,-88.16851,-91.6741,17.01742,-10.528754,17.176369
-89.998276,-89.99951,-90.43088,-92.752945,17.508509,-13.961956,19.836126
-89.9982,-90.00022,-90.22788,-90.50131,14.697607,-14.510817,25.375042
-89.99787,-89.99922,-87.47225,-85.22038,9.42081,-12.482336,28.974962
-89.997475,-90.002884,-85.12632,-85.29363,5.655434,-12.67009,39.971886
-89.998405,-90.00584,-90.98202,-89.93546,15.043043,-19.177624,29.329205
-89.99823,-90.00907,-92.706,-94.838295,28.132715,-14.552344,6.2265863
-89.99778,-90.01506,-92.44036,-95.0897,33.682884,-11.145988,-2.763618
-89.997765,-90.0154,-92.02023,-94.51473,34.45771,-10.465958,-4.0761256
-89.9979,-90.01342,-91.25158,-93.45382,32.660183,-11.249804,-0.10213808
-89.99847,-90.00669,-91.297424,-91.140686,25.533485,-15.466379,12.302428
-89.998474,-90.01266,-88.720345,-85.603065,13.879816,-20.40715,33.84811
-89.998085,-90.011284,-89.87979,-91.50013,31.372581,-11.336256,2.2297971
-89.99772,-90.015236,-90.358505,-92.69054,37.14061,-8.354457,-6.4268036
-89.99766,-90.01471,-90.53124,-93.29726,38.97932,-7.6460223,-7.134817
-89.99767,-90.014565,-90.20364,-92.884094,38.938053,-7.462999,-7.0943584
-89.99776,-90.014824,-89.42683,-91.55014,37.165806,-7.7743645,-6.4261217
-89.99795,-90.01427,-88.406624,-89.92304,33.30942,-8.961936,-3.3036919
-89.9986,-90.007545,-88.78743,-87.18876,23.495855,-14.770409,15.22357
-89.99788,-90.014725,-88.33631,-89.87808,35.253468,-7.847629,-5.656909
-89.99772,-90.01406,-89.16868,-91.73389,38.69546,-7.3835926,-6.936329
-89.99768,-90.01363,-89.5689,-92.86251,39.916775,-7.3749275,-7.501143
-89.99769,-90.013596,-89.35369,-92.595924,39.73832,-7.3788466,-7.3804393
-89.997734,-90.01394,-88.668884,-91.038124,38.28645,-7.3896775,-6.6272163
-89.9979,-90.01426,-87.66651,-89.18818,35.3315,-7.4080763,-5.392675
-89.99848,-90.00786,-86.99052,-87.330315,26.826147,-11.87653,9.363894
-89.99782,-90.013725,-88.25712,-90.080795,36.946686,-7.539401,-5.2904234
-89.99763,-90.01277,-89.89652,-92.36016,40.684505,-7.6177716,-6.2160563
-89.99756,-90.01211,-90.72023,-93.58246,42.446617,-7.7043166,-6.4197884
-89.99755,-90.01193,-90.60904,-93.53355,42.5272,-7.8078337,-5.9310746
-89.9976,-90.012085,-89.59345,-92.39325,41.14242,-7.9565845,-4.672113
-89.997856,-90.00841,-88.47371,-90.98849,38.097057,-8.77509,4.213095
-89.99837,-90.004875,-86.9526,-87.55022,28.953253,-14.69046,27.504623
-89.99775,-90.00783,-88.92944,-91.26435,40.070034,-9.101942,6.5627117
-89.99752,-90.008156,-90.38089,-92.97387,43.823368,-8.319251,-0.1889299
-89.99744,-90.00724,-90.944496,-94.18812,46.270172,-8.235639,-0.8583113
-89.99749,-90.00384,-89.17451,-93.94142,48.051895,-8.282104,3.0392678
-89.997665,-90.00619,-86.34908,-93.453156,45.3794,-9.034683,10.8665695
-89.99778,-90.002106,-85.61677,-90.35504,33.420998,-11.51248,23.482794
-89.99688,-89.993195,-79.58203,-87.646255,21.565205,-1.6659979,17.831783
-89.9971,-89.99333,-84.31773,-89.83268,34.86934,-0.74166137,8.5716505
-89.997375,-89.996994,-83.403336,-92.48919,40.136852,-3.202133,7.121903
-89.99731,-89.99336,-82.0937,-93.08702,41.975487,0.16544281,0.08697036
-89.99693,-89.98582,-81.48463,-92.46208,43.3099,10.268619,-13.712609
-89.99638,-89.98505,-80.68982,-91.39495,41.29302,20.134954,-21.675446
-89.99571,-89.980156,-80.572426,-91.59066,36.189007,28.000616,-19.078026
-89.99561,-89.96147,-84.48749,-90.6022,13.602291,57.28467,29.167114
-89.99616,-89.980125,-80.81249,-91.65485,42.184547,24.241293,-22.750864
-89.99704,-89.98409,-81.8915,-92.29648,48.19882,10.8511505,-12.761816
-89.99784,-90.00375,-80.79039,-94.3008,48.249584,-7.921923,11.590751
-89.99788,-90.00576,-80.143326,-94.57533,50.629623,-10.33991,11.155143
-89.99779,-90.00491,-80.10725,-93.12652,51.325157,-10.509518,9.939032
-89.997795,-90.006874,-80.290405,-90.886055,48.959023,-11.550125,12.57471
-89.99789,-90.01094,-80.05867,-88.13797,42.972206,-14.893023,19.537222
-89.99743,-89.99983,-85.5066,-89.96509,53.955246,-7.3569536,-0.7825782
-89.99719,-89.99823,-90.187645,-90.67887,56.870228,-7.703161,-3.0122545
-89.99713,-89.99737,-91.3567,-91.2137,59.5855,-7.9676433,-3.5082226
-89.99714,-89.99677,-91.49567,-90.56845,60.59005,-8.116266,-3.2690623
-89.997154,-89.9967,-90.859146,-89.24937,59.481956,-8.097574,-2.9492679
-89.99721,-89.99691,-89.50549,-87.21991,56.70048,-7.941401,-2.2232018
-89.9974,-89.99862,-87.063545,-84.74435,51.893448,-7.7618284,-0.99288845
-89.99717,-89.996124,-89.95527,-88.21457,58.9559,-8.302668,-2.4172742
-89.997154,-89.99537,-91.30156,-90.23618,62.715916,-8.725487,-2.6892476
-89.997154,-89.994934,-91.70518,-91.098885,64.38957,-8.91475,-2.6577294
-89.99717,-89.99483,-91.442795,-91.16418,64.32227,-8.969396,-2.5058696
-89.99718,-89.99505,-90.59501,-90.428894,62.70183,-8.899165,-2.2687635
-89.99721,-89.99574,-88.80529,-88.6082,59.20202,-8.674477,-1.9895557
-89.99733,-89.99765,-86.219185,-85.32088,53.31564,-8.3452,-1.5466048
-89.99721,-89.995316,-89.25026,-89.26922,60.51836,-8.792182,-2.009624
-89.99719,-89.994194,-90.69254,-91.1549,64.40666,-9.130213,-2.0132627
-89.997185,-89.993515,-91.11144,-91.71997,66.10227,-9.235829,-2.1503649
-89.997185,-89.993484,-90.964584,-91.53936,65.90383,-9.229278,-2.0832253
-89.9972,-89.994064,-90.268745,-90.63627,63.952957,-9.115778,-1.8450983
-89.99723,-89.9951,-88.88955,-88.692986,60.202583,-8.768198,-1.8686051
-89.997345,-89.997406,-85.908295,-85.671844,53.57479,-8.33286,-1.8280891
-89.997215,-89.99447,-89.68475,-88.353676,61.77792,-8.8117895,-1.7344085
-89.99721,-89.993256,-91.28961,-88.66126,65.42522,-8.908466,-1.9840837
-89.997284,-89.991356,-92.79198,-87.15368,68.22434,-8.724909,-1.0282822
-89.99731,-89.990555,-93.94319,-86.12631,68.61202,-8.487365,-0.62499005
-89.99729,-89.99225,-92.51987,-86.19803,65.49337,-8.348592,-1.0798141
-89.99729,-89.99472,-89.552956,-85.72753,60.288143,-8.083532,-1.6310229
-89.99738,-89.99678,-85.90504,-83.854,53.830284,-7.6162534,-1.1557672
-89.9974,-89.994194,-89.83328,-85.724,60.235588,-7.6728063,-1.2233591
-89.997505,-89.991104,-92.749825,-87.0786,65.578575,-7.6622047,0.68609256
-89.99757,-89.99039,-92.08201,-88.59096,67.81247,-7.4969797,1.4826854
-89.99761,-89.98915,-88.854576,-88.324394,67.365974,-7.191355,2.855457
-89.99772,-89.990265,-84.062195,-87.37514,62.163807,-8.15999,7.9438643
-89.99769,-89.98703,-82.09727,-85.4851,56.974007,-6.704846,17.780087
-89.99743,-89.977615,-83.64038,-84.519745,59.736725,11.248686,-1.7002847
-89.99742,-89.97157,-85.53938,-88.24335,64.75974,17.027466,-8.651606
-89.99747,-89.97555,-85.15585,-88.47994,64.72178,14.853702,-21.750534
-89.99737,-89.98296,-83.29082,-86.65075,56.563194,11.845517,-34.438633
-89.997345,-89.981804,-84.39752,-83.292244,48.749203,7.6228566,-40.819664
-89.99733,-89.96988,-83.708755,-79.303856,42.639687,5.2725673,-37.33872
-89.99651,-89.95615,-83.691605,-76.77405,39.213707,14.406609,-20.800922
-89.99527,-89.94619,-78.29756,-81.43237,24.254154,54.385,16.525967
-89.99748,-89.96425,-84.024254,-76.608116,36.9038,1.4933575,-35.04222
-89.99804,-89.96261,-87.92993,-81.09754,33.265705,-8.840375,-41.286148
-89.998116,-90.01027,-91.80212,-86.4928,59.799202,-35.345787,-22.831865
-89.99777,-90.05499,-92.19233,-89.45067,81.87247,-60.75935,14.727198
-89.99773,-90.07741,-89.104355,-89.018906,83.914856,-79.27237,24.16163
-89.99756,-90.06868,-88.3399,-87.884445,84.480736,-66.86218,10.013679
-89.997826,-90.038284,-88.478745,-85.26716,76.99769,-45.45234,5.0377398
-89.997955,-90.03933,-91.0227,-89.05588,86.42936,-47.135204,-5.2848506
-89.997734,-90.03867,-91.71504,-90.66402,93.529594,-48.97425,-6.022029
-89.99763,-90.035515,-92.65522,-90.81285,96.04358,-48.42897,-6.813767
-89.997635,-90.02531,-93.1413,-90.53981,95.38876,-42.69546,-5.3703403
-89.99779,-90.005424,-93.695435,-90.0433,91.65338,-30.329369,-1.1126499
-89.997765,-89.99975,-93.77634,-87.93478,89.70249,-25.266285,1.5703189
-89.99779,-89.9933,-92.31641,-83.74482,82.812195,-18.578344,4.0284815
-89.99767,-89.99729,-94.392204,-88.63055,93.21731,-24.113728,2.6535668
-89.997795,-90.00198,-94.88627,-88.38255,93.45275,-28.587826,-0.5077805
-89.99576,-89.994194,-97.32479,-89.6482,89.92955,-1.1052319,-11.505982
-89.99574,-89.99383,-97.39875,-89.772934,88.81352,-3.3116488,-11.476175
-89.997696,-89.998314,-94.52406,-89.03855,95.988304,-26.003168,2.0945365
-89.997574,-89.98787,-93.16255,-88.09734,93.93638,-16.206665,7.4521284
-89.99759,-89.98227,-92.26042,-86.25112,85.38789,-11.537799,7.42951
-89.997536,-89.98746,-93.58936,-89.14065,96.30462,-16.30158,7.8509
-89.99566,-89.98877,-94.869606,-88.7525,87.533646,-2.7239265,-13.134777
-89.99551,-90.00452,-89.290184,-88.52358,81.28537,13.106387,-15.766075
-89.99552,-90.003,-89.45885,-88.723045,81.65042,11.405104,-15.749566
-89.996056,-89.996414,-100.60093,-89.03791,83.52799,-10.032704,-9.669542
-89.99748,-89.982635,-93.85757,-89.8299,95.61167,-13.3305235,9.010103
-89.997536,-89.980156,-92.86489,-87.84541,87.19449,-11.151102,7.7322955
-89.997574,-89.994965,-94.121605,-89.57534,98.66756,-23.43275,4.144955
-89.995766,-89.992,-94.48587,-87.32671,90.2963,2.698861,-13.036429
-89.99559,-90.01008,-91.61144,-85.40913,87.08926,19.550795,-13.693767
-89.99562,-90.0082,-92.37012,-85.004944,88.41749,17.874666,-12.790962
-89.99589,-90.00115,-93.411705,-84.34017,90.72027,8.289095,-10.708235
-89.99791,-90.00507,-93.30957,-85.96995,91.31329,-29.7757,-2.6950202
-89.997856,-90.00419,-91.103195,-84.2877,86.884766,-29.36962,-0.63442683
-89.997734,-90.02035,-94.42113,-85.92678,90.45401,-36.0836,-10.006018
-89.99456,-90.013336,-92.15984,-85.47479,94.24803,45.468742,-13.970444
-89.99422,-90.01045,-91.50998,-86.80386,94.6737,57.295002,-14.87963
-89.994026,-90.00735,-92.66381,-87.45285,94.70996,61.28302,-15.294671
-89.99388,-90.00445,-94.59654,-89.342865,94.78816,63.633278,-15.390381
-89.99837,-89.96915,-96.83328,-76.797676,75.99009,-6.649142,62.131798
-89.99868,-89.97258,-92.684494,-76.18155,80.08265,-2.062484,67.54517
-89.99983,-89.90145,-88.41825,-72.159256,54.52949,23.30426,6.2523494
-89.9934,-89.99315,-91.523796,-88.53534,85.502716,79.34987,-18.930347
-89.99319,-89.99011,-91.31662,-89.54782,83.411316,83.60508,-18.755358
-89.99318,-89.98786,-93.08075,-90.36077,81.93491,84.02458,-14.158794
-89.993126,-89.98329,-94.17973,-91.60124,81.21595,82.71537,-10.790063
-89.995926,-89.96185,-81.42533,-64.69707,38.03006,4.958123,5.7968054
-89.99516,-89.95376,-79.095345,-72.42812,39.972034,34.046307,25.653025
-89.99881,-89.925476,-85.84705,-61.782467,7.556731,-27.142918,-32.239265
-89.99959,-89.91192,-93.65528,-67.95232,-8.189049,-43.26302,-37.24923
-89.99994,-89.94731,-93.06106,-70.554825,-24.583029,-63.315365,6.3083034
-89.99964,-89.9644,-88.56874,-68.01714,-29.914005,-54.38983,10.583121
-89.999435,-89.96663,-86.16088,-64.76418,-44.08009,-53.45116,4.5161443
-90.000374,-89.97778,-79.96889,-63.35574,-65.14051,-48.65984,-0.43963584
-90.000206,-90.00173,-81.63015,-67.076904,-72.03335,-45.157593,55.01631
-90.00072,-90.01043,-83.249504,-67.152336,-68.433945,-27.011269,-11.198482
-90.000534,-90.023,-86.36975,-67.13223,-66.52987,-27.080746,-16.49751
-90.00021,-90.02506,-89.11146,-67.71205,-67.66197,-28.940603,-19.009722
-89.999825,-90.021355,-91.530975,-67.561966,-67.05295,-29.86014,-18.285852
-89.999756,-90.01346,-93.19532,-66.844086,-70.85091,-30.243698,-15.40027
-89.9999,-89.99142,-90.70391,-67.86069,-81.288445,-21.53365,-7.0555964
-89.99999,-89.98434,-88.15338,-67.78187,-87.213295,-17.082878,21.342924
-90.00009,-89.98201,-86.66932,-65.88581,-82.03779,-16.232265,-0.030078404
-89.99986,-89.98494,-86.93898,-63.07063,-78.538445,-16.056482,-6.088547
-89.99995,-89.98249,-86.720215,-60.780197,-77.88174,-14.748362,-6.3440094
-90.00042,-89.9772,-87.5726,-60.667637,-81.70699,-13.038582,-4.309936
-90.00084,-89.97316,-90.38199,-60.820538,-86.276634,-9.385022,8.141136
-90.00118,-89.96954,-93.24295,-65.05903,-92.46578,-7.7730803,19.032055
-90.00143,-89.97195,-99.998695,-66.47168,-103.33457,-11.448346,42.0125
-90.001686,-89.96649,-97.71826,-65.68694,-95.22376,-6.8637524,22.784891
-90.0014,-89.96896,-96.02546,-63.12307,-90.851166,-7.083177,15.978544
-90.001396,-89.96897,-96.34393,-62.218113,-89.83363,-7.0351286,13.99651
-90.00166,-89.96756,-98.10801,-62.770313,-91.27706,-6.26979,18.03144
-90.00232,-89.96254,-102.27244,-62.797115,-94.748116,-7.11667,28.146269
-90.00313,-89.96482,-102.99251,-59.142597,-100.19402,-11.95994,50.912697
-90.01169,-89.86421,-106.65576,-41.44625,-98.003975,6.356064,119.722
-90.00094,-89.99176,-97.746315,-62.43014,-95.48777,0.30582726,27.176298
-90.00095,-89.985115,-96.235916,-60.91399,-87.714485,-1.6535472,13.495909
-90.00059,-89.99007,-93.036095,-57.499733,-83.7228,-3.0117617,10.1296215
-90.000244,-89.994965,-92.10888,-55.50636,-85.460014,-2.0097167,9.399755
-89.99974,-90.0028,-95.39255,-52.925472,-91.49383,5.995201,4.71754
-90.00057,-89.97099,-86.72281,-60.070442,-92.54685,-3.3750296,36.04255
-90.009254,-89.979355,-102.60319,-47.1546,-102.59166,34.952103,89.30606
-89.99961,-89.982056,-91.51727,-60.152348,-95.95991,7.961216,26.159184
-89.99871,-89.99373,-91.807945,-55.44757,-84.5381,7.5717297,7.0608025
-89.99899,-90.00895,-91.947136,-54.62864,-83.5174,7.8438063,12.189184
-89.99923,-90.01699,-91.453445,-52.80078,-85.63842,19.334635,25.741037
-89.99955,-90.01985,-89.397095,-54.686745,-91.95875,35.31205,42.000095
-90.008,-90.055695,-98.77751,-44.24534,-106.25894,57.649117,76.31698
-90.009026,-90.0346,-101.04646,-42.070587,-101.790726,57.71991,89.69645
-90.00157,-90.03645,-86.345406,-59.57037,-88.2158,30.787271,-7.0494003
-90.00164,-90.051125,-85.66494,-57.797653,-79.86066,24.121437,-12.150407
-90.001144,-90.04595,-87.89919,-59.98687,-76.01654,28.659895,-2.8058784
-90.000824,-90.0354,-90.711624,-62.978024,-75.5275,35.350975,10.333535
-90.000374,-90.031815,-93.11662,-65.1948,-78.8102,37.25259,29.31037
-90.006645,-90.0827,-91.93811,-40.29887,-101.31173,83.88222,86.75242
-90.00676,-90.06914,-91.40764,-38.94227,-100.01248,93.543304,93.615105
-90.00039,-90.031876,-90.86527,-64.11267,-79.07076,37.024513,31.024555
-90.000656,-90.044044,-86.44527,-59.5125,-72.31557,30.184134,1.6677935
-90.000595,-90.04517,-88.931175,-57.10806,-67.523224,26.191664,-26.161762
-90.000435,-90.04474,-89.09513,-56.430107,-68.65611,20.881613,-18.839123
-90.00016,-90.05168,-86.49267,-51.990395,-77.28546,15.384977,20.149931
-89.99984,-90.04004,-86.26014,-52.07193,-81.71385,3.164354,29.75732
-89.99964,-90.01629,-89.63947,-56.44311,-90.32225,18.904325,28.901108
-89.998505,-90.01546,-86.10856,-48.03298,-70.71802,-15.370496,-6.9214215
-90.00023,-89.9831,-88.69308,-53.98478,-74.53438,-9.381839,-7.3281426
-90.00012,-89.9794,-88.39368,-55.374985,-71.24566,-9.234254,-7.3316283
-90.00018,-89.97892,-87.17233,-56.20948,-71.68557,-8.908225,-6.1783457
-90.00025,-89.98208,-86.32554,-57.015892,-73.71638,-7.8083725,-0.7824712
-90.00017,-89.987656,-86.884026,-58.13013,-78.82265,-6.2632284,6.6508174
-89.99996,-89.996635,-90.779106,-61.493095,-87.16131,-1.2813226,14.121779
-90.00063,-89.979034,-87.39293,-59.25285,-79.60505,-6.8857875,8.855669
-90.00055,-89.97514,-88.000534,-57.85779,-75.88435,-8.663816,0.26033884
-90.00039,-89.97364,-87.80909,-57.637497,-74.356735,-10.053489,-4.801945
-90.000465,-89.97343,-87.77015,-57.715633,-76.04695,-10.124196,-3.739197
-90.000755,-89.9731,-88.5911,-58.297863,-80.42689,-9.192908,4.315716
-90.00105,-89.97242,-90.61255,-60.478233,-86.098755,-8.409611,14.20726
-90.0014,-89.96982,-96.97738,-63.957558,-95.76251,-10.586796,31.354689
-90.00102,-89.972015,-90.20784,-58.04944,-85.239845,-8.682339,12.046223
-90.00064,-89.972664,-88.109146,-57.645115,-80.29177,-10.929588,1.1794528
-90.00045,-89.97311,-87.48562,-56.668293,-76.65861,-11.708635,-3.9968064
-90.00048,-89.97287,-87.55506,-56.89158,-77.55967,-11.832387,-3.565168
-90.000755,-89.972565,-88.81755,-56.956474,-81.42993,-10.651618,5.353481
-90.00109,-89.97187,-90.6056,-58.07718,-86.83143,-9.159935,14.67088
-90.001656,-89.9681,-96.8441,-64.411125,-96.22862,-10.020471,30.145998
-90.00086,-89.97324,-88.974525,-59.5132,-83.31016,-9.247785,9.376879
-90.00032,-89.97574,-87.25701,-57.877068,-75.16153,-11.030167,-4.4304314
-90.00002,-89.97857,-87.0139,-57.238316,-69.67552,-11.164939,-6.8581424
-89.99999,-89.9794,-86.975914,-57.625057,-68.70294,-10.843378,-7.131038
-90.0001,-89.97957,-86.51879,-58.392845,-70.17636,-9.777512,-5.404157
-90.00012,-89.98265,-85.65732,-58.846455,-73.65487,-8.014351,4.9884744
-89.999855,-89.993355,-86.13658,-59.68818,-81.964355,-4.4617596,7.159088
-90.00011,-89.983086,-86.15044,-58.9631,-69.60688,-8.845215,-4.803116
-89.9999,-89.98185,-89.067856,-56.769512,-64.23938,-9.523874,-11.110852
-89.99987,-89.98192,-88.891624,-54.357674,-61.25081,-9.041244,-14.94355
-89.99984,-89.98171,-88.70239,-54.39113,-62.62677,-8.925215,-16.111166
-89.99985,-89.981224,-87.858185,-54.899567,-63.625725,-8.604504,-15.493671
-90.00028,-90.02004,-88.90923,-51.38943,-60.096676,26.409449,10.655369
-89.999626,-90.039536,-85.3369,-53.53825,-69.80317,32.808712,28.273846
-90.00032,-90.024445,-85.44899,-54.12243,-47.789722,26.870043,-24.237165
-90.000206,-90.01648,-86.9648,-56.911068,-48.06645,28.301167,-25.411366
-89.99962,-90.01064,-85.6345,-59.002766,-51.19735,34.00515,-9.8661
-89.99945,-89.998955,-84.94724,-62.199295,-50.692142,43.287563,10.222133
-89.99934,-89.991516,-83.3876,-64.342606,-51.668877,46.820293,23.234806
-89.99933,-89.98961,-85.54407,-64.27257,-53.98209,54.047543,35.73078
-89.9993,-89.98931,-86.612724,-65.603516,-65.61246,54.921658,59.95473
-89.99929,-89.994736,-82.5712,-61.347332,-48.736237,47.19477,22.796644
-90.00011,-90.00887,-84.49297,-57.24265,-47.58198,27.464111,-13.724406
-89.999825,-89.97844,-87.81022,-60.78714,-59.728065,-8.547848,-21.1704
-89.99956,-89.981155,-87.293915,-59.93906,-49.954784,-8.938863,-21.276228
-89.999565,-89.98697,-86.91256,-58.340225,-45.353268,-10.044771,-19.926428
-89.999825,-89.98994,-85.8774,-58.263737,-54.9308,-11.3235,-12.226664
-89.999886,-89.99214,-85.81909,-59.804787,-66.20451,-11.260736,3.0160868
-89.999725,-89.99137,-84.5012,-57.315968,-59.566055,-14.941822,-11.193689
-89.99969,-89.996475,-87.056015,-57.858204,-53.41268,-22.157656,-18.35361
-89.99954,-89.99839,-88.14482,-58.983154,-51.580257,-22.16706,-20.298992
-89.99953,-90.00002,-88.31397,-59.048855,-52.636753,-23.218998,-19.020882
-89.99964,-90.00113,-88.13863,-58.63004,-57.370872,-25.63257,-14.677185
-89.9996,-89.99624,-87.37484,-59.69278,-64.647446,-20.438034,-6.978377
-89.99928,-89.99926,-87.730995,-61.010254,-67.47021,-17.858976,25.152431
-89.9995,-89.998024,-87.29345,-59.71839,-60.66331,-22.384983,-8.4408245
-89.99938,-90.003204,-88.02884,-58.53312,-53.0773,-24.664309,-14.769807
-89.99926,-90.003685,-88.04175,-58.492237,-49.410995,-23.535084,-17.127886
-89.99924,-90.00396,-87.68478,-58.27473,-49.20986,-23.51948,-16.201923
-89.99926,-90.00132,-87.211006,-58.446724,-52.214462,-22.983768,-11.739118
-89.99932,-89.99552,-86.56791,-59.776367,-57.616726,-19.848291,-3.7924473
-89.99922,-90.0028,-86.76683,-60.53835,-63.646675,-18.5097,27.566269
-89.99925,-89.998474,-86.7706,-59.295456,-54.755135,-20.954624,-7.411535
-89.999115,-90.00275,-86.52728,-58.011105,-47.990753,-21.952377,-13.022588
-89.99914,-90.00466,-87.45004,-57.993492,-46.385185,-22.687382,-16.118809
-89.99913,-90.00442,-87.14883,-57.93181,-46.4978,-22.487494,-15.329988
-89.99912,-90.00187,-86.31858,-58.102333,-48.82452,-21.69609,-11.274642
-89.999214,-89.99719,-86.4572,-59.536243,-54.530746,-19.707838,-4.064672
-89.9992,-90.005714,-86.076645,-60.194485,-61.129036,-18.317982,28.451065
-89.99926,-90.00065,-86.739265,-59.27296,-53.832283,-21.898064,-8.273459
-89.99926,-90.005745,-87.22152,-58.434013,-48.315098,-23.799068,-15.357349
-89.999245,-90.004616,-88.13616,-59.16013,-46.75448,-22.634048,-18.246037
-89.99929,-90.00465,-88.09379,-59.2772,-47.176117,-22.826756,-18.244303
-89.99943,-90.00588,-87.25923,-58.771805,-49.63461,-24.49867,-15.629113
-89.99967,-90.00295,-87.64277,-60.302666,-58.718006,-26.342379,-10.011867
-89.999374,-90.001656,-86.34436,-60.83807,-64.43329,-19.186396,19.929155
-89.999695,-90.00453,-87.18642,-59.68207,-54.29752,-25.241693,-12.793377
-89.99953,-90.00423,-87.88103,-59.974415,-44.739586,-21.838482,-19.770493
-89.99921,-89.99985,-87.34965,-60.730724,-34.71651,-17.267843,-21.656038
-89.99918,-89.99807,-86.16789,-60.29933,-31.486458,-16.247139,-21.520853
-89.999275,-89.99654,-84.464966,-58.04613,-30.58043,-14.258592,-19.662577
-89.99959,-89.99986,-87.23609,-57.40752,-36.15223,-8.213358,-16.533741
-89.99964,-90.00235,-91.215645,-58.593376,-44.75094,-3.196493,4.290192
-89.99946,-89.998116,-90.79363,-59.791374,-29.362785,-3.2931376,-23.769957
-89.99949,-89.98941,-94.043205,-63.75295,-28.229399,-3.777119,-26.409872
-89.99974,-89.98691,-93.73341,-64.99714,-30.664976,0.21651474,-23.69356
-89.99985,-89.98747,-95.484406,-66.476944,-32.03896,6.4878397,-23.622953
-89.99964,-89.99037,-75.670975,-54.446583,-34.091858,25.938772,12.562596
-89.99841,-89.985825,-76.95071,-57.171387,-35.623234,37.70018,28.679602
-89.99685,-89.98158,-77.52481,-62.604755,-46.128975,55.50822,61.716053
-89.99892,-90.00203,-75.72883,-53.0821,-31.8218,24.567532,12.040788
-89.9994,-89.99424,-95.82821,-64.03413,-22.685923,1.2099723,-27.425331
-89.99936,-89.99747,-90.40244,-63.329025,-18.005903,-11.242302,-22.514715
-89.99921,-90.00344,-86.93595,-61.713253,-13.684304,-14.647588,-19.457655
-89.99905,-90.00234,-86.15392,-59.643753,-11.903374,-15.079761,-16.726553
-89.998924,-90.01386,-83.05984,-58.144684,-14.244119,-6.7493677,-10.221599
-89.99862,-90.03651,-93.201996,-59.769833,-41.160145,-20.570787,55.082092
-89.99886,-90.00739,-85.28565,-59.02844,-12.434035,-15.733527,-11.019217
-89.99891,-90.01206,-87.18627,-57.381027,-3.556628,-17.038269,-14.80806
-89.998955,-90.016914,-87.25509,-56.9702,-1.4880989,-17.044598,-15.150682
-89.9989,-90.01651,-87.22853,-56.589245,-0.17552574,-17.10112,-14.578072
-89.99885,-90.01125,-87.17369,-57.15687,-1.4537147,-16.849815,-13.279303
-89.99884,-90.01124,-87.34164,-58.70484,-16.453812,-18.278223,-8.424554
-89.998726,-90.03813,-89.13902,-57.157986,-33.4996,-23.719757,41.25446
-89.998795,-90.01138,-87.81469,-58.119465,-8.767453,-17.13156,-10.827593
-89.998764,-90.014244,-87.60674,-56.456608,3.5827692,-16.357594,-12.821698
-89.99873,-90.01795,-87.701416,-56.21315,7.6621075,-15.950357,-12.603518
-89.998726,-90.01737,-87.61767,-56.098557,7.8606586,-15.82598,-12.504565
-89.99876,-90.01259,-87.49158,-56.753414,2.4004092,-16.313843,-12.438305
-89.99886,-90.01217,-88.1647,-57.61767,-10.340182,-16.194765,-11.01039
-89.99883,-90.03301,-87.10981,-56.527493,-28.588015,-21.889387,26.303234
-89.99885,-90.010796,-88.03713,-57.57766,-6.42881,-16.19889,-11.693854
-89.99868,-90.01592,-87.26823,-55.767784,8.5869875,-15.407988,-12.124909
-89.998665,-90.01852,-87.345184,-56.093506,11.033905,-15.351116,-12.056764
-89.998665,-90.018295,-87.18091,-55.931046,11.07085,-15.24191,-11.96897
-89.99869,-90.01392,-87.246605,-56.13284,6.8961425,-15.465349,-11.911505
-89.99883,-90.01091,-87.87144,-57.579563,-7.1901317,-16.016468,-11.14585
-89.99883,-90.03172,-87.12171,-56.77467,-27.59474,-23.055626,22.51494
-89.9988,-90.00962,-87.09788,-57.85467,-1.7348216,-16.398685,-11.090578
-89.99867,-90.01766,-86.85393,-56.102192,10.949912,-15.176842,-11.353095
-89.998634,-90.01773,-87.36989,-57.076534,11.546481,-15.647934,-11.38445
-89.99864,-90.017265,-87.239784,-57.067497,11.4866295,-15.680296,-11.242265
-89.99875,-90.0167,-86.6153,-56.348793,10.47513,-15.004863,-10.913892
-89.99881,-90.008354,-86.50582,-58.335857,1.3988154,-14.975881,-9.785368
-89.99837,-90.03286,-90.89798,-59.01828,-24.310389,-21.984564,36.021107
-89.99893,-90.00954,-87.04455,-58.339558,3.611808,-14.609536,-10.534214
-89.99878,-90.01404,-86.94887,-57.546505,11.926443,-15.08349,-10.94384
-89.99876,-90.01201,-87.8165,-58.49831,12.002684,-15.65571,-11.558917
-89.998825,-90.01171,-87.537895,-58.807514,12.1480255,-15.05793,-11.11686
-89.99897,-90.01161,-86.58853,-59.439404,11.461095,-13.7516985,-10.428699
-89.99884,-90.00466,-83.52082,-59.86999,7.86139,-4.479229,-6.9343715
-89.99793,-90.01727,-88.57608,-59.081238,-11.333258,20.190744,31.524231
-89.99872,-90.01259,-84.29092,-57.933567,4.916375,3.7844384,-18.085373
-89.99867,-90.0105,-86.069725,-60.81129,5.397788,-2.7907789,-20.818508
-89.998566,-90.010544,-87.143394,-61.00541,6.8631015,0.6403996,-19.33767
-89.99852,-90.01966,-89.6895,-58.37857,2.0739186,13.728276,-24.656424
-89.99823,-90.01663,-95.82196,-57.025448,0.33391407,20.467678,-24.553905
-89.99729,-89.97164,-95.87888,-56.49464,2.5078924,38.846252,25.590364
-89.99557,-89.9711,-98.47283,-62.938286,-11.145305,69.67592,76.50644
-89.99791,-90.00772,-91.774536,-62.104378,1.7481598,23.61629,-18.215204
-89.998474,-90.01431,-85.42128,-57.73305,8.573007,6.767888,-18.53087
-89.99896,-89.99427,-87.91379,-62.026375,22.103981,-16.285765,-1.847375
-89.99893,-89.998085,-91.13353,-61.06195,22.818,-20.16384,-0.2840569
-89.99879,-90.000175,-91.69933,-59.29969,24.276257,-22.360855,5.1091714
-89.99843,-90.00813,-88.31864,-57.061264,25.944885,-30.29171,22.99417
-89.997795,-90.03064,-84.66406,-56.706203,9.959258,-24.01181,39.84156
-89.99862,-90.00202,-88.19563,-56.60674,24.738283,-15.107704,-6.896909
-89.99826,-90.00463,-88.7998,-58.598885,23.324543,-16.042023,-8.582462
-89.998184,-90.004745,-89.93158,-60.520107,22.964996,-15.672062,-9.486523
-89.99815,-90.00458,-89.85038,-60.74529,23.04891,-15.322014,-9.574761
-89.99813,-90.00419,-88.98023,-58.96497,23.536787,-15.02678,-8.762479
-89.99821,-90.00468,-87.04535,-56.218082,24.08166,-14.813842,-7.251704
-89.998405,-90.00702,-84.68582,-53.608185,24.384434,-12.304564,-3.2308254
-89.99808,-90.00353,-87.909836,-57.18654,24.237364,-14.217929,-7.888609
-89.99805,-90.004074,-89.66033,-61.524387,23.900465,-14.1481495,-9.723069
-89.99803,-90.00447,-89.87144,-63.362167,23.978378,-14.212855,-10.410088
-89.99802,-90.0044,-89.70274,-63.172882,24.026468,-14.034725,-10.3222275
-89.99801,-90.00385,-89.38794,-61.203815,24.16215,-13.658314,-9.572132
-89.99802,-90.00313,-87.682945,-57.27748,24.327482,-13.203264,-7.9419813
-89.998215,-90.005165,-85.15878,-53.675255,24.114416,-12.634723,-4.8511963
-89.998,-90.00325,-88.371574,-58.6711,24.39567,-13.1297245,-8.524796
-89.99799,-90.00411,-89.39095,-62.769913,24.136374,-13.509047,-10.071082
-89.998,-90.003815,-88.95658,-63.084576,24.817678,-13.419795,-10.234586
-89.99799,-90.00381,-88.96283,-62.99585,24.762056,-13.372322,-10.158239
-89.997986,-90.003746,-89.48881,-62.272648,24.343704,-13.351797,-9.817758
-89.99799,-90.002945,-88.11208,-58.16512,24.738935,-12.902919,-8.200091
-89.99815,-90.00428,-85.59276,-53.894012,24.602613,-12.467708,-5.3064537
-89.998,-90.00304,-88.58339,-59.338486,25.12851,-13.262593,-8.495245
-89.99801,-90.00341,-89.98502,-62.812206,25.65379,-13.952819,-9.949765
-89.99803,-90.002785,-90.20201,-63.15401,27.349854,-14.311571,-10.076676
-89.99803,-90.00265,-90.70461,-63.118675,27.6568,-14.572843,-10.001273
-89.998055,-90.00304,-90.01612,-61.68429,26.699446,-14.635954,-9.222268
-89.99809,-90.00237,-87.73227,-57.46495,27.116678,-14.682636,-7.116415
-89.998314,-90.00285,-85.191574,-53.22797,29.836594,-13.679716,-1.2841547
-89.99824,-90.00026,-88.98296,-57.061497,28.56625,-16.353464,-7.5540223
-89.99828,-89.99996,-91.4557,-59.81999,30.160498,-17.7509,-9.146505
-89.99834,-89.99689,-92.77354,-60.01964,32.46237,-18.677912,-9.472296
-89.99845,-89.993774,-92.8596,-59.689476,33.540493,-18.23054,-9.622717
-89.99846,-89.99925,-92.668465,-58.632885,32.992023,-28.24698,10.09197
-89.998436,-90.009056,-82.72812,-58.397648,30.433168,-35.807846,35.339314
-89.99746,-90.00423,-73.087265,-54.15547,20.238886,19.91469,-7.979509
-89.99787,-89.981155,-79.38136,-54.209732,24.87114,16.126549,-16.4697
-89.99789,-89.97828,-81.21807,-55.039474,29.290232,14.846132,-16.644667
-89.99773,-89.973816,-82.665596,-54.73683,26.022976,23.178333,-28.33642
-89.99747,-89.990875,-88.10155,-53.7463,20.318886,54.665886,-11.553513
-89.9973,-89.976585,-90.61514,-56.649517,24.744452,41.43681,-1.369516
-89.99629,-89.950516,-93.22138,-63.738647,23.471422,41.885307,26.217045
-89.99641,-89.95308,-100.3889,-67.58176,12.547624,79.552025,88.916435
-89.996735,-89.96001,-91.53658,-59.827774,33.501373,30.152346,-3.7018363
-89.99753,-89.96289,-82.39785,-55.09072,30.75497,25.534613,-33.01701
-89.99797,-89.97317,-82.95673,-58.40253,43.01189,2.4681036,20.363869
-89.997826,-90.00074,-82.18159,-63.37389,44.87226,-32.272392,45.227585
-89.99761,-90.02146,-82.52216,-65.53138,48.438477,-40.067238,42.414276
-89.99776,-90.023346,-81.6008,-63.63979,47.562263,-40.04887,40.29058
-89.99791,-90.01977,-79.81944,-60.29843,44.107853,-39.53874,46.727688
-89.99756,-90.00404,-85.96855,-64.51367,54.159485,-20.37841,8.073573
-89.99773,-89.98846,-89.19573,-62.55981,56.448925,-15.100069,-1.7910016
-89.99777,-89.98448,-88.779915,-60.97431,57.731594,-13.994039,-2.0068614
-89.99789,-89.98624,-86.96768,-60.281677,57.64633,-12.699638,-1.484268
-89.99778,-89.98856,-87.393555,-60.249805,56.640755,-12.730433,-0.9325028
-89.99779,-89.98967,-89.81758,-60.028957,54.56193,-13.350618,-1.6458302
-89.99788,-89.99269,-90.53067,-58.1399,49.111904,-14.065813,-3.1636527
-89.997734,-89.98821,-87.60659,-59.703613,55.13029,-11.230346,-0.31711558
-89.99782,-89.985695,-84.36274,-61.70662,60.45888,-7.9289002,2.07462
-89.99792,-89.985,-83.85586,-62.51647,62.579773,-6.9867077,3.0025115
-89.997925,-89.98493,-83.38455,-61.89417,62.07105,-6.8552136,3.0517993
-89.9978,-89.98509,-84.84652,-62.0511,59.858894,-7.29243,2.5549824
-89.997635,-89.98673,-86.17125,-59.954712,55.365913,-8.302035,1.3446691
-89.997734,-89.98864,-89.881874,-57.218086,48.274097,-10.18339,-0.84126616
-89.99762,-89.98603,-85.52335,-61.04232,57.232815,-7.9508786,2.1088526
-89.997925,-89.984505,-81.565956,-59.305107,60.362984,-6.6803155,3.2638571
-89.99802,-89.98369,-79.53406,-57.71282,62.219303,-5.632296,4.0749803
-89.998,-89.98372,-79.73884,-57.80724,61.960407,-5.7384567,4.045325
-89.99789,-89.984566,-81.970535,-59.363182,59.68617,-6.888969,3.2034936
-89.99763,-89.986084,-85.18012,-60.33357,56.683975,-7.8633404,2.2089298
-89.99769,-89.9874,-88.35319,-56.479782,49.226395,-9.029734,0.3201682
-89.99778,-89.98523,-84.42068,-60.7044,58.20487,-7.0498066,2.5855184
-89.99798,-89.98455,-83.112564,-61.68641,63.285553,-5.97192,3.5421283
-89.99813,-89.98493,-82.409004,-60.793167,64.89914,-5.2365413,3.420196
-89.99816,-89.985664,-82.00493,-59.9318,64.353806,-5.58459,2.953061
-89.99809,-89.986496,-81.846565,-58.98391,61.73284,-6.684875,1.9585456
-89.99793,-89.98549,-84.31798,-57.68112,58.337395,-8.967121,1.1215996
-89.997665,-89.99337,-83.01458,-59.93048,54.3944,-11.901336,1.9766867
-89.9976,-89.97852,-84.747,-60.01602,60.780483,-3.3780324,-3.8917692
-89.997536,-89.96605,-84.50255,-59.306126,62.47516,4.647484,-5.985317
-89.99701,-89.95669,-86.717705,-59.95005,65.53149,8.928079,0.6559966
-89.99666,-89.95922,-86.728195,-59.725517,64.48248,7.529832,21.998047
-89.99722,-89.96271,-83.744064,-58.404804,54.966354,5.2563453,49.481133
-89.99825,-89.93572,-80.430504,-55.024864,52.3036,23.784662,70.24428
-89.99756,-89.95546,-81.857834,-51.613495,48.767506,38.913284,42.631397
-89.996666,-89.97768,-86.23458,-55.89045,46.13836,65.76181,-44.04373
-89.99662,-89.98174,-87.94276,-56.45234,42.495632,61.33439,-41.43804
-89.99669,-89.968994,-86.32344,-56.70562,43.73605,40.13282,-30.528088
-89.9968,-89.96288,-88.03029,-56.46489,44.08721,20.069695,-12.102128
-89.99791,-89.949394,-92.85142,-62.80068,49.553127,16.669662,7.289201
-89.99889,-89.963615,-96.37939,-65.59748,46.247738,54.111862,44.62634
-89.9997,-89.97652,-106.22879,-62.011467,41.47726,95.118225,109.07894
-89.99796,-89.95394,-90.49883,-63.35948,52.939476,13.058938,5.0499454
-89.9976,-89.98176,-87.88263,-54.121517,34.75534,-30.314968,-28.267998
-89.9972,-90.006744,-84.09057,-53.996906,46.680744,-67.51452,-23.45781
-89.99688,-90.025894,-88.42758,-56.96909,67.104614,-99.42118,6.6660833
-89.99629,-90.031166,-92.94204,-60.086384,80.345474,-110.17078,14.181554
-89.99619,-90.03112,-91.08783,-60.97745,83.28914,-106.35541,8.7231455
-89.99701,-89.963036,-87.947624,-48.71099,67.71627,1.1113902,71.95901
-89.99581,-90.02468,-90.71315,-64.28002,88.15006,-78.42064,-32.230564
-89.99636,-90.02013,-94.71271,-65.11902,92.851456,-72.85429,-34.32767
-89.99678,-90.00596,-95.92325,-64.154045,90.82688,-58.544155,-24.88383
-89.99688,-90.00172,-97.04214,-61.90861,90.19511,-58.283104,-16.744383
-89.99668,-90.00424,-100.09691,-61.25861,89.564964,-61.584175,-10.040903
-89.997444,-89.9707,-91.51011,-57.224655,81.908936,-6.1206317,7.324377
-89.99718,-89.96987,-86.25629,-54.218624,75.650406,-4.1014185,7.834573
-89.99738,-89.96887,-92.05639,-56.165806,86.77179,-5.415857,8.759429
-89.99714,-89.98456,-98.22096,-60.64558,91.82353,-33.81666,-1.7457869
-89.99757,-89.96868,-87.96146,-53.80049,88.56536,-19.012226,-7.3680525
-89.9976,-89.968315,-87.49421,-53.58992,88.46647,-18.160395,-6.700424
-89.99711,-89.98665,-98.1384,-62.738205,90.33874,-33.274666,0.37484488
-89.99732,-89.96534,-88.088234,-56.21654,85.945435,-1.6311731,11.05186
-89.99733,-89.96631,-83.078835,-54.395847,76.241356,0.13217384,10.579544
-89.99737,-89.96433,-87.84326,-55.875195,87.62645,-1.2676393,11.461505
-89.997574,-89.96129,-83.653694,-51.974075,87.68079,-10.84216,-7.2956796
-89.99792,-89.9658,-78.54179,-56.30699,79.5056,-3.8347247,-10.704161
-89.997925,-89.96625,-78.55616,-56.21503,80.18654,-4.41259,-10.30172
-89.99764,-89.968864,-87.62239,-53.31912,88.82617,-16.633,-3.1493382
-89.99734,-89.96218,-85.400696,-55.4017,87.22305,0.35872656,12.511193
-89.99733,-89.96491,-81.86193,-53.488922,77.70899,0.98802197,11.576754
-89.99735,-89.96625,-92.00223,-54.83724,91.952194,-4.4109826,10.479213
-89.99753,-89.95802,-87.284645,-52.971535,87.10135,-10.029085,-9.378568
-89.9973,-89.94045,-88.66562,-54.26109,82.26843,10.285004,-12.9846115
-89.99721,-89.93963,-90.34335,-54.790527,81.69901,11.023333,-13.008681
-89.997444,-89.95513,-92.60859,-54.253227,85.18082,-5.0219426,-10.038569
-89.99734,-89.98913,-98.03447,-57.68619,89.70166,-42.680748,-10.701365
-89.99739,-89.971466,-93.274025,-55.314827,77.004654,-6.5839615,13.59822
-89.99789,-89.97061,-92.960625,-58.233036,87.13483,12.1051855,-32.618645
-89.99705,-89.938286,-87.21492,-54.73294,80.69033,65.88419,-41.80098
-89.99708,-89.94108,-86.91463,-52.11906,76.34465,60.65507,-25.944166
-89.99781,-89.94708,-85.03252,-51.11788,75.887,58.87815,-4.092481
-89.998955,-89.94073,-87.82854,-51.31549,81.06692,51.52212,13.534712
-90.00026,-89.9312,-92.93736,-53.94627,86.17537,49.958347,37.365852
-90.0016,-89.92999,-92.92869,-53.641476,81.21465,38.203594,76.91815
-89.99817,-89.89434,-93.925255,-52.486717,76.3538,106.29456,-94.11811
-89.994644,-89.90841,-93.67721,-53.131718,62.59322,83.76426,-55.558414
-89.9951,-89.886955,-92.549805,-57.197975,67.42715,91.96834,-20.671871
-89.99512,-89.85602,-96.04365,-59.36754,80.16455,106.31569,6.37175
-89.99583,-89.83864,-102.246574,-61.694916,87.68054,113.95157,39.23607
-89.99659,-89.863335,-103.292816,-59.387333,86.49548,121.50441,71.00349
-89.997375,-89.892296,-105.83785,-58.776287,85.96875,119.379654,93.85535
-90.002365,-90.01096,-94.436066,-45.377384,-26.71884,-67.7849,-33.252083
-90.0008,-90.01659,-90.92612,-43.263912,-21.28836,-83.83873,-47.02992
-89.99962,-90.0834,-88.531845,-42.301613,-47.46982,-73.20802,-19.286388
-89.998825,-90.066185,-91.380714,-40.142048,-76.777695,-73.54513,50.115967
-89.99892,-90.063995,-87.714195,-41.912575,-85.887024,-67.10765,5.4171543
-89.99922,-90.0683,-87.02632,-39.831062,-91.44152,-73.085495,14.524156
-89.998474,-90.05785,-88.44051,-33.609203,-92.73007,-79.48698,32.542263
-89.99884,-90.03169,-85.55669,-30.86733,-93.00084,-60.278877,-27.170393
-89.9991,-90.02238,-89.33725,-30.577007,-99.21292,-58.71217,-29.590345
-89.99913,-90.016045,-89.56497,-29.899223,-103.12278,-54.50321,-29.33394
-89.99925,-90.01363,-91.53884,-29.979996,-102.98161,-51.151096,-22.466345
-89.99918,-90.0054,-92.05793,-29.0381,-98.6148,-44.28025,-10.082651
-89.99904,-89.99565,-96.5384,-30.766851,-88.33888,-42.015186,4.75556
-89.99936,-90.007225,-93.82272,-30.738415,-90.57121,-39.417328,28.67422
-89.99925,-89.99048,-98.40642,-27.858274,-87.13401,-38.93441,14.20818
-89.99939,-89.985214,-99.07121,-27.665314,-85.16076,-33.650406,4.169133
-89.99948,-89.98583,-99.23199,-27.65921,-84.17371,-30.904013,3.4190419
-89.999535,-89.98796,-99.523224,-27.049997,-86.506935,-31.609957,8.9900055
-89.99973,-89.99774,-97.64352,-25.938354,-88.7129,-30.81649,19.192024
-90.00075,-90.02448,-96.259705,-29.018286,-94.18783,-26.7477,42.432224
-90.002716,-90.06333,-91.421974,-32.044933,-99.99049,-12.349184,76.42893
-90.0014,-90.03695,-95.56583,-29.494066,-90.10954,-18.398468,53.951683
-90.00064,-90.013405,-98.51231,-26.331455,-88.24424,-22.533937,31.97657
-90.00046,-90.00945,-99.10057,-26.308054,-87.00762,-22.367935,26.736706
-90.00092,-90.01762,-98.12424,-26.39498,-85.185135,-17.448832,34.42449
-90.00188,-90.04086,-96.09045,-29.463467,-86.61345,-10.812924,58.33044
-90.003204,-90.06428,-93.0728,-29.841652,-100.66918,-5.8284736,80.8382
-90.01037,-89.90951,-101.51745,-14.981664,-96.92775,21.509985,120.78226
-90.00208,-90.00054,-76.75781,-25.31548,-92.75805,8.600718,1.1192685
-90.00122,-90.00371,-97.8601,-31.184158,-88.628365,-6.4915466,7.494033
-90.00199,-90.008766,-80.777115,-23.155027,-85.668175,5.268989,-0.818868
-90.002,-90.00972,-87.083275,-19.761932,-80.003975,9.107783,15.916431
-90.0028,-89.99023,-94.68639,-14.882749,-81.83308,13.226643,51.180656
-90.00358,-89.95517,-91.04133,-20.89137,-86.66877,21.318115,48.99412
-90.007706,-89.97764,-108.199455,-21.548725,-101.568924,34.701763,101.09145
-90.00288,-89.968605,-87.95734,-26.680382,-81.028015,3.4193575,28.952179
-90.00194,-90.00416,-86.91877,-27.027885,-78.23317,-2.4404724,7.366769
-90.00118,-90.01752,-87.70733,-27.112392,-77.58496,-5.299728,-4.3433495
-90.00044,-90.01125,-86.94326,-28.188679,-81.38493,-6.488075,28.543396
-90.00079,-89.98293,-86.56642,-28.137506,-85.47561,12.765558,74.21077
-90.00607,-90.05467,-107.66851,-22.93894,-107.34146,52.72361,78.73949
-90.00761,-90.03576,-114.20532,-17.627958,-103.02344,55.606728,89.19881
-90.000824,-89.98507,-87.783264,-35.648426,-86.81943,63.46709,-36.15573
-90.0011,-89.99649,-85.02605,-34.832893,-85.402855,52.242203,-49.851753
-90.00173,-90.00873,-92.916855,-36.226128,-78.487495,26.993624,-38.66459
-90.00275,-89.99977,-95.276436,-33.844177,-79.72379,39.13352,-25.784676
-90.00253,-89.993034,-91.1786,-35.329765,-84.96854,52.244896,3.2168045
-90.00587,-90.074615,-113.2671,-16.633211,-94.44783,97.25717,92.02465
-90.00632,-90.05117,-116.84932,-14.482607,-94.83138,113.88826,105.974014
-90.0026,-89.99034,-91.44146,-32.615364,-83.09547,53.92376,6.602094
-90.001564,-90.01537,-92.149506,-36.783367,-74.53758,21.15295,-37.527042
-90.00003,-90.011955,-87.963524,-25.668087,-73.849266,14.149103,-39.66397
-89.99909,-90.00412,-88.727615,-18.092857,-78.08681,13.454003,-17.089386
-89.99944,-90.00241,-89.321976,-24.55763,-84.29527,16.045792,49.63371
-90.00002,-90.00304,-84.03008,-28.66867,-72.174866,-23.621723,70.5452
-90.00138,-89.969604,-83.59227,-29.573092,-68.88005,-40.686665,91.22389
-90.001,-90.02392,-83.18602,-28.299843,-60.366413,-35.43371,4.3865733
-90.00031,-90.02392,-84.39089,-28.12319,-58.300137,-9.465935,-47.071926
-90.00002,-90.03566,-95.197495,-25.027815,-59.16135,-19.240973,-25.95104
-89.99987,-90.03047,-92.10024,-22.20024,-58.42766,-23.696098,-0.92190385
-89.9999,-90.03007,-87.698616,-21.802492,-57.42583,-26.855232,37.3873
-90.00082,-90.02508,-84.32714,-25.650778,-58.682068,-12.269896,42.713116
-90.00148,-90.006676,-88.97085,-23.603535,-66.26697,-7.2178154,57.317833
-90.00016,-89.989914,-95.74529,-27.831999,-79.15155,-9.46633,-11.01702
-89.99983,-89.98811,-93.49627,-27.826782,-72.33139,-8.21261,-10.331687
-89.999664,-89.98921,-94.353775,-28.016867,-70.299614,-9.728047,-7.988907
-89.999626,-89.99062,-95.17162,-27.63416,-72.42172,-12.318172,-4.4917164
-89.9996,-89.99444,-95.914246,-26.880886,-77.3411,-17.104471,2.4370916
-90.00012,-90.00927,-97.41663,-27.52479,-87.00102,-25.558996,25.790604
-90.001595,-90.05126,-90.84292,-31.2724,-90.550735,-17.846169,64.30043
-89.999886,-90.007935,-97.06011,-26.789133,-86.123566,-27.132458,25.755535
-89.999466,-89.99541,-96.89862,-26.978273,-78.73595,-21.194645,7.492117
-89.99942,-89.99156,-97.331024,-27.429039,-75.254364,-19.026396,4.278428
-89.99944,-89.9919,-97.54573,-27.309511,-76.39036,-19.973965,5.3382006
-89.99952,-89.999535,-96.66359,-26.558418,-80.88134,-24.238329,14.141807
-89.99996,-90.0116,-95.6214,-28.134317,-89.06334,-28.502468,31.712627
-90.00156,-90.04769,-91.21708,-30.719524,-89.20206,-15.156049,63.446453
-89.99978,-90.002785,-95.614876,-26.885307,-80.81511,-22.710308,15.270218
-89.99961,-89.99114,-94.20162,-27.441214,-70.3406,-12.290491,-4.8326526
-89.99962,-89.9894,-91.835754,-27.784779,-62.391903,-7.357265,-11.385026
-89.99962,-89.98937,-89.577995,-27.36773,-60.787373,-6.631372,-14.299981
-89.999886,-89.98904,-90.54694,-27.625559,-65.787674,-6.3344865,-15.467529
-89.9998,-90.0255,-84.96334,-24.190065,-50.91672,-25.597284,46.50552
-90.00096,-90.01814,-89.01444,-26.918053,-51.174408,-14.866192,65.52368
-89.999756,-90.03518,-88.13772,-30.181673,-47.575363,-15.5020485,-12.591041
-89.99855,-90.03692,-90.3431,-29.392698,-55.412247,15.359931,-71.244385
-89.99759,-90.028755,-86.20437,-26.090864,-52.86736,32.34293,-59.15774
-89.99747,-90.023026,-86.75183,-23.297224,-49.98431,4.161163,-5.465948
-89.99735,-90.02934,-88.0756,-27.289486,-47.283512,42.265144,21.09512
-89.99777,-90.01763,-83.87418,-25.982492,-64.30659,64.00063,53.899403
-89.99771,-89.99109,-80.14277,-28.86534,-69.12425,57.568554,103.07809
-89.998085,-90.013596,-84.66188,-22.972376,-57.476402,59.036686,-48.144115
-89.9997,-90.0249,-90.5179,-30.682985,-52.14569,-13.181303,-66.48455
-90.0005,-90.01692,-90.95547,-35.105576,-52.305473,19.528715,-35.738102
-90.00125,-90.015335,-93.67059,-35.628937,-51.992294,46.642944,-13.918439
-90.00184,-90.00666,-95.44595,-35.04326,-53.71952,58.09636,6.080239
-90.002556,-89.99315,-94.62458,-34.677452,-56.91016,58.846653,43.31935
-90.00093,-89.97232,-94.10253,-34.62836,-54.864212,82.28189,107.11146
-90.00196,-89.98206,-92.49273,-37.28426,-50.285408,24.777323,-4.3834887
-90.00004,-90.01362,-94.35473,-35.537872,-48.95786,-8.215417,-47.795914
-89.999374,-90.01399,-91.50807,-29.572233,-41.079876,5.278058,-62.336533
-89.99746,-90.01838,-91.288345,-28.375385,-32.759724,19.150997,-46.00661
-89.99703,-90.029175,-87.8656,-26.288729,-36.296688,48.856964,4.9806094
-89.99629,-90.05747,-83.99039,-33.28838,-37.577778,12.712906,40.596706
-89.997246,-90.05983,-84.835144,-33.259445,-30.46722,-11.373277,83.1945
-89.997734,-90.04895,-89.71851,-31.024925,-36.69658,-44.062622,-21.816301
-89.99938,-89.991585,-91.90872,-27.861866,-43.808792,-6.1681075,-20.675657
-89.99921,-89.99204,-91.69888,-28.394188,-41.93238,-7.08017,-19.031942
-89.99914,-89.994995,-91.73396,-28.515263,-43.34034,-7.152597,-16.6155
-89.9992,-89.994896,-91.88961,-28.573639,-46.84811,-6.8517094,-14.037179
-89.99922,-89.99221,-89.33174,-29.755068,-48.428642,-7.4390516,-10.601819
-89.999146,-89.996956,-89.937355,-28.119196,-67.72109,-22.784876,10.664596
-89.99918,-89.99167,-90.28325,-29.15219,-49.15404,-7.8486,-8.8477
-89.999115,-89.99569,-92.602615,-28.343145,-45.22261,-8.595431,-10.673942
-89.999084,-89.9987,-93.45173,-27.974987,-42.705894,-9.462265,-11.108237
-89.99905,-89.99807,-93.151215,-28.236216,-42.761105,-9.325508,-10.1532
-89.99903,-89.99423,-92.09045,-29.18272,-45.496727,-9.051128,-7.8929048
-89.999016,-89.99242,-90.76354,-29.041084,-54.83458,-12.793668,-1.1768337
-89.99837,-90.01222,-89.665726,-25.32387,-71.45189,-30.975378,33.90054
-89.999,-89.992874,-91.271774,-29.906303,-51.99731,-9.921774,-4.216686
-89.99893,-89.99606,-92.14149,-28.908958,-42.389107,-8.948756,-7.4800086
-89.9989,-89.99825,-92.551704,-28.144049,-39.543472,-8.553502,-8.388889
-89.9989,-89.99774,-92.27911,-28.298782,-39.48732,-8.551332,-8.041894
-89.99894,-89.994934,-92.077156,-29.334642,-43.84359,-9.276433,-6.6848984
-89.99895,-89.9931,-90.88171,-29.226286,-53.30868,-12.724628,-0.10817013
-89.998184,-90.012825,-89.41555,-24.6616,-69.160126,-30.985945,34.976387
-89.999016,-89.993416,-91.25887,-29.854195,-48.364395,-9.347635,-5.846064
-89.99906,-89.9973,-92.91312,-28.237541,-41.32188,-8.826235,-10.203561
-89.99907,-89.999916,-93.34538,-27.837948,-39.430573,-8.743872,-12.175097
-89.99908,-89.99957,-92.82677,-28.19374,-39.27865,-8.511998,-12.884141
-89.99913,-89.99712,-92.45339,-29.040482,-42.46395,-8.1997595,-13.08134
-89.99919,-89.992165,-90.46996,-29.88458,-43.996033,-6.9313364,-11.916912
-89.99908,-89.993546,-90.0107,-30.366991,-54.24315,-16.472677,3.859428
-89.99933,-89.994415,-90.3501,-28.796282,-40.486984,-6.220615,-16.746355
-89.999306,-89.99052,-92.79873,-29.115515,-34.637177,-6.9399304,-22.517103
-89.99919,-89.99077,-93.73131,-29.663807,-32.555775,-6.6134195,-25.61449
-89.99837,-90.01202,-87.749756,-27.538277,-28.178226,36.254295,7.3561306
-89.9976,-90.03543,-88.520874,-25.912262,-21.415644,-23.249434,50.38676
-89.995995,-90.042076,-83.15811,-27.833185,-35.235878,71.82201,26.054558
-89.996506,-90.02697,-81.46401,-32.58293,-46.06745,67.95544,83.85453
-89.99786,-90.02627,-79.3483,-22.731897,-43.308624,51.44543,-64.191444
-89.99919,-90.00913,-91.192635,-32.125957,-30.11873,-6.9533668,-63.060364
-90.000404,-90.01128,-90.43856,-33.570446,-34.167137,39.161484,-21.65162
-90.00114,-90.01067,-91.80404,-33.059784,-36.892185,53.25435,-5.3505306
-90.00218,-89.98104,-93.656105,-33.107063,-35.397972,48.838726,3.6218731
-90.00109,-89.94279,-89.71476,-31.634254,-29.528908,69.505295,64.38432
-90.000275,-89.93241,-97.99999,-33.49303,-42.62938,91.93049,121.7467
-90.00106,-89.97823,-93.67974,-33.830738,-28.115583,-9.982002,-21.202883
-89.99962,-90.00254,-92.71734,-35.328026,-27.746927,-5.750717,-38.112747
-89.99903,-90.0138,-90.972984,-33.42972,-16.83942,19.49969,-48.530354
-89.99783,-90.041664,-91.24539,-31.166819,-12.998355,-70.16161,-5.2971644
-89.997375,-90.03986,-88.359085,-26.140612,-13.733444,-33.830242,38.454784
-89.99648,-90.06854,-85.626945,-27.546713,-11.223791,-53.11044,74.890175
-89.99649,-90.08231,-87.29247,-30.925022,-8.297327,-65.68482,82.35686
-89.99925,-89.996185,-92.38554,-30.065212,-21.276981,-8.651915,-23.874352
-89.998886,-89.99535,-91.62068,-30.84487,-16.56794,-9.106755,-20.042416
-89.99878,-89.99341,-92.42117,-31.790844,-13.078758,-9.3679285,-17.567806
-89.99879,-89.99257,-91.68481,-31.68007,-12.643727,-9.480878,-15.75918
-89.99884,-89.9926,-90.29246,-30.890764,-14.37292,-9.474965,-13.908417
-89.998924,-89.99494,-89.657234,-29.913618,-20.659271,-8.528505,-10.591851
-89.99881,-89.99833,-87.80647,-28.587057,-21.822578,-11.273613,7.6299973
-89.998886,-89.99625,-89.94733,-29.49355,-18.509617,-8.57459,-9.462944
-89.998634,-89.99561,-89.623474,-30.993845,-10.4636135,-9.436356,-11.393384
-89.99853,-89.99596,-89.477234,-31.30871,-6.566735,-10.609991,-12.493181
-89.99853,-89.99668,-89.3369,-30.979668,-6.6361933,-10.658907,-12.061629
-89.99866,-89.99772,-89.588486,-30.240206,-11.089158,-8.893629,-9.596274
-89.9988,-89.99699,-90.183754,-29.245243,-16.343174,-8.050206,-6.63818
-89.998795,-90.00135,-87.520294,-27.785933,-18.353838,-9.559622,7.954994
-89.998726,-89.9975,-90.01878,-29.489319,-13.9446945,-8.239785,-7.0135174
-89.998535,-89.99858,-88.78423,-29.914669,-6.2895575,-9.062042,-11.329831
-89.99842,-89.99872,-86.922264,-29.89295,-1.8322437,-7.8417053,-14.970243
-89.99844,-89.99879,-87.034134,-29.848833,-2.3879533,-7.7240796,-14.364656
-89.99858,-89.998955,-88.84461,-29.693953,-7.3896914,-7.7353945,-10.314229
-89.99873,-89.99712,-89.99143,-29.365341,-13.739268,-8.142633,-6.14604
-89.998795,-90.00127,-87.77787,-27.657967,-16.383028,-8.968779,7.5630255
-89.99873,-89.99741,-89.68572,-29.739202,-12.525314,-8.621633,-7.624454
-89.99851,-89.994804,-89.33499,-31.301735,-4.540214,-10.526283,-11.590505
-89.99844,-89.99282,-89.76596,-32.15662,-2.5222023,-11.414193,-13.089072
-89.998474,-89.9918,-90.11475,-32.63213,-3.3188498,-10.058122,-12.489768
-89.99868,-89.99146,-90.248985,-31.598104,-6.0074034,-9.96867,-12.298174
-89.99889,-89.99098,-89.26391,-29.85215,-9.658705,-9.706447,-13.031452
-89.998924,-89.99355,-86.621414,-28.885845,-12.20929,-12.780982,4.604487
-89.99897,-89.992714,-90.47467,-29.571268,-6.032543,-10.13891,-20.83347
-89.99892,-89.993675,-94.21188,-30.878504,-4.63607,-10.318548,-25.493483
-89.99882,-89.99438,-96.531586,-30.989752,-5.985444,-8.82449,-29.757015
-89.99918,-90.01818,-79.396225,-34.27598,-7.948278,26.439835,7.5104146
-89.99771,-90.03163,-85.030136,-28.11196,-3.213761,-17.544802,25.135647
-89.99624,-90.04013,-80.342575,-27.504377,-12.476577,48.81193,32.234802
-89.99573,-90.04574,-84.49164,-32.763077,-16.06492,69.732414,70.31165
-89.998,-90.02242,-81.73098,-27.043242,-21.388044,36.16374,-81.285576
-89.998276,-90.00181,-87.38104,-31.050714,-4.809179,8.403028,-50.97203
-89.999306,-90.00855,-87.21838,-30.218102,-10.841967,45.796375,-24.540926
-90.00049,-89.99822,-86.983376,-29.084301,-11.898837,63.814808,-3.5228233
-90.00098,-89.96948,-88.77562,-30.380434,-11.793401,50.419827,9.9120455
-89.99941,-89.93494,-95.12476,-36.440685,2.4937558,87.35339,76.141624
-89.99975,-89.93274,-101.1421,-33.9426,-3.37885,109.315994,105.00081
-90.000084,-89.974236,-90.20112,-31.86699,1.6833677,-12.52063,-10.443959
-89.99866,-89.9964,-86.059525,-32.281013,1.2124993,-13.457614,-36.08202
-89.99766,-90.04346,-89.87412,-29.908861,3.2381673,-61.969944,-13.150494
-89.99778,-90.05224,-91.366,-30.96838,0.32105348,-106.42879,-9.014203
-89.99729,-90.04599,-88.007484,-29.64432,-1.9414004,-69.541,18.212667
-89.996544,-90.0434,-80.60599,-24.73712,1.1228467,-38.070717,68.697105
-89.99965,-89.99632,-80.44616,-27.078806,13.40206,-8.651203,-11.228551
-89.998505,-89.99122,-88.18933,-28.483915,12.343643,-5.0544386,-28.364538
-89.99831,-89.993866,-93.02845,-31.3513,12.197245,-11.285288,-23.405436
-89.997925,-89.988884,-95.347145,-32.980865,11.669085,-12.7751255,-15.659656
-89.997826,-89.986725,-94.886955,-32.744602,13.358741,-14.497702,-13.816268
-89.99795,-89.986206,-92.95592,-31.854193,13.106543,-13.55231,-12.65741
-89.998245,-89.98645,-88.86742,-30.411198,12.97124,-10.974095,-12.994325
-89.99871,-89.98726,-82.017365,-28.197168,12.34045,-9.248673,-5.755653
-89.99812,-89.98555,-89.84544,-30.120796,14.899118,-12.4767685,-11.40873
-89.997986,-89.98397,-93.51724,-29.935944,24.201605,-8.070898,-14.792931
-89.9979,-89.984436,-94.75683,-30.141953,26.306656,-7.9425015,-15.315381
-89.99789,-89.984375,-94.73518,-30.03859,26.521296,-8.046862,-15.148401
-89.99802,-89.98555,-93.09321,-29.415113,24.99004,-6.8735723,-15.8333235
-89.99821,-89.989075,-88.532715,-28.826553,17.489351,-6.5208135,-15.269903
-89.998436,-89.98957,-84.67346,-28.414062,11.469549,-4.2088037,-8.3333645
-89.99814,-89.987236,-90.40818,-28.804745,21.169605,-5.938072,-15.790563
-89.997856,-89.98402,-94.68568,-29.717834,27.268248,-8.303132,-14.466976
-89.99774,-89.982445,-96.234795,-30.26254,29.062069,-10.237455,-13.30024
-89.99776,-89.982544,-96.00078,-30.14822,28.907625,-9.931836,-13.3415165
-89.99791,-89.98445,-93.92372,-29.38482,26.904043,-7.5807157,-14.615684
-89.99816,-89.98698,-89.87567,-28.543919,20.927929,-5.633813,-15.41043
-89.9984,-89.99024,-84.518814,-28.12106,12.789437,-3.82296,-10.122314
-89.99808,-89.98376,-91.20218,-28.891428,22.872137,-6.546353,-13.99564
-89.997894,-89.98378,-94.07641,-29.753344,27.750536,-7.614652,-13.403484
-89.997856,-89.98239,-95.20701,-30.111372,29.165325,-8.386301,-12.68739
-89.99775,-89.97827,-95.608955,-30.622404,28.631302,-9.547954,-10.28128
-89.99774,-89.974915,-93.51194,-30.255508,23.886312,-13.529789,-7.9994655
-89.998085,-89.97442,-88.48207,-29.63889,17.818508,-11.087179,-11.161852
-89.998764,-89.97208,-78.583595,-27.801407,21.067356,-6.9036803,0.3015772
-89.99794,-89.971695,-85.71496,-30.16633,19.736462,-9.291773,-20.890476
-89.997635,-89.967514,-89.50473,-31.645138,20.895615,-8.7012825,-23.659472
-89.99863,-89.98538,-82.13266,-24.473898,26.98566,10.869623,-37.598576
-89.99839,-89.98685,-84.09323,-31.107893,33.71185,24.43249,-43.18747
-89.9976,-90.022644,-84.48969,-28.857885,30.682932,-14.767379,-4.0458627
-89.99599,-90.02944,-77.97444,-27.907166,9.63074,9.9423485,39.94839
-89.99672,-90.04534,-76.88589,-24.684513,18.175877,43.40248,75.08892
-89.99798,-90.0193,-72.55428,-32.757454,5.4685984,33.696735,-77.38009
-89.99686,-89.99057,-84.87577,-35.990253,21.883377,48.751186,-62.054714
-89.99788,-89.999016,-86.01597,-33.559914,18.385593,39.69209,-28.884478
-89.9993,-89.984825,-89.70541,-29.578705,17.107374,68.55811,-1.8596697
-89.99989,-89.96174,-94.58693,-30.346643,14.67611,58.707394,9.941832
-89.99821,-89.93197,-94.50812,-38.54642,27.924244,99.070946,66.84709
-90.00024,-89.94387,-103.281044,-34.31722,16.192072,107.17182,94.058525
-89.99854,-89.96706,-89.540726,-29.852499,29.504818,-14.023725,-6.082442
-89.9972,-89.989876,-84.88104,-32.37324,28.369465,-6.851197,-35.931557
-89.99509,-90.03273,-88.33959,-32.678867,38.809315,-110.1581,-8.5079
-89.99587,-90.01929,-94.63023,-30.836943,48.315372,-104.50098,-10.859006
-89.99718,-90.01576,-91.11001,-32.011353,46.12539,-62.6212,1.7831072
-89.996445,-90.04997,-83.7051,-26.66343,51.74988,-59.601284,43.92845
-89.99546,-90.06618,-83.78292,-22.600653,49.191177,-106.13268,78.95124
-89.997795,-89.99877,-83.3603,-25.87623,45.40652,1.9038081,-45.260918
-89.99815,-89.98059,-80.256004,-23.413658,47.892315,-12.40742,-40.884556
-89.99807,-89.98299,-76.66919,-26.357721,56.126278,-31.911564,-22.232603
-89.9974,-89.93191,-97.32043,-32.762745,56.55016,-12.165404,10.730715
-89.99744,-89.93395,-96.29203,-31.734156,53.472828,-11.462033,10.693519
-89.997536,-89.93091,-93.79554,-29.798658,48.93731,-10.79873,12.180302
-89.997795,-89.930275,-88.37415,-25.30328,38.784145,-9.498829,12.072965
-89.99758,-89.94723,-94.67621,-30.66677,49.10168,-10.245839,7.2451577
-89.99783,-89.96694,-93.99253,-32.273296,55.595802,-9.772069,1.894695
-89.99795,-89.97418,-94.23317,-33.730038,61.190628,-9.298669,0.4819694
-89.997986,-89.97565,-93.837135,-33.587513,61.13325,-8.805854,0.18129049
-89.99794,-89.9766,-93.49911,-32.114113,54.954758,-8.834395,-0.28461096
-89.997856,-89.96878,-92.53478,-29.45211,46.197315,-8.813833,1.4483497
-89.9977,-89.95077,-92.353546,-28.294527,40.63164,-9.203522,6.306555
-89.997925,-89.97647,-92.86158,-30.299183,48.70779,-8.412062,-0.41254094
-89.99813,-89.97809,-91.618126,-32.551765,60.79356,-7.0899253,-0.029532535
-89.99819,-89.977264,-91.067474,-33.359047,65.77355,-6.6975083,0.47149265
-89.9982,-89.97746,-90.98655,-33.147392,65.12504,-6.75149,0.3669653
-89.99812,-89.9783,-91.39275,-32.021202,58.95594,-7.048617,-0.024895303
-89.99795,-89.977,-92.44509,-29.863829,47.653008,-8.150391,-0.4813386
-89.99779,-89.95722,-91.758224,-28.243193,41.291294,-8.753058,4.464444
-89.997925,-89.96965,-91.92728,-30.474287,51.296364,-8.781248,1.9031152
-89.99799,-89.96628,-92.70307,-33.276363,63.062164,-9.111596,3.3352222
-89.99795,-89.96043,-93.317406,-34.32632,67.23521,-9.544018,5.136814
-89.99785,-89.95107,-93.60191,-34.548267,67.35466,-10.107067,7.5060115
-89.99766,-89.93517,-94.462555,-33.38121,64.49212,-10.606932,11.578341
-89.997574,-89.91377,-94.86286,-30.898582,57.45914,-11.008006,16.84451
-89.99794,-89.896385,-90.77072,-24.154108,46.73862,-2.907664,26.723907
-89.99804,-89.98215,-81.09244,-22.986164,52.958588,-7.120432,-49.685715
-89.99819,-89.969734,-89.96429,-29.795166,66.77785,15.005425,-48.25866
-89.99804,-89.97038,-90.21579,-33.45233,70.80396,24.92619,-51.11969
-89.99796,-89.97855,-86.831955,-35.7612,74.64375,22.45824,-52.16301
-89.99772,-90.00293,-90.94212,-31.934586,64.42464,-30.643003,-0.87827873
-89.99707,-89.99757,-97.51702,-26.784681,58.46172,-36.034958,38.38071
-89.99551,-90.02359,-77.93674,-26.10228,51.50016,73.19,46.662453
-89.995705,-89.97941,-86.120735,-32.229553,54.18487,67.92793,-63.037903
-89.99697,-89.960655,-87.043785,-31.607386,58.53059,68.409386,-69.23582
-89.997246,-89.968285,-91.227615,-25.200655,39.787025,28.618357,-35.656
-89.99847,-89.944695,-94.29351,-22.613493,48.29705,73.6175,-4.128741
-89.9983,-89.926254,-102.17631,-23.373178,38.36628,47.81396,2.4874198
-89.999146,-89.92486,-105.11973,-30.270508,59.58504,96.59502,73.79067
-89.99992,-89.934814,-104.716736,-28.988724,46.165302,98.791016,93.23921
-89.99769,-89.97162,-102.476494,-18.2203,32.18454,-48.60854,-49.100597
-89.99655,-89.96181,-90.590706,-21.427013,39.464092,0.0803145,-45.03623
-89.99583,-89.98786,-84.97519,-26.783787,77.293144,-76.94773,-16.891542
-89.99647,-90.012955,-93.94838,-23.393232,88.45245,-123.257385,6.1170473
-89.997826,-90.00668,-97.12197,-25.868362,80.31665,-78.50661,12.013206
-89.998924,-90.00131,-90.02116,-18.301273,65.06948,-43.543278,38.94446
-89.997154,-90.0469,-85.65005,-15.433779,67.41439,-66.11093,56.922863
-89.99828,-89.97217,-89.30934,-27.601576,75.745575,6.3301706,-41.187027
-89.997345,-89.978516,-92.76941,-33.17261,92.04793,-39.862053,-18.020044
-89.99646,-89.96121,-97.9992,-34.311707,95.037766,-38.18819,-10.2628975
-89.99711,-89.953476,-96.70877,-34.25219,93.88961,-31.963203,-3.3898911
-89.9977,-89.9538,-92.5671,-33.777985,91.189865,-32.20259,-1.2823182
-89.99785,-89.96512,-85.08079,-27.098446,80.52182,-36.368374,-11.092026
-89.998795,-89.88438,-97.55182,-32.358185,79.86329,-22.398672,58.638363
-89.99761,-89.96376,-87.3661,-27.60888,84.575294,-35.621487,-10.849858
-89.99764,-89.94823,-91.332565,-31.349247,95.44527,-21.620424,0.19911346
-89.99739,-89.938225,-89.034676,-29.989365,90.9579,-9.684366,-6.2773814
-89.99756,-89.939865,-87.526245,-29.577581,90.39016,-10.847153,-6.385188
-89.99768,-89.95332,-87.16009,-28.849154,91.154854,-20.047388,-2.4898062
-89.99873,-89.933105,-87.076645,-33.97305,87.70272,-6.477102,13.872428
-89.99846,-89.92308,-84.85071,-29.976683,78.08133,-6.29995,17.125498
-89.998726,-89.934425,-88.33654,-34.48109,89.41577,-5.911246,13.071767
-89.9983,-89.94851,-78.52583,-27.234787,80.2297,-6.286757,-7.1386857
-89.99892,-89.96757,-61.558563,-18.875546,70.50799,-2.3335924,-14.077564
-89.99897,-89.96825,-60.122185,-17.454672,70.314896,-1.8924134,-13.663615
-89.998184,-89.94709,-78.75995,-25.036583,83.67599,-8.595045,-4.0145674
-89.998634,-89.93335,-86.80965,-32.02507,89.09369,-4.568127,13.653718
-89.998505,-89.92688,-83.99223,-29.54952,79.40755,-5.3048954,15.60275
-89.99781,-89.96178,-80.67071,-20.509176,81.77222,-23.475845,-8.708431
-89.997215,-89.93414,-87.96552,-28.847172,85.43299,2.2329826,-8.754614
-89.99636,-89.92573,-91.78424,-29.734564,81.50318,16.994644,-12.5509
-89.99573,-89.91951,-95.63757,-30.033096,83.77935,19.204063,-9.527699
-89.99622,-89.93176,-95.74206,-30.415098,90.05047,-3.7448683,-4.712308
-89.99756,-89.95522,-92.51868,-31.34381,89.596466,-28.775923,-0.7559974
-89.99819,-89.96769,-79.74255,-20.988516,69.50288,-19.778282,-18.403683
-89.99535,-89.96562,-95.1502,-30.3168,88.25111,-7.9813557,-26.4102
-89.99229,-89.94572,-92.5927,-31.876144,91.37146,51.696037,-46.09975
-89.99115,-89.91159,-96.61658,-31.99692,88.68455,57.369198,-17.815933
-89.99086,-89.885605,-100.81102,-31.249163,87.21468,56.418144,9.85749
-89.99231,-89.85376,-102.32085,-28.475382,80.26239,67.58202,23.540602
-89.99518,-89.824814,-99.45075,-25.543001,83.41099,65.33097,41.479927
-89.99877,-89.88497,-87.66164,-17.31072,77.18836,55.27068,59.69936
-89.99397,-89.84207,-97.4122,-31.406172,74.100266,119.5886,-110.44147
-89.992035,-89.894775,-96.95785,-35.746445,70.681564,122.77099,-39.367992
-89.99347,-89.88388,-93.078255,-29.976805,77.45842,115.297646,-14.248047
-89.99553,-89.872086,-97.2003,-27.475275,83.64956,105.80443,15.442791
-89.99719,-89.88578,-103.36088,-26.429398,86.02938,98.70243,44.227974
-89.99779,-89.90735,-104.66391,-22.512642,83.1824,92.61341,75.233475
-89.99889,-89.929085,-106.7152,-22.93401,77.23719,102.95008,100.74496
-89.99708,-90.00545,-85.050186,-20.110283,-71.17883,-85.82712,-54.378067
-89.99795,-90.02562,-82.659454,-21.357513,-98.51785,-81.50377,-56.11119
-89.996574,-90.06794,-69.81731,-18.358135,-119.205956,-116.66733,-30.758514
-89.99726,-90.067276,-70.05251,-3.2157547,-95.36532,-97.159584,-16.403332
-89.9987,-90.055855,-74.93339,8.283351,-94.81323,-84.76645,4.207888
-89.99937,-90.03016,-82.92732,8.979674,-79.074776,-76.633934,57.735546
-90.0006,-90.06626,-76.70937,-5.6097474,-86.98232,-88.918335,90.41895
-89.998886,-90.035706,-92.49637,9.186715,-88.27352,-50.745613,-79.8434
-89.99824,-90.013885,-86.81914,7.352109,-96.6819,-31.943054,-52.596165
-89.99872,-90.015884,-82.542755,13.268204,-86.87944,-29.430069,-22.04567
-89.999214,-90.020386,-83.18979,15.398434,-89.402885,-23.732145,13.052698
-90.00066,-90.044586,-88.80151,22.647087,-82.99484,-43.269135,41.392498
-90.00051,-90.06081,-78.87853,33.561317,-68.088295,-53.31754,82.12232
-90.00649,-90.02794,-75.125786,22.007627,-89.16214,-60.146976,66.66047
-90.00061,-90.05957,-77.308945,39.437687,-66.77035,-78.43239,55.34255
-90.00152,-90.05008,-83.19456,42.465347,-77.172226,-55.84711,-38.158607
-90.001816,-90.042564,-81.369965,44.69672,-75.87431,-26.85581,-54.23148
-90.001785,-90.03343,-80.06762,43.956116,-81.007706,-18.974375,-38.387005
-90.00102,-90.02467,-80.22094,41.332268,-82.61249,-27.704735,20.590183
-90.00136,-90.02461,-82.129944,41.69639,-76.342316,-35.374374,78.002396
-90.00098,-90.01604,-83.93983,30.760279,-77.84235,-18.005556,80.15934
-90.00064,-90.02149,-83.666695,45.28419,-79.42112,-16.556885,68.209404
-90.000496,-90.01059,-85.70169,49.083565,-83.60141,-11.764793,12.333743
-90.00039,-90.01184,-88.53747,51.11843,-86.77813,-8.227769,-4.7665553
-90.00021,-90.01036,-90.59777,50.537514,-87.488335,-7.7343116,-3.3002672
-89.999916,-90.03442,-92.34886,49.926506,-89.54249,-3.91419,42.69899
-90.00011,-90.04736,-92.15655,46.89321,-85.98511,-8.558287,72.173256
-90.0028,-90.04157,-109.20552,37.47681,-109.880974,14.260556,76.064026
-90.00213,-90.02211,-94.98963,50.65393,-92.70733,-8.633459,7.4693127
-90.0025,-90.040855,-94.005745,49.36609,-88.04065,-5.9026256,-52.844173
-90.0017,-90.03211,-93.99769,49.111263,-86.52167,3.4730065,-9.8697815
-90.00173,-90.030174,-100.731255,51.86016,-89.05588,-11.655196,52.095726
-90.00188,-90.04177,-98.439514,47.968742,-92.625015,15.051127,67.19576
-89.99951,-90.04913,-107.808914,42.222816,-100.27332,9.548838,81.9966
-90.00081,-90.02155,-105.17258,42.59982,-110.85732,29.441883,86.680954
-90.00114,-90.05157,-103.56706,45.14803,-99.16975,64.22742,-42.516796
-90.00222,-90.0324,-99.18626,49.515537,-101.27743,76.48625,-89.90113
-90.00146,-90.027405,-91.82024,50.728157,-92.08541,63.432205,-43.43704
-90.001366,-90.02475,-83.48704,48.849712,-81.628006,65.3004,2.5302727
-90.00131,-90.03767,-76.12584,47.497158,-76.4337,58.62619,27.919176
-90.00117,-90.06172,-50.02672,30.087744,-49.89136,66.87253,8.655091
-90.00251,-90.048035,-53.63011,37.43786,-49.08215,61.122055,43.627964
-90.00162,-90.0214,-89.3223,42.567966,-89.116356,86.39187,-89.370346
-90.00148,-90.02005,-78.74655,43.79203,-66.939964,55.100838,-87.52915
-90.00155,-90.01492,-70.886925,42.72397,-59.593937,24.317394,-51.993637
-90.00106,-90.00984,-69.08221,40.62938,-57.321224,2.5436058,-34.6288
-89.99994,-90.00268,-68.594536,41.252697,-56.900352,22.756481,-6.284023
-90.001015,-90.03838,-37.46225,38.818806,-29.088535,89.23386,68.515686
-90.00119,-90.02321,-47.911655,44.614586,-39.13787,104.45108,90.423744
-90.00143,-90.03038,-91.43939,40.502502,-61.28005,-92.92082,-86.88589
-90.00121,-90.04046,-93.407364,40.885902,-71.32769,-77.73369,-61.940163
-90.00033,-90.053925,-95.49614,48.96465,-66.3085,-82.85198,-26.956078
-90.0002,-90.05076,-96.07514,51.64634,-64.08217,-80.31842,5.606317
-90.00046,-90.04163,-93.77974,49.20515,-64.090706,-63.28649,41.180138
-89.99972,-90.05138,-89.26327,49.173096,-57.839973,-82.03262,68.27637
-90.00001,-90.07182,-101.55922,49.293476,-60.602627,-84.30242,100.599754
-89.99986,-90.03246,-85.98373,50.27497,-61.63726,-60.657894,-92.64674
-90.000534,-90.01647,-84.34389,51.90403,-71.47488,22.540014,-84.17354
-90.000946,-90.02631,-82.80155,53.901405,-69.654236,-27.41035,-38.852634
-90.00112,-90.02224,-82.09746,54.516804,-71.55685,-31.221045,24.491703
-90.00193,-90.02733,-85.309814,53.636475,-75.02422,-19.041946,66.74981
-90.00139,-90.05158,-85.5294,54.235073,-69.99302,-59.4487,84.91171
-90.00045,-90.04995,-92.20922,47.979847,-67.854805,-55.171425,101.50732
-90.00186,-90.05517,-87.642494,50.462093,-67.717865,-78.32714,31.381876
-90.00205,-90.03944,-85.30492,51.50424,-78.77942,-16.355421,-61.957623
-90.0019,-90.03048,-83.32344,54.629223,-79.66407,-1.7727368,-32.273697
-90.00136,-90.024574,-81.45513,55.30288,-81.85437,-16.952827,-12.246336
-90.001274,-90.021675,-82.18538,53.858807,-82.55121,-16.184319,-10.648875
-90.0008,-90.01574,-81.0624,44.368347,-81.32906,-17.520914,13.465183
-90.000854,-90.020386,-81.18935,41.962105,-76.94701,-20.520626,76.47724
-90.00066,-90.012276,-81.316376,47.82156,-78.578186,-10.682597,4.813217
-90.00115,-90.01751,-79.31461,54.61088,-79.503006,-5.090888,-4.853997
-90.00127,-90.0177,-77.89026,55.307762,-77.824234,-3.2738104,-6.1484942
-90.00125,-90.01723,-77.76478,55.098812,-77.74147,-2.3151152,-5.5754766
-90.00103,-90.019035,-81.09573,54.0011,-80.47255,-3.1168592,-4.7089434
-90.00062,-90.009125,-80.02398,48.872215,-77.924446,-8.789605,24.812622
-90.00047,-90.02721,-78.575356,43.387314,-76.15162,-13.861338,70.006424
-90.00146,-90.02307,-82.30492,46.225155,-82.838234,-10.858778,-16.81358
-90.00202,-90.029236,-80.65396,53.490986,-78.76178,-2.0685523,-44.52541
-90.00207,-90.0335,-82.2319,52.131767,-77.803535,-6.1315455,-42.50844
-90.00154,-90.02004,-77.40799,52.00036,-75.48779,14.5885725,18.569561
-90.001785,-90.028145,-80.513336,53.02392,-73.44679,-17.418713,52.328316
-90.00133,-90.02855,-78.295685,51.19833,-70.88916,-10.348505,64.5976
-90.0005,-90.01158,-81.29424,53.244247,-73.89814,10.140258,84.97516
-90.001305,-90.01301,-79.14173,49.486988,-74.7491,52.139557,-77.40639
-90.0004,-90.01346,-77.54899,50.888584,-66.434814,12.5601,-83.63782
-90.00112,-89.99714,-74.47965,51.76141,-71.826195,65.37105,-42.412415
-90.001236,-90.00013,-74.17605,51.595024,-71.14669,66.98538,-14.374802
-90.00125,-90.00982,-73.9292,49.90988,-68.5604,22.595318,28.883202
-90.00135,-90.010025,-75.584076,50.033836,-72.30284,64.8929,65.3059
-90.002,-90.01151,-81.50347,52.878315,-76.2909,54.72927,95.99756
-90.00334,-90.02144,-75.28835,51.0482,-69.250946,88.96231,-96.04744
-90.00207,-90.01066,-76.5869,49.904884,-70.033966,75.98694,-67.70001
-90.000114,-90.0151,-78.57017,48.07856,-64.619835,5.3624363,-44.152126
-90.00002,-90.01306,-79.773735,50.813976,-77.17882,97.29457,-7.2495513
-89.99969,-90.00032,-77.54453,49.33087,-74.3733,92.35089,22.661716
-90.000916,-89.984955,-78.077515,48.83771,-69.79757,85.687805,56.488457
-90.00202,-89.99325,-84.70839,53.37595,-76.492256,94.99374,87.63228
-90.00257,-90.039665,-81.55501,46.795406,-47.747063,-88.38527,-87.34095
-90.00113,-90.025406,-74.70276,46.212093,-54.066086,-81.44941,-59.110897
-89.99899,-90.03621,-76.65444,54.43517,-41.398384,-63.254135,-35.707176
-89.99911,-90.039734,-74.59195,53.434895,-39.899685,-90.83826,1.5914146
-90.00088,-90.03264,-74.71337,54.846596,-48.89694,-41.332527,42.902992
-89.99921,-90.05763,-75.671394,52.512222,-39.754753,-101.076355,64.831795
-89.99945,-90.048935,-80.0913,58.199966,-55.38642,-90.953575,96.28908
-90.000046,-90.035706,-74.99272,51.771214,-55.15252,-65.69692,-90.99233
-90.000175,-90.01923,-69.07296,51.590534,-55.523376,1.7269313,-64.89111
-90.00021,-90.034035,-73.12037,52.943146,-54.948032,-57.590744,-25.77012
-90.0002,-90.0281,-71.75642,53.453636,-56.73405,-54.012444,9.543771
-90.00106,-90.01253,-67.62869,52.82735,-63.965134,-29.924438,49.821484
-90.00128,-90.04387,-70.719986,53.00436,-60.9812,-56.27887,70.751526
-90.00059,-90.04898,-68.60425,55.00356,-58.295174,-58.109676,100.21056
-90.00195,-90.047844,-75.02775,50.18133,-62.506844,-61.371048,-26.522772
-90.001854,-90.02791,-67.2198,50.13615,-64.137276,-13.675669,-55.88762
-90.00155,-90.020515,-64.90716,51.910656,-62.13285,-4.7167573,-28.933983
-90.001335,-90.014824,-62.76488,52.909092,-63.424362,-3.246765,-14.536005
-90.00145,-90.012985,-62.535866,52.931095,-67.8703,-6.2779136,-17.803041
-90.00118,-90.01408,-64.07549,45.317028,-69.422806,-20.425772,25.408018
-90.0011,-90.03178,-69.011635,47.45345,-69.05269,-31.401894,88.469
-90.00111,-90.00465,-66.17653,49.052868,-68.92274,-11.755131,0.9390446
-90.00143,-90.01103,-62.196255,54.799057,-67.12893,-6.059822,-2.4991035
-90.00144,-90.01173,-61.17992,55.48462,-65.0664,-3.1891418,-5.344372
-90.00147,-90.01133,-61.161064,55.462845,-65.34361,-2.6991162,-4.4822702
-90.001396,-90.01019,-63.16469,54.46615,-68.27307,-5.7325034,-0.9499136
-90.00112,-90.0048,-62.708046,48.97895,-65.17961,-11.999521,38.43919
-90.001236,-90.02338,-65.8654,50.699097,-66.0379,-21.792852,95.92902
-90.002174,-90.01634,-65.29014,47.96619,-68.33336,-5.7926755,-35.752
-90.0018,-90.01849,-62.675663,51.49536,-62.61381,-0.9308152,-39.30321
-90.001816,-90.02103,-62.399372,50.274197,-59.48929,-3.0798056,-38.765125
-90.001305,-90.00739,-58.991234,49.378174,-58.260944,25.910328,6.7703075
-90.00089,-90.013245,-61.301556,51.269268,-58.304054,-19.211199,48.240696
-90.00121,-90.023384,-63.36674,50.934994,-57.75841,-5.248036,63.026405
-90.000374,-90.005226,-59.46314,52.05547,-62.147495,13.762127,92.17197
-90.00126,-90.00875,-63.025967,50.113953,-59.871895,65.81898,-82.46833
-90.000046,-90.01597,-63.22336,51.82206,-51.78301,17.43129,-74.78263
-90.000786,-90.00733,-58.576027,50.937126,-56.655296,52.634945,-38.556847
-90.000854,-90.01046,-58.16002,50.157494,-55.59898,58.527897,-5.222629
-90.001205,-90.01386,-60.3633,49.397495,-55.020596,27.832808,29.140442
-90.00093,-90.004074,-60.777897,49.27334,-59.038837,51.104065,57.84928
-90.001595,-89.98909,-64.49663,51.021133,-61.57743,52.84021,94.18602
-90.003075,-90.011444,-59.960762,49.96941,-56.045193,83.39056,-89.04263
-90.001205,-90.00634,-60.05225,48.60448,-54.91821,85.38487,-61.525814
-89.999504,-90.00998,-62.03692,47.083374,-56.189407,92.23061,-28.591602
-89.998924,-90.02003,-57.76538,44.077652,-62.120865,100.22754,-2.814902
-89.99992,-90.00224,-62.338966,46.150455,-62.847435,91.90071,30.784676
-90.00185,-89.982925,-65.83949,50.494823,-57.386127,88.938324,66.376076
-90.00213,-89.97143,-67.126015,51.673637,-57.99231,85.43258,91.06952
-90.00276,-90.0297,-64.97898,46.634132,-35.20706,-74.75017,-73.46693
-90.00043,-90.02358,-58.281803,44.8048,-38.846664,-86.91272,-59.73498
-89.998726,-90.03613,-62.11675,52.091953,-18.75242,-74.64528,-34.46221
-89.999146,-90.03783,-58.743225,52.23944,-18.924719,-86.154594,-5.1520557
-89.99994,-90.0324,-56.4273,52.653175,-28.347115,-83.846214,30.6825
-89.99937,-90.059166,-62.176224,51.440228,-32.42323,-91.55976,62.3837
-89.99944,-90.05402,-66.896126,57.46421,-47.223854,-92.49942,93.53114
-90.00009,-90.03722,-59.745823,50.842293,-44.95569,-60.863213,-88.26635
-89.99997,-90.03491,-55.336685,52.144394,-41.295174,-52.855305,-55.21723
-89.99958,-90.04014,-59.752583,53.692043,-41.166107,-64.7815,-22.127996
-89.99952,-90.03565,-58.083523,53.20918,-40.250862,-64.14465,6.1970963
-90.00009,-90.01582,-51.533054,53.142025,-46.50456,-42.753006,41.035027
-90.00094,-90.039215,-56.739616,54.57509,-49.76945,-45.472126,71.50029
-90.000275,-90.04808,-51.009743,51.339123,-46.572098,-53.462837,92.225334
-90.00126,-90.03297,-53.458164,44.967537,-51.67763,-41.5137,-58.496433
-90.00185,-90.01831,-51.478035,50.17585,-49.652287,-9.487166,-51.030743
-90.00152,-90.01761,-50.71718,51.49106,-47.997665,-10.662076,-35.060307
-90.001015,-90.01005,-49.41289,52.36987,-49.322517,-13.823689,-17.564949
-90.001015,-90.00716,-47.06789,52.73266,-51.80571,-10.57042,-4.750663
-90.00187,-90.008804,-50.151463,47.84369,-57.082146,-5.820256,-18.19776
-90.00085,-90.02791,-46.232635,44.47603,-59.012074,-19.993082,81.51663
-90.00128,-90.00468,-50.114235,52.387756,-56.075,-5.920852,-8.700428
-90.001236,-90.00632,-47.13983,54.837402,-52.36938,-6.3868136,-3.993421
-90.0012,-90.00759,-48.161083,55.87269,-53.119083,-7.0724196,-6.7337103
-90.00123,-90.00717,-47.611168,55.691772,-52.59578,-5.883551,-6.034535
-90.00131,-90.005486,-46.826515,54.598,-52.76775,-4.0612907,-1.3981249
-90.00091,-89.999466,-50.96107,49.72161,-53.19468,-6.8028197,5.2103634
-90.00095,-90.0242,-47.455936,49.162365,-55.46495,-17.144436,94.545654
-90.00208,-90.008316,-49.33955,51.293312,-54.647743,6.857147,-40.855347
-90.00167,-90.015785,-49.472298,50.88651,-47.88003,-6.021163,-38.81561
-90.00174,-90.006256,-46.45154,50.341537,-44.52999,14.5858345,-31.222906
-90.001114,-90.00527,-44.608456,50.1126,-42.990185,35.65824,3.197599
-90.00049,-90.00466,-44.692516,51.331364,-45.505096,11.928421,45.582653
-90.00085,-90.0217,-49.606342,52.56696,-46.630695,13.246773,71.85527
-90.00003,-90.01157,-44.22848,50.668434,-49.455864,12.359643,89.80972
-90.000786,-90.01581,-46.054344,50.222157,-46.982216,62.419006,-82.165115
-90.000015,-90.01274,-46.659924,52.343494,-40.622757,12.43031,-70.30986
-90.00069,-90.012314,-41.981453,50.747738,-39.193516,45.62881,-36.534378
-90.000534,-90.015755,-42.62001,49.639263,-39.284214,50.9462,-9.86046
-90.001274,-90.01749,-48.14388,49.909203,-43.288834,53.803192,24.618002
-90.00107,-90.006805,-44.984722,47.778362,-43.08337,60.5588,57.408154
-90.00158,-89.98973,-46.930183,47.011272,-42.54776,54.774693,88.48752
-90.0029,-90.00586,-45.493645,45.806255,-40.65278,78.43997,-87.27877
-90.00072,-90.0059,-47.209805,46.96666,-38.24459,95.61112,-60.745724
-89.99906,-90.01815,-49.30852,47.203285,-43.54719,96.15437,-29.70975
-89.99879,-90.030464,-43.742615,44.112446,-47.31645,95.15711,0.5700064
-89.99926,-90.01487,-48.611557,43.15368,-49.34273,90.192474,30.54356
-90.00181,-89.98344,-50.646324,49.352295,-41.99188,88.654236,62.53144
-90.00195,-89.986435,-47.667694,49.264736,-36.87524,89.33661,93.458565
-90.00214,-90.04424,-46.846313,44.66173,-17.390667,-82.758286,-81.00668
-90.00054,-90.0193,-42.3705,45.09154,-23.712845,-89.68847,-62.49388
-89.99855,-90.04116,-51.860798,51.397785,-10.798751,-82.72366,-31.275908
-89.99921,-90.0381,-51.885715,51.710217,-14.117243,-86.62721,-4.5204372
-89.99983,-90.03907,-49.71293,52.463425,-20.025389,-93.66414,26.147184
-89.999344,-90.060745,-51.201515,51.621277,-27.613781,-90.75372,56.0862
-89.99925,-90.05051,-49.41581,55.221302,-33.34561,-83.23912,89.05488
-89.999695,-90.03381,-42.314075,49.782646,-25.741621,-64.24815,-92.94883
-89.99989,-90.027626,-40.127335,52.38192,-27.567804,-71.93279,-56.892937
-89.999535,-90.03321,-43.556103,53.26445,-27.94061,-66.39008,-21.198555
-89.99943,-90.026505,-41.49663,53.170864,-27.352695,-60.69003,5.730564
-89.99963,-90.01312,-36.84499,52.099785,-29.024446,-48.067783,28.500156
-90.00041,-90.02987,-36.97771,52.995464,-28.887629,-32.278805,73.324776
-90.0,-90.0517,-32.816902,51.142483,-39.780346,-50.587673,91.06122
-90.00131,-90.028046,-32.1355,43.68265,-34.505028,-32.129337,-74.57365
-90.00176,-90.015144,-35.00949,48.793396,-34.291748,-7.8525457,-43.99112
-90.001526,-90.01504,-36.431225,51.46341,-35.18038,-12.1474695,-37.706516
-90.0009,-90.00808,-34.557858,52.01458,-35.22238,-15.411678,-20.146996
-90.00072,-90.00366,-29.83392,50.28252,-35.36257,-7.865552,-4.9258804
-90.00168,-90.00443,-29.77982,46.785713,-41.57216,11.219972,-35.864418
-90.0002,-90.02668,-12.333723,39.43037,-60.578545,-13.252162,76.46851
-90.00098,-90.00088,-28.738226,48.866444,-41.09893,-5.1065707,2.689303
-90.0009,-90.000656,-30.59173,53.759335,-38.199818,-6.681278,-2.4034564
-90.00094,-90.00087,-32.523643,55.592686,-39.212627,-7.403688,-4.084404
-90.00099,-90.00059,-32.221153,55.533703,-39.113243,-6.227819,-3.6767428
-90.00105,-90.00022,-29.89487,53.169582,-38.63923,-3.6806836,-1.3206762
-90.000824,-90.00533,-28.97186,48.150833,-43.027317,-2.523487,4.3884263
-90.00045,-90.02173,-18.951199,42.038685,-50.445717,-9.183726,90.7798
-90.00112,-90.00307,-27.860233,47.44603,-39.25987,1.432046,-15.44012
-90.001564,-90.015564,-35.57632,49.68616,-36.04998,-7.650119,-34.985703
-90.001686,-89.9974,-33.63011,49.47112,-33.37383,26.392183,-24.84328
-90.0014,-89.99535,-33.82228,49.18595,-33.35852,38.04965,5.12246
-90.00056,-90.00192,-33.27273,49.06908,-30.727314,8.966923,33.0975
-90.000496,-90.01779,-30.933878,49.90581,-28.080711,20.69921,61.707672
-89.999825,-90.01807,-28.62684,50.15636,-39.257385,18.045628,87.552475
-90.00026,-90.0109,-31.342678,48.74043,-23.830858,50.67487,-81.61147
-90.00015,-90.00314,-31.657932,50.43924,-26.6813,39.236797,-61.54878
-90.00076,-90.01595,-31.510754,49.43075,-25.24071,48.141468,-31.566732
-90.00066,-90.02241,-30.376257,48.897854,-25.097801,52.454567,-10.915378
-90.00115,-90.01582,-32.4778,49.143566,-26.487648,59.896168,20.780256
-90.00087,-90.015015,-32.68828,47.744644,-29.860176,54.34005,54.54821
-90.0017,-89.98832,-34.159573,46.511642,-29.127264,55.27021,90.71145
-90.00283,-90.00627,-32.58834,44.97273,-27.230291,79.92773,-81.37368
-90.00069,-90.00212,-36.611443,46.347427,-26.904915,91.608315,-58.44431
-89.99868,-90.01658,-32.894135,46.329735,-27.46731,94.45212,-32.51455
-89.99826,-90.03057,-31.650528,44.87913,-33.36009,97.55404,-6.300074
-89.99911,-90.01521,-35.410286,43.041046,-32.63762,89.59251,25.030174
-90.00145,-89.99523,-36.93924,47.714294,-27.27726,85.586555,61.46707
-90.001625,-89.99177,-34.700466,48.79187,-23.891958,89.087,95.726425
-90.00166,-90.046234,-31.91809,45.604664,-3.9306877,-85.709816,-84.410736
-90.0006,-90.021355,-31.319393,46.257874,-11.394452,-92.17733,-63.756577
-89.99856,-90.04531,-42.629944,50.70241,-3.3058264,-92.30505,-30.114264
-89.99907,-90.04262,-42.092102,51.691082,-5.459817,-96.414345,-0.8464281
-89.99974,-90.04409,-35.626003,51.639378,-8.185014,-88.046394,27.196007
-89.99926,-90.0524,-33.132057,51.489433,-12.254547,-79.50122,54.906677
-89.99891,-90.05544,-31.48965,54.974113,-13.7079315,-77.42443,87.41083
-89.99946,-90.02369,-33.18825,48.168175,-11.284134,-69.80258,-99.258545
-89.99971,-90.01602,-28.712744,51.89221,-11.254513,-73.01497,-58.18198
-89.99943,-90.01513,-29.84438,52.616364,-10.300011,-69.9967,-30.872026
-89.99927,-90.01218,-27.168112,50.711918,-10.180643,-63.79794,-3.3052013
-89.99955,-90.002846,-24.504694,48.392483,-9.303395,-59.34855,19.125336
-90.0004,-90.00558,-27.77375,50.834953,-7.935933,-35.408245,61.298508
-89.99986,-90.04885,-19.738525,48.63691,-20.630411,-44.338264,94.80894
-90.00136,-90.01502,-28.336906,43.939747,-9.44102,-30.745754,-73.63373
-90.0014,-90.01443,-30.243702,46.005367,-9.050743,-25.074636,-54.134247
-90.00111,-90.01537,-30.716599,47.74919,-7.7251363,-11.536362,-43.99528
-90.000496,-90.009895,-30.073503,48.2861,-7.974041,-9.878779,-21.800135
-90.0002,-89.99995,-27.392046,47.915512,-9.588161,-17.767086,-6.393549
-90.00091,-89.99439,-24.910929,49.35287,-11.319478,-0.26995644,-11.553796
-90.0001,-90.01733,1.2065513,40.12891,-38.803314,-11.414797,76.2303
-90.00073,-89.993256,-24.852386,50.397995,-10.797468,-5.3618298,-2.0682962
-90.00071,-90.00068,-28.245586,50.35459,-9.201542,-4.602112,-6.96528
-90.0007,-90.00872,-23.770193,51.809082,-15.447936,-3.9372754,-6.900409
-90.00078,-90.00796,-23.865143,51.966938,-14.966682,-3.1040397,-6.4308295
-90.000916,-89.99958,-26.91413,50.98589,-9.193453,-1.2774242,-5.058524
-90.000786,-89.995575,-24.699142,51.707016,-9.848191,-1.1336079,-1.1029097
-90.00011,-90.01658,6.463552,43.514233,-41.238026,-3.5973902,86.402
-90.00089,-89.998924,-26.650238,48.720085,-9.637461,1.9191155,-12.118733
-90.001175,-90.019875,-26.531488,48.672504,-11.309215,2.621803,-44.49901
-90.00069,-90.01804,-17.858578,47.349346,-11.186086,23.020319,-24.982725
-90.000854,-90.009056,-22.159185,46.161003,-6.696408,36.949112,5.4218225
-90.00054,-90.002716,-25.186832,46.94657,-6.791172,22.33269,32.6559
-90.00041,-90.01807,-21.605743,50.74131,-6.8068795,24.668592,51.049526
-89.99949,-90.02664,-2.1620057,48.345108,-32.01275,9.76779,75.28609
-90.00064,-90.00744,-24.70413,50.53362,-9.937691,45.97199,-79.84864
-89.99976,-89.99343,-23.239857,50.579815,-12.583611,49.555298,-67.830505
-90.00031,-90.012634,-20.92328,49.711178,-14.371291,53.708607,-35.373535
-90.0007,-90.02025,-20.633497,49.672657,-9.419446,55.355,-9.883289
-90.00116,-90.01644,-20.830515,50.650555,-13.184638,65.46924,25.834078
-90.00056,-90.02231,-18.366657,48.764175,-13.754136,52.92239,59.894096
-90.00111,-89.99642,-19.04354,47.891922,-13.217255,58.676697,84.7366
-90.00157,-90.01112,-20.341728,46.300777,-12.405112,81.20505,-83.16447
-90.00088,-90.000885,-22.867186,45.72306,-14.560719,87.33981,-55.710712
-89.998795,-90.01343,-21.521545,45.30973,-18.347149,87.00607,-30.279709
-89.9979,-90.03461,-21.089674,44.772255,-21.620722,96.01893,-1.756585
-89.999214,-90.012436,-24.56042,44.832172,-18.804327,91.20663,30.24568
-90.001045,-90.00138,-21.99078,46.7227,-12.004065,88.017914,64.141014
-90.00131,-89.99455,-23.728373,50.2396,-13.527776,93.15902,92.00776
-90.001915,-90.055244,-23.919518,45.801163,2.595798,-86.72567,-90.051735
-90.00078,-90.02479,-20.984655,46.27549,-1.4357171,-90.25661,-62.132195
-89.99895,-90.04284,-24.100563,50.787117,6.407835,-86.91388,-30.457495
-89.9994,-90.049644,-20.325565,52.303047,10.871107,-95.51264,-2.1181219
-89.99985,-90.04971,-20.077353,51.54548,5.782409,-90.514,29.29382
-89.999115,-90.056694,-14.131203,51.87066,2.5620055,-92.57412,55.119205
-89.99891,-90.051735,-14.843135,55.949226,-2.0518553,-80.7674,85.15279
-90.000404,-90.03387,-7.855242,50.623875,-12.336278,-74.346756,-89.14707
-89.99994,-90.002945,-14.038278,50.305515,-1.3765748,-65.52318,-61.59987
-89.999664,-89.9956,-13.898432,48.581577,8.736094,-68.47541,-30.025894
-89.999435,-89.99883,-14.668844,49.11187,10.325973,-64.101395,-5.0625362
-89.99912,-90.0152,-13.860658,51.129013,2.752535,-65.48317,38.46026
-89.999374,-90.03617,-12.712952,51.92433,-1.1951401,-69.34188,66.01525
-89.99892,-90.05317,-14.112718,51.52128,-0.016317314,-56.803127,92.59917
-90.00063,-90.02643,-12.040099,45.989967,6.7307653,-31.170115,-78.23139
-89.99957,-90.008675,-10.424644,47.526768,11.36697,-23.034588,-61.381042
-90.00002,-89.99691,-11.133446,45.387688,10.094282,-16.811369,-33.843876
-89.99985,-89.99546,-10.788472,45.491673,10.7890835,-20.96293,-24.927732
-89.99871,-90.01048,-9.542767,47.75713,11.665164,-30.542427,24.362123
-89.999725,-90.01378,-3.5550606,49.85499,-8.53003,-22.559898,47.931896
-89.99944,-90.03473,11.893997,43.3631,-31.733892,-14.184096,78.24518
-89.99978,-90.018745,-3.263344,50.90691,-10.431375,-20.096882,37.248127
-90.00037,-89.99221,-13.760007,47.385937,5.4894743,-2.2662635,-69.14096
-90.00001,-89.989136,-12.058921,46.96494,8.887597,-0.37622148,-13.037014
-90.000015,-89.988914,-12.28259,46.863045,8.851746,-0.65147716,-13.365733
-89.99952,-89.98911,-9.843746,47.63803,13.196703,-2.5721395,33.507477
-90.000114,-90.01141,4.135938,40.96409,-20.36321,2.5214825,47.63418
-89.999565,-90.02657,7.501884,40.31999,-21.4904,-3.789287,77.388756
-89.99964,-90.011185,-10.958836,48.37409,9.848269,25.080353,-83.71724
-90.000755,-90.00085,-12.22825,46.919937,6.637364,26.014105,-63.105946
-90.00088,-90.01108,-15.171453,47.48774,2.2700455,23.876001,-37.438404
-90.00072,-90.014305,-14.765897,47.665604,1.5014101,26.877438,-21.440845
-90.000275,-90.0132,-11.6697645,47.111343,4.439134,26.492313,7.7582717
-90.00022,-90.00983,-14.931851,51.41327,8.425784,18.681969,64.68662
-89.999664,-90.02401,-11.597212,49.381596,-0.7001297,13.875022,90.13825
-90.00031,-89.99504,-12.658644,50.590134,3.8762043,64.14394,-91.545815
-89.999886,-90.0009,-17.018152,50.125675,6.8286543,63.25576,-57.973454
-90.000175,-90.01,-13.486988,49.824947,8.719593,62.027958,-32.834
-90.00063,-90.01428,-15.239395,50.088512,10.953454,61.273323,-0.8883654
-90.0012,-90.01716,-15.845299,51.002857,6.311793,65.283585,27.32396
-90.00039,-90.01947,-9.712891,47.806385,-7.3137364,58.649456,55.52245
-90.00104,-89.99969,-5.9511733,47.156757,2.2366803,56.71689,87.22471
-90.00156,-90.013145,-5.0964093,45.521587,4.368495,85.06022,-87.70204
-90.0012,-89.99848,-4.6504617,45.733265,3.5413308,95.46154,-60.928608
-89.99945,-90.01071,-5.062083,43.894897,1.3809888,86.44442,-31.76081
-89.998535,-90.020836,-3.804127,44.42155,0.9793168,97.01683,2.7383637
-90.00017,-90.006386,-5.4816003,43.502663,2.316172,89.46635,28.540321
-90.00095,-90.00671,-6.229669,44.860718,3.741011,87.49361,60.279297
-90.00088,-90.00192,-9.393043,46.978188,0.62788147,88.90916,87.515785
-90.00214,-90.06034,-21.004854,45.36705,2.1653051,-87.0808,-91.87815
-90.00073,-90.02356,-26.971642,45.946243,-7.160651,-89.35156,-62.392998
-89.9986,-90.04515,-40.17133,50.520542,-2.416379,-91.66733,-30.14773
-89.99912,-90.03962,-47.476345,51.306316,-10.200175,-93.38536,-1.6266878
-89.99981,-90.039444,-48.353878,52.13213,-19.455978,-92.963615,25.505724
-89.99938,-90.06157,-54.279446,51.998913,-28.539959,-93.51004,58.93739
-89.99952,-90.05139,-60.27521,56.623837,-43.12806,-88.843376,91.10742
-90.00009,-90.0373,-59.529396,50.853966,-44.83166,-60.70556,-88.33721
-90.00004,-90.03459,-59.80516,52.02294,-44.994232,-45.9744,-55.725574
-89.99988,-90.03835,-68.11421,53.15684,-49.068882,-61.8411,-23.926563
-90.00011,-90.02937,-69.235176,53.173214,-53.513626,-55.992382,9.099577
-90.00108,-90.01251,-67.93945,52.852184,-64.258766,-29.722702,50.313965
-90.00144,-90.04387,-73.28053,52.93114,-62.944508,-54.83047,70.356636
-90.00109,-90.053986,-77.76025,54.776234,-65.268684,-71.53729,99.11707
-90.00211,-90.050934,-81.692245,52.381905,-66.424286,-70.31762,-8.464953
-90.002075,-90.03647,-80.267975,51.68444,-76.54223,-14.837716,-61.644665
-90.00188,-90.0295,-81.37489,54.110786,-78.17092,-1.8569231,-33.686382
-90.00139,-90.02404,-80.89595,55.205975,-81.290596,-15.003236,-12.857606
-90.00131,-90.02305,-83.56702,53.821323,-83.36534,-16.536524,-12.426434
-90.00095,-90.01599,-85.18263,46.556694,-86.79129,-16.958105,14.5170765
-90.00088,-90.02644,-91.87618,46.374786,-82.47645,-26.950998,88.76398
-90.00043,-90.02023,-91.65049,49.127583,-89.105286,-12.020867,13.817208
-90.000916,-90.02394,-90.29879,55.60051,-93.03188,-4.9275723,-9.979025
-90.00086,-90.02829,-89.344696,56.818817,-91.08878,-0.5821488,-6.413346
-90.00079,-90.02788,-91.09006,56.508553,-93.49725,-1.2558291,-8.379083
-89.99987,-90.02594,-91.58389,51.708755,-89.12824,-4.5572743,11.177539
-89.99994,-90.055336,-91.27221,48.195698,-90.37789,-3.68176,63.232285
-90.00215,-90.04003,-99.83894,41.07226,-102.02128,8.583863,69.03493
